; SvgToGcode v1.5.4
; GRBL 1.1, unit=mm, absolute coordinates
; Boundingbox: (X0.000498,Y-0.000310) to (X813.310000,Y791.716000)
; rapid movement,XY plane,cutter compensation off,coordinate system 1,move 'unit'/min
G0 G17 G40 G54 G94
G21
G90
; pass #1
M5
G0 X722.258680 Y91.825540
; Cut at 300 mm/min, 100% power
M4
G1 X722.333634 Y92.908849 S255 F300
G1 X722.452573 Y93.939400
G1 X722.615498 Y94.917193
G1 X722.822409 Y95.842227
G1 X723.073305 Y96.714502
G1 X723.368188 Y97.534019
G1 X723.707056 Y98.300777
G1 X724.089909 Y99.014777
G1 X724.516749 Y99.676019
G1 X724.987574 Y100.284502
G1 X725.502385 Y100.840226
G1 X726.061182 Y101.343192
G1 X726.663964 Y101.793399
G1 X727.310733 Y102.190848
G1 X728.001487 Y102.535538
G1 X728.736226 Y102.827470
G1 X729.514952 Y103.066644
G1 X730.337663 Y103.253058
G1 X731.204360 Y103.386715
G1 X732.115043 Y103.467613
G1 X733.069711 Y103.495752
G1 X734.068365 Y103.471133
G1 X735.111005 Y103.393755
G1 X735.625110 Y103.338110
M5
G0 X725.036240 Y110.600770
; Cut at 300 mm/min, 100% power
G1 X724.999247 Y109.914797
G1 X724.888698 Y109.236780
G1 X724.705875 Y108.574584
G1 X724.452898 Y107.935890
G1 X724.132701 Y107.328106
G1 X723.749000 Y106.758281
G1 X723.306243 Y106.233024
G1 X722.809567 Y105.758429
G1 X722.264732 Y105.340000
G1 X721.678059 Y104.982590
G1 X721.056351 Y104.690345
G1 X720.406820 Y104.466655
G1 X719.737000 Y104.314114
G1 X719.054660 Y104.234491
G1 X718.657590 Y104.222120
G1 X717.971617 Y104.259113
G1 X717.293600 Y104.369662
G1 X716.631404 Y104.552485
G1 X715.992710 Y104.805462
G1 X715.384926 Y105.125659
G1 X714.815101 Y105.509360
G1 X714.289844 Y105.952117
G1 X713.815249 Y106.448793
G1 X713.396820 Y106.993628
G1 X713.039410 Y107.580301
G1 X712.747165 Y108.202009
G1 X712.523475 Y108.851540
G1 X712.370934 Y109.521360
G1 X712.291311 Y110.203700
G1 X712.278940 Y110.600770
G1 X712.315933 Y111.286743
G1 X712.426482 Y111.964760
G1 X712.609305 Y112.626956
G1 X712.862282 Y113.265650
G1 X713.182479 Y113.873434
G1 X713.566180 Y114.443259
G1 X714.008937 Y114.968516
G1 X714.505613 Y115.443111
G1 X715.050448 Y115.861540
G1 X715.637121 Y116.218950
G1 X716.258829 Y116.511195
G1 X716.908360 Y116.734885
G1 X717.578180 Y116.887426
G1 X718.260520 Y116.967049
G1 X718.657590 Y116.979420
G1 X719.343563 Y116.942427
G1 X720.021580 Y116.831878
G1 X720.683776 Y116.649055
G1 X721.322470 Y116.396078
G1 X721.930254 Y116.075881
G1 X722.500079 Y115.692180
G1 X723.025336 Y115.249423
G1 X723.499931 Y114.752747
G1 X723.918360 Y114.207912
G1 X724.275770 Y113.621239
G1 X724.568015 Y112.999531
G1 X724.791705 Y112.350000
G1 X724.944246 Y111.680180
G1 X725.023869 Y110.997840
G1 X725.036240 Y110.600770
M5
G0 X717.619690 Y99.859490
; Cut at 300 mm/min, 100% power
G1 X719.420230
G1 Y87.255730
G1 X717.619690
G1 Y99.859490
M5
G0 X289.219800 Y474.796020
; Cut at 300 mm/min, 100% power
G1 X289.182527 Y471.487558
G1 X289.070708 Y468.198329
G1 X288.909740 Y465.306020
G1 X288.653865 Y461.934568
G1 X288.318769 Y458.570067
G1 X287.904637 Y455.214378
G1 X287.411698 Y451.869356
G1 X286.840225 Y448.536853
G1 X286.190533 Y445.218712
G1 X285.462983 Y441.916769
G1 X284.657976 Y438.632851
G1 X283.775959 Y435.368773
G1 X282.817419 Y432.126342
G1 X281.782886 Y428.907352
G1 X280.672932 Y425.713582
G1 X279.488172 Y422.546801
G1 X278.229262 Y419.408760
G1 X276.896897 Y416.301195
G1 X275.491814 Y413.225825
G1 X275.440020 Y413.116020
G1 X275.250080 Y412.716020
G1 X274.139720 Y410.446020
G1 X272.618211 Y407.470343
G1 X271.027110 Y404.531289
G1 X269.367300 Y401.630483
G1 X267.639697 Y398.769534
G1 X266.489820 Y396.946020
G1 X264.796620 Y394.354072
G1 X263.048263 Y391.799005
G1 X261.245554 Y389.281992
G1 X259.389318 Y386.804188
G1 X257.480411 Y384.366732
G1 X255.519706 Y381.970744
G1 X253.508107 Y379.617324
G1 X251.446536 Y377.307553
G1 X249.335940 Y375.042491
G1 X247.177289 Y372.823180
G1 X244.971573 Y370.650637
G1 X242.719807 Y368.525862
G1 X240.423025 Y366.449830
G1 X238.082280 Y364.423495
G1 X235.698650 Y362.447787
G1 X233.273227 Y360.523613
G1 X230.807126 Y358.651858
G1 X228.301480 Y356.833381
G1 X225.757440 Y355.069018
G1 X223.176174 Y353.359578
G1 X220.558867 Y351.705847
G1 X217.906723 Y350.108584
G1 X215.220958 Y348.568524
G1 X212.502806 Y347.086373
G1 X209.753517 Y345.662812
G1 X206.974352 Y344.298494
G1 X204.166588 Y342.994048
G1 X201.331515 Y341.750071
G1 X198.470434 Y340.567135
G1 X195.584660 Y339.445783
G1 X192.675519 Y338.386531
G1 X189.744346 Y337.389865
G1 X186.792487 Y336.456242
G1 X183.821300 Y335.586092
G1 X180.832147 Y334.779813
G1 X177.826402 Y334.037778
G1 X174.805445 Y333.360325
G1 X171.770665 Y332.747767
G1 X168.723455 Y332.200384
G1 X165.665214 Y331.718429
G1 X162.597347 Y331.302122
G1 X159.521263 Y330.951655
G1 X156.438375 Y330.667189
G1 X153.350099 Y330.448853
G1 X150.257853 Y330.296750
G1 X147.929760 Y330.226020
G1 X149.359940 Y247.986020
G1 X168.009840 Y257.806020
G1 X171.339920 Y251.476020
G1 X149.500080 Y239.976020
G1 X152.170000 Y87.236020
G1 X152.199780 Y85.196020
G1 X137.779860 Y81.986020
G1 X137.809650 Y84.036020
G1 X142.349650 Y330.216020
G1 X139.028635 Y330.301960
G1 X135.710481 Y330.464396
G1 X132.396951 Y330.703241
G1 X129.089803 Y331.018370
G1 X125.790795 Y331.409615
G1 X122.501677 Y331.876767
G1 X119.224196 Y332.419580
G1 X115.960091 Y333.037764
G1 X112.711097 Y333.730992
G1 X109.478938 Y334.498895
G1 X106.265329 Y335.341066
G1 X103.071979 Y336.257058
G1 X99.900581 Y337.246384
G1 X96.752820 Y338.308519
G1 X93.630368 Y339.442899
G1 X90.534881 Y340.648922
G1 X87.468004 Y341.925948
G1 X84.431364 Y343.273297
G1 X81.426575 Y344.690256
G1 X78.455232 Y346.176071
G1 X75.518911 Y347.729954
G1 X72.619173 Y349.351080
G1 X69.757557 Y351.038588
G1 X66.935583 Y352.791582
G1 X64.154747 Y354.609131
G1 X61.416528 Y356.490270
G1 X58.722379 Y358.434001
G1 X56.073730 Y360.439291
G1 X53.471988 Y362.505076
G1 X50.918534 Y364.630259
G1 X48.414724 Y366.813711
G1 X45.961887 Y369.054274
G1 X43.561326 Y371.350757
G1 X41.214314 Y373.701941
G1 X40.349650 Y374.596020
G1 X38.143342 Y376.939779
G1 X37.659710 Y377.466020
G1 X37.559620 Y377.576020
G1 X35.327735 Y380.067124
G1 X33.153996 Y382.609125
G1 X31.039564 Y385.200665
G1 X28.985566 Y387.840362
G1 X26.993100 Y390.526807
G1 X25.063228 Y393.258565
G1 X23.196982 Y396.034179
G1 X21.395356 Y398.852167
G1 X19.659314 Y401.711024
G1 X17.989781 Y404.609224
G1 X16.387648 Y407.545222
G1 X14.853772 Y410.517448
G1 X13.388970 Y413.524318
G1 X11.994025 Y416.564225
G1 X11.219770 Y418.336020
G1 X11.649950 Y417.866020
G1 X10.399136 Y420.884861
G1 X9.216837 Y423.931189
G1 X8.103658 Y427.003447
G1 X7.060166 Y430.100068
G1 X6.086893 Y433.219472
G1 X5.184338 Y436.360067
G1 X4.352959 Y439.520249
G1 X3.593182 Y442.698405
G1 X2.905395 Y445.892914
G1 X2.289947 Y449.102145
G1 X1.747155 Y452.324461
G1 X1.277293 Y455.558215
G1 X0.880603 Y458.801759
G1 X0.557287 Y462.053437
G1 X0.307510 Y465.311588
G1 X0.131399 Y468.574551
G1 X0.029044 Y471.840659
G1 X0.000498 Y475.108246
G1 X0.045774 Y478.375644
G1 X0.164851 Y481.641186
G1 X0.357666 Y484.903204
G1 X0.624123 Y488.160033
G1 X0.964084 Y491.410013
G1 X1.377376 Y494.651483
G1 X1.863788 Y497.882790
G1 X2.423073 Y501.102284
G1 X3.054943 Y504.308322
G1 X3.759078 Y507.499267
G1 X4.535118 Y510.673492
G1 X5.382666 Y513.829376
G1 X6.301291 Y516.965307
G1 X7.290522 Y520.079687
G1 X8.349856 Y523.170925
G1 X9.478751 Y526.237444
G1 X10.676631 Y529.277677
G1 X11.942886 Y532.290075
G1 X13.276869 Y535.273099
G1 X14.677898 Y538.225226
G1 X16.145259 Y541.144951
G1 X17.678203 Y544.030782
G1 X19.275948 Y546.881247
G1 X20.937678 Y549.694891
G1 X22.662545 Y552.470278
G1 X24.449668 Y555.205992
G1 X26.298136 Y557.900636
G1 X28.207005 Y560.552835
G1 X30.175300 Y563.161236
G1 X32.202018 Y565.724506
G1 X34.286124 Y568.241338
G1 X36.426553 Y570.710447
G1 X38.622215 Y573.130573
G1 X40.871987 Y575.500481
G1 X43.174722 Y577.818962
G1 X45.529245 Y580.084831
G1 X47.934353 Y582.296932
G1 X50.388820 Y584.454137
G1 X52.891392 Y586.555345
G1 X55.440792 Y588.599482
G1 X58.035720 Y590.585506
G1 X60.674850 Y592.512404
G1 X63.356835 Y594.379190
G1 X66.080308 Y596.184914
G1 X68.843877 Y597.928653
G1 X71.646133 Y599.609517
G1 X74.485644 Y601.226648
G1 X77.360963 Y602.779221
G1 X80.229540 Y604.246020
G1 X81.739790 Y604.986020
G1 X84.650458 Y606.348413
G1 X87.590655 Y607.645853
G1 X90.558930 Y608.877699
G1 X93.553821 Y610.043345
G1 X96.573852 Y611.142217
G1 X99.617534 Y612.173772
G1 X102.683366 Y613.137502
G1 X105.769838 Y614.032932
G1 X108.875428 Y614.859621
G1 X111.998605 Y615.617161
G1 X115.137831 Y616.305179
G1 X118.291557 Y616.923336
G1 X121.458228 Y617.471326
G1 X124.636285 Y617.948881
G1 X127.824161 Y618.355764
G1 X131.020284 Y618.691774
G1 X134.223078 Y618.956747
G1 X137.430966 Y619.150552
G1 X140.642366 Y619.273093
G1 X143.855694 Y619.324310
G1 X147.069368 Y619.304177
G1 X150.281803 Y619.212704
G1 X153.491415 Y619.049937
G1 X156.696623 Y618.815956
G1 X159.895846 Y618.510876
G1 X163.087508 Y618.134847
G1 X166.270036 Y617.688055
G1 X169.441860 Y617.170721
G1 X172.601418 Y616.583098
G1 X175.747151 Y615.925477
G1 X178.877510 Y615.198181
G1 X181.990951 Y614.401570
G1 X185.085939 Y613.536036
G1 X188.160950 Y612.602006
G1 X191.214467 Y611.599939
G1 X194.244986 Y610.530331
G1 X197.251012 Y609.393708
G1 X200.231063 Y608.190630
G1 X203.183672 Y606.921691
G1 X206.107382 Y605.587515
G1 X209.000752 Y604.188761
G1 X211.862357 Y602.726118
G1 X214.690785 Y601.200307
G1 X217.484642 Y599.612081
G1 X220.242552 Y597.962221
G1 X222.963155 Y596.251541
G1 X225.645109 Y594.480885
G1 X228.287094 Y592.651125
G1 X230.887806 Y590.763163
G1 X233.445964 Y588.817929
G1 X235.960306 Y586.816383
G1 X238.429594 Y584.759512
G1 X240.852611 Y582.648328
G1 X243.228161 Y580.483873
G1 X245.555074 Y578.267213
G1 X247.832203 Y575.999442
G1 X250.058426 Y573.681676
G1 X252.232644 Y571.315059
G1 X254.353788 Y568.900757
G1 X256.420810 Y566.439960
G1 X258.432693 Y563.933881
G1 X260.388444 Y561.383755
G1 X262.287099 Y558.790839
G1 X264.127723 Y556.156411
G1 X265.909408 Y553.481771
G1 X267.631276 Y550.768235
G1 X269.269580 Y548.056020
G1 X270.716035 Y545.552185
G1 X271.819870 Y543.546020
G1 X273.385833 Y540.576456
G1 X274.882073 Y537.571158
G1 X276.307772 Y534.531761
G1 X277.662157 Y531.459923
G1 X278.944487 Y528.357314
G1 X280.154066 Y525.225626
G1 X281.290235 Y522.066564
G1 X282.352374 Y518.881849
G1 X283.339905 Y515.673215
G1 X284.252291 Y512.442410
G1 X285.089033 Y509.191193
G1 X285.849678 Y505.921335
G1 X286.533809 Y502.634617
G1 X287.141056 Y499.332829
G1 X287.671086 Y496.017770
G1 X288.123612 Y492.691245
G1 X288.498387 Y489.355065
G1 X288.795206 Y486.011048
G1 X289.013909 Y482.661015
G1 X289.154375 Y479.306791
G1 X289.216529 Y475.950203
G1 X289.219800 Y474.796020
M5
G0 X459.293140 Y602.176590
; Cut at 300 mm/min, 100% power
G1 X459.257548 Y598.503572
G1 X459.150784 Y594.831933
G1 X458.972889 Y591.163052
G1 X458.723929 Y587.498308
G1 X458.403999 Y583.839077
G1 X458.013217 Y580.186733
G1 X457.551732 Y576.542647
G1 X457.019715 Y572.908188
G1 X456.417368 Y569.284722
G1 X455.744915 Y565.673609
G1 X455.002611 Y562.076205
G1 X454.190733 Y558.493862
G1 X453.309587 Y554.927924
G1 X452.359503 Y551.379732
G1 X451.340838 Y547.850617
G1 X450.253975 Y544.341905
G1 X449.099322 Y540.854914
G1 X447.877312 Y537.390954
G1 X446.588405 Y533.951325
G1 X445.233085 Y530.537319
G1 X443.811861 Y527.150218
G1 X442.325266 Y523.791295
G1 X440.773859 Y520.461810
G1 X439.158222 Y517.163016
G1 X437.478962 Y513.896149
G1 X435.736710 Y510.662438
G1 X433.932121 Y507.463096
G1 X432.065871 Y504.299326
G1 X430.138662 Y501.172315
G1 X428.151218 Y498.083239
G1 X426.104285 Y495.033256
G1 X423.998632 Y492.023513
G1 X421.835049 Y489.055139
G1 X419.614350 Y486.129251
G1 X417.337368 Y483.246946
G1 X415.004958 Y480.409307
G1 X412.617996 Y477.617400
G1 X410.177380 Y474.872273
G1 X407.684025 Y472.174958
G1 X405.138867 Y469.526467
G1 X402.542864 Y466.927795
G1 X399.896989 Y464.379918
G1 X397.202237 Y461.883793
G1 X394.459619 Y459.440358
G1 X391.670166 Y457.050529
G1 X388.834925 Y454.715205
G1 X385.954960 Y452.435263
G1 X383.031355 Y450.211559
G1 X380.065206 Y448.044928
G1 X377.057628 Y445.936184
G1 X374.009750 Y443.886118
G1 X370.922716 Y441.895501
G1 X367.797687 Y439.965081
G1 X364.635836 Y438.095582
G1 X361.438350 Y436.287706
G1 X358.206430 Y434.542133
G1 X354.941291 Y432.859518
G1 X351.644158 Y431.240493
G1 X348.316269 Y429.685666
G1 X344.958875 Y428.195621
G1 X341.573236 Y426.770917
G1 X338.160624 Y425.412091
G1 X334.722321 Y424.119651
G1 X331.259618 Y422.894083
G1 X327.773815 Y421.735848
G1 X324.266222 Y420.645381
G1 X320.738155 Y419.623091
G1 X317.190941 Y418.669362
G1 X313.625910 Y417.784553
G1 X310.044403 Y416.968995
G1 X306.447764 Y416.222995
G1 X302.837343 Y415.546833
G1 X299.214498 Y414.940763
G1 X295.580588 Y414.405013
G1 X291.936978 Y413.939784
G1 X288.285037 Y413.545250
G1 X284.626136 Y413.221560
G1 X280.961650 Y412.968836
G1 X277.292955 Y412.787172
G1 X273.621427 Y412.676636
G1 X269.948448 Y412.637270
G1 X269.753720 Y412.637170
G1 X266.080702 Y412.672762
G1 X262.409063 Y412.779526
G1 X258.740183 Y412.957421
G1 X255.075439 Y413.206381
G1 X251.416208 Y413.526312
G1 X247.763864 Y413.917094
G1 X244.119778 Y414.378580
G1 X240.485320 Y414.910596
G1 X236.861854 Y415.512944
G1 X233.250741 Y416.185396
G1 X229.653337 Y416.927701
G1 X226.070994 Y417.739579
G1 X222.505057 Y418.620725
G1 X218.956864 Y419.570810
G1 X215.427749 Y420.589475
G1 X211.919038 Y421.676338
G1 X208.432047 Y422.830991
G1 X204.968087 Y424.053000
G1 X201.528458 Y425.341907
G1 X198.114452 Y426.697227
G1 X194.727351 Y428.118452
G1 X191.368428 Y429.605047
G1 X188.038944 Y431.156454
G1 X184.740150 Y432.772091
G1 X181.473283 Y434.451351
G1 X178.239572 Y436.193603
G1 X175.040231 Y437.998193
G1 X171.876461 Y439.864442
G1 X168.749450 Y441.791651
G1 X165.660374 Y443.779095
G1 X162.610391 Y445.826028
G1 X159.600648 Y447.931682
G1 X156.632275 Y450.095264
G1 X153.706386 Y452.315964
G1 X150.824082 Y454.592946
G1 X147.986443 Y456.925356
G1 X145.194536 Y459.312317
G1 X142.449409 Y461.752934
G1 X139.752094 Y464.246289
G1 X137.103603 Y466.791446
G1 X134.504932 Y469.387449
G1 X131.957055 Y472.033324
G1 X129.460930 Y474.728076
G1 X127.017495 Y477.470694
G1 X124.627666 Y480.260147
G1 X122.292343 Y483.095389
G1 X120.012401 Y485.975353
G1 X117.788697 Y488.898958
G1 X115.622066 Y491.865107
G1 X113.513322 Y494.872685
G1 X111.463256 Y497.920563
G1 X109.472640 Y501.007597
G1 X107.542219 Y504.132626
G1 X105.672720 Y507.294477
G1 X103.864845 Y510.491963
G1 X102.119272 Y513.723882
G1 X100.436657 Y516.989022
G1 X98.817632 Y520.286155
G1 X97.262805 Y523.614043
G1 X95.772760 Y526.971437
G1 X94.348057 Y530.357076
G1 X92.989230 Y533.769688
G1 X91.696790 Y537.207991
G1 X90.471222 Y540.670694
G1 X89.312988 Y544.156497
G1 X88.222521 Y547.664090
G1 X87.200231 Y551.192156
G1 X86.246502 Y554.739371
G1 X85.361692 Y558.304401
G1 X84.546135 Y561.885908
G1 X83.800135 Y565.482547
G1 X83.123973 Y569.092968
G1 X82.517903 Y572.715813
G1 X81.982153 Y576.349723
G1 X81.516924 Y579.993332
G1 X81.122390 Y583.645273
G1 X80.798700 Y587.304174
G1 X80.545976 Y590.968660
G1 X80.364312 Y594.637356
G1 X80.253776 Y598.308883
G1 X80.214410 Y601.981862
G1 X80.214310 Y602.176590
G1 X80.249902 Y605.849608
G1 X80.356666 Y609.521247
G1 X80.534561 Y613.190127
G1 X80.783521 Y616.854870
G1 X81.103452 Y620.514102
G1 X81.494234 Y624.166446
G1 X81.955719 Y627.810531
G1 X82.487736 Y631.444989
G1 X83.090084 Y635.068455
G1 X83.762536 Y638.679568
G1 X84.504841 Y642.276972
G1 X85.316719 Y645.859315
G1 X86.197865 Y649.425252
G1 X87.147949 Y652.973444
G1 X88.166614 Y656.502559
G1 X89.253477 Y660.011270
G1 X90.408130 Y663.498261
G1 X91.630140 Y666.962221
G1 X92.919046 Y670.401850
G1 X94.274366 Y673.815856
G1 X95.695591 Y677.202956
G1 X97.182186 Y680.561879
G1 X98.733593 Y683.891363
G1 X100.349230 Y687.190158
G1 X102.028490 Y690.457024
G1 X103.770741 Y693.690735
G1 X105.575331 Y696.890076
G1 X107.441580 Y700.053846
G1 X109.368789 Y703.180857
G1 X111.356233 Y706.269933
G1 X113.403166 Y709.319916
G1 X115.508819 Y712.329659
G1 X117.672402 Y715.298032
G1 X119.893101 Y718.223920
G1 X122.170083 Y721.106225
G1 X124.502493 Y723.943864
G1 X126.889454 Y726.735771
G1 X129.330071 Y729.480897
G1 X131.823425 Y732.178212
G1 X134.368583 Y734.826703
G1 X136.964586 Y737.425375
G1 X139.610460 Y739.973251
G1 X142.305213 Y742.469376
G1 X145.047830 Y744.912812
G1 X147.837283 Y747.302640
G1 X150.672524 Y749.637964
G1 X153.552488 Y751.917906
G1 X156.476093 Y754.141610
G1 X159.442242 Y756.308241
G1 X162.449820 Y758.416985
G1 X165.497698 Y760.467050
G1 X168.584731 Y762.457667
G1 X171.709760 Y764.388087
G1 X174.871611 Y766.257586
G1 X178.069097 Y768.065462
G1 X181.301016 Y769.811035
G1 X184.566155 Y771.493650
G1 X187.863288 Y773.112675
G1 X191.191177 Y774.667502
G1 X194.548570 Y776.157547
G1 X197.934209 Y777.582251
G1 X201.346820 Y778.941077
G1 X204.785123 Y780.233517
G1 X208.247826 Y781.459085
G1 X211.733629 Y782.617320
G1 X215.241222 Y783.707787
G1 X218.769288 Y784.730077
G1 X222.316503 Y785.683806
G1 X225.881533 Y786.568616
G1 X229.463040 Y787.384174
G1 X233.059679 Y788.130174
G1 X236.670099 Y788.806336
G1 X240.292944 Y789.412406
G1 X243.926854 Y789.948156
G1 X247.570463 Y790.413385
G1 X251.222404 Y790.807919
G1 X254.881304 Y791.131609
G1 X258.545790 Y791.384334
G1 X262.214486 Y791.565998
G1 X265.886013 Y791.676534
G1 X269.558992 Y791.715900
G1 X269.753720 Y791.716000
G1 X273.426738 Y791.680408
G1 X277.098377 Y791.573644
G1 X280.767257 Y791.395749
G1 X284.432001 Y791.146790
G1 X288.091232 Y790.826859
G1 X291.743576 Y790.436077
G1 X295.387662 Y789.974592
G1 X299.022120 Y789.442575
G1 X302.645586 Y788.840228
G1 X306.256699 Y788.167776
G1 X309.854103 Y787.425471
G1 X313.436446 Y786.613593
G1 X317.002384 Y785.732447
G1 X320.550576 Y784.782363
G1 X324.079691 Y783.763698
G1 X327.588403 Y782.676835
G1 X331.075394 Y781.522182
G1 X334.539354 Y780.300173
G1 X337.978983 Y779.011266
G1 X341.392989 Y777.655946
G1 X344.780090 Y776.234722
G1 X348.139013 Y774.748127
G1 X351.468497 Y773.196720
G1 X354.767292 Y771.581083
G1 X358.034158 Y769.901824
G1 X361.267869 Y768.159572
G1 X364.467211 Y766.354982
G1 X367.630981 Y764.488733
G1 X370.757991 Y762.561524
G1 X373.847068 Y760.574080
G1 X376.897051 Y758.527147
G1 X379.906794 Y756.421494
G1 X382.875167 Y754.257912
G1 X385.801056 Y752.037212
G1 X388.683361 Y749.760230
G1 X391.520999 Y747.427821
G1 X394.312906 Y745.040859
G1 X397.058033 Y742.600243
G1 X399.755348 Y740.106888
G1 X402.403839 Y737.561731
G1 X405.002511 Y734.965728
G1 X407.550388 Y732.319853
G1 X410.046513 Y729.625101
G1 X412.489949 Y726.882483
G1 X414.879777 Y724.093030
G1 X417.215101 Y721.257789
G1 X419.495043 Y718.377825
G1 X421.718747 Y715.454220
G1 X423.885379 Y712.488071
G1 X425.994123 Y709.480493
G1 X428.044188 Y706.432615
G1 X430.034805 Y703.345582
G1 X431.965226 Y700.220553
G1 X433.834725 Y697.058702
G1 X435.642600 Y693.861216
G1 X437.388173 Y690.629297
G1 X439.070789 Y687.364157
G1 X440.689814 Y684.067024
G1 X442.244641 Y680.739136
G1 X443.734686 Y677.381742
G1 X445.159390 Y673.996103
G1 X446.518217 Y670.583492
G1 X447.810657 Y667.145189
G1 X449.036224 Y663.682486
G1 X450.194459 Y660.196683
G1 X451.284927 Y656.689090
G1 X452.307217 Y653.161023
G1 X453.260946 Y649.613809
G1 X454.145755 Y646.048779
G1 X454.961313 Y642.467272
G1 X455.707313 Y638.870632
G1 X456.383475 Y635.260212
G1 X456.989545 Y631.637367
G1 X457.525296 Y628.003457
G1 X457.990525 Y624.359848
G1 X458.385059 Y620.707907
G1 X458.708749 Y617.049006
G1 X458.961474 Y613.384520
G1 X459.143138 Y609.715824
G1 X459.253674 Y606.044297
G1 X459.293040 Y602.371318
G1 X459.293140 Y602.176590
M5
G0 X129.803940 Y728.774040
; Cut at 300 mm/min, 100% power
G1 X128.319935 Y725.204413
G1 X126.913929 Y721.621926
G1 X125.585536 Y718.027541
G1 X124.334371 Y714.422220
G1 X123.160048 Y710.806926
G1 X122.062180 Y707.182620
G1 X121.040383 Y703.550264
G1 X120.094270 Y699.910821
G1 X119.223456 Y696.265252
G1 X118.427554 Y692.614520
G1 X117.706179 Y688.959586
G1 X117.058945 Y685.301412
G1 X116.485467 Y681.640961
G1 X115.985358 Y677.979194
G1 X115.558232 Y674.317074
G1 X115.203704 Y670.655562
G1 X114.921388 Y666.995621
G1 X114.710899 Y663.338212
G1 X114.571849 Y659.684298
G1 X114.503854 Y656.034840
G1 X114.506528 Y652.390802
G1 X114.579485 Y648.753143
G1 X114.722339 Y645.122828
G1 X114.934703 Y641.500817
G1 X115.216194 Y637.888073
G1 X115.566424 Y634.285557
G1 X115.985007 Y630.694233
G1 X116.471559 Y627.115061
G1 X117.025693 Y623.549004
G1 X117.647023 Y619.997023
G1 X118.335163 Y616.460082
G1 X119.089729 Y612.939141
G1 X119.910333 Y609.435163
G1 X120.796590 Y605.949110
G1 X121.748114 Y602.481945
G1 X122.764520 Y599.034627
G1 X123.845421 Y595.608121
G1 X124.990432 Y592.203388
G1 X126.199168 Y588.821390
G1 X127.471241 Y585.463089
G1 X128.806266 Y582.129447
G1 X130.203858 Y578.821426
G1 X131.663631 Y575.539988
G1 X133.185198 Y572.286096
G1 X134.768175 Y569.060710
G1 X136.412175 Y565.864794
G1 X138.116812 Y562.699308
G1 X139.881701 Y559.565216
G1 X141.706455 Y556.463479
G1 X143.590690 Y553.395060
G1 X145.534019 Y550.360919
G1 X147.536056 Y547.362020
G1 X149.596415 Y544.399324
G1 X151.714711 Y541.473794
G1 X153.890558 Y538.586391
G1 X156.123570 Y535.738077
G1 X158.413361 Y532.929814
G1 X160.759546 Y530.162565
G1 X163.161738 Y527.437292
G1 X165.619552 Y524.754955
G1 X168.132602 Y522.116519
G1 X170.700502 Y519.522944
G1 X173.322867 Y516.975192
G1 X175.999309 Y514.474226
G1 X178.729445 Y512.021007
G1 X181.512887 Y509.616498
G1 X184.349251 Y507.261661
G1 X187.238149 Y504.957457
G1 X190.179198 Y502.704848
G1 X193.172009 Y500.504798
G1 X196.216199 Y498.358267
G1 X199.311380 Y496.266218
G1 X202.457167 Y494.229612
G1 X205.653175 Y492.249413
G1 X208.899017 Y490.326581
G1 X212.194308 Y488.462079
G1 X215.538662 Y486.656868
G1 X218.931693 Y484.911912
G1 X222.373015 Y483.228171
G1 X225.862242 Y481.606608
G1 X229.398989 Y480.048185
G1 X229.587800 Y479.967350
G1 X233.172351 Y478.478173
G1 X236.786644 Y477.062706
G1 X240.429162 Y475.721544
G1 X244.098379 Y474.455249
G1 X247.792756 Y473.264351
G1 X251.510743 Y472.149350
G1 X255.250782 Y471.110713
G1 X259.011304 Y470.148877
G1 X262.790733 Y469.264244
G1 X266.587484 Y468.457185
G1 X270.399963 Y467.728040
G1 X274.226574 Y467.077112
G1 X278.065711 Y466.504676
G1 X281.915765 Y466.010972
G1 X285.775121 Y465.596206
G1 X289.642160 Y465.260552
G1 X293.515261 Y465.004152
G1 X297.392801 Y464.827112
G1 X301.273153 Y464.729507
G1 X305.154690 Y464.711378
G1 X309.035784 Y464.772733
G1 X312.914808 Y464.913545
G1 X316.790136 Y465.133756
G1 X320.660142 Y465.433273
G1 X324.523203 Y465.811971
G1 X328.377701 Y466.269691
G1 X332.222017 Y466.806241
G1 X336.054541 Y467.421396
G1 X339.873666 Y468.114898
G1 X343.677789 Y468.886457
G1 X347.465316 Y469.735748
G1 X351.234659 Y470.662415
G1 X354.984236 Y471.666071
G1 X358.712477 Y472.746294
G1 X362.417816 Y473.902631
G1 X366.098701 Y475.134598
G1 X369.753589 Y476.441677
G1 X373.380945 Y477.823321
G1 X376.979251 Y479.278950
G1 X380.546995 Y480.807954
G1 X384.082684 Y482.409692
G1 X387.584833 Y484.083492
G1 X391.051975 Y485.828652
G1 X394.482655 Y487.644441
G1 X397.875436 Y489.530096
G1 X401.228894 Y491.484829
G1 X404.541623 Y493.507817
G1 X407.812234 Y495.598215
G1 X411.039355 Y497.755144
G1 X414.221634 Y499.977700
G1 X417.357736 Y502.264952
G1 X420.446346 Y504.615940
G1 X423.486169 Y507.029679
G1 X426.475930 Y509.505156
G1 X429.414375 Y512.041334
G1 X432.300272 Y514.637148
G1 X435.132412 Y517.291510
G1 X437.909607 Y520.003308
G1 X440.630691 Y522.771405
G1 X443.294524 Y525.594638
G1 X445.632620 Y528.171070
G1 X444.077734 Y524.631708
G1 X442.459655 Y521.139842
G1 X440.779344 Y517.695859
G1 X439.037763 Y514.300144
G1 X437.235875 Y510.953082
G1 X435.374640 Y507.655060
G1 X433.455023 Y504.406464
G1 X431.477983 Y501.207680
G1 X429.444484 Y498.059092
G1 X427.355487 Y494.961089
G1 X425.211954 Y491.914054
G1 X423.014848 Y488.918374
G1 X420.765130 Y485.974435
G1 X418.463763 Y483.082623
G1 X416.111707 Y480.243324
G1 X413.709927 Y477.456923
G1 X411.259382 Y474.723806
G1 X408.761036 Y472.044360
G1 X406.215851 Y469.418970
G1 X403.624788 Y466.848021
G1 X400.988809 Y464.331901
G1 X398.308877 Y461.870994
G1 X395.585953 Y459.465687
G1 X392.821000 Y457.116366
G1 X390.014979 Y454.823416
G1 X387.168853 Y452.587223
G1 X384.283583 Y450.408173
G1 X381.360132 Y448.286652
G1 X378.399461 Y446.223046
G1 X375.402533 Y444.217740
G1 X372.370309 Y442.271122
G1 X369.303752 Y440.383575
G1 X366.203823 Y438.555487
G1 X363.071485 Y436.787243
G1 X359.907699 Y435.079230
G1 X356.713428 Y433.431832
G1 X353.489634 Y431.845436
G1 X350.237278 Y430.320428
G1 X346.957323 Y428.857193
G1 X343.650730 Y427.456118
G1 X340.318462 Y426.117588
G1 X336.961481 Y424.841989
G1 X333.580748 Y423.629707
G1 X330.177226 Y422.481128
G1 X326.751877 Y421.396638
G1 X323.305662 Y420.376622
G1 X319.839544 Y419.421468
G1 X316.354485 Y418.531559
G1 X312.851446 Y417.707283
G1 X309.331390 Y416.949025
G1 X305.795279 Y416.257171
G1 X302.244075 Y415.632107
G1 X298.678739 Y415.074218
G1 X295.100234 Y414.583891
G1 X291.509522 Y414.161512
G1 X287.907564 Y413.807466
G1 X284.295324 Y413.522140
G1 X280.673762 Y413.305918
G1 X277.043840 Y413.159188
G1 X273.406522 Y413.082334
G1 X269.762769 Y413.075743
G1 X266.113542 Y413.139801
G1 X262.459804 Y413.274893
G1 X258.802517 Y413.481406
G1 X255.142643 Y413.759724
G1 X251.481143 Y414.110235
G1 X247.818981 Y414.533324
G1 X244.157117 Y415.029377
G1 X240.496514 Y415.598779
G1 X236.838135 Y416.241917
G1 X233.182940 Y416.959177
G1 X229.531892 Y417.750944
G1 X225.885952 Y418.617604
G1 X222.246084 Y419.559543
G1 X218.613249 Y420.577147
G1 X214.988409 Y421.670802
G1 X211.372525 Y422.840893
G1 X207.766561 Y424.087807
G1 X204.171478 Y425.411930
G1 X200.588237 Y426.813647
G1 X197.017802 Y428.293344
G1 X196.828900 Y428.373970
G1 X193.289538 Y429.928858
G1 X189.797673 Y431.546940
G1 X186.353690 Y433.227253
G1 X182.957976 Y434.968836
G1 X179.610915 Y436.770726
G1 X176.312894 Y438.631962
G1 X173.064299 Y440.551582
G1 X169.865515 Y442.528623
G1 X166.716929 Y444.562124
G1 X163.618926 Y446.651122
G1 X160.571893 Y448.794656
G1 X157.576214 Y450.991763
G1 X154.632276 Y453.241482
G1 X151.740466 Y455.542850
G1 X148.901167 Y457.894906
G1 X146.114768 Y460.296687
G1 X143.381653 Y462.747232
G1 X140.702208 Y465.245578
G1 X138.076819 Y467.790764
G1 X135.505872 Y470.381827
G1 X132.989753 Y473.017806
G1 X130.528848 Y475.697738
G1 X128.123543 Y478.420662
G1 X125.774222 Y481.185615
G1 X123.481274 Y483.991636
G1 X121.245082 Y486.837762
G1 X119.066034 Y489.723031
G1 X116.944514 Y492.646482
G1 X114.880910 Y495.607153
G1 X112.875606 Y498.604080
G1 X110.928989 Y501.636304
G1 X109.041444 Y504.702860
G1 X107.213357 Y507.802788
G1 X105.445114 Y510.935126
G1 X103.737102 Y514.098910
G1 X102.089706 Y517.293181
G1 X100.503311 Y520.516974
G1 X98.978304 Y523.769329
G1 X97.515070 Y527.049283
G1 X96.113996 Y530.355875
G1 X94.775467 Y533.688142
G1 X93.499869 Y537.045122
G1 X92.287588 Y540.425854
G1 X91.139010 Y543.829375
G1 X90.054521 Y547.254724
G1 X89.034506 Y550.700937
G1 X88.079352 Y554.167054
G1 X87.189444 Y557.652113
G1 X86.365168 Y561.155150
G1 X85.606910 Y564.675205
G1 X84.915056 Y568.211316
G1 X84.289992 Y571.762519
G1 X83.732104 Y575.327854
G1 X83.241777 Y578.906358
G1 X82.819398 Y582.497070
G1 X82.465351 Y586.099026
G1 X82.180024 Y589.711266
G1 X81.963802 Y593.332827
G1 X81.817071 Y596.962748
G1 X81.740217 Y600.600066
G1 X81.733625 Y604.243819
G1 X81.797682 Y607.893045
G1 X81.932773 Y611.546782
G1 X82.139284 Y615.204069
G1 X82.417601 Y618.863943
G1 X82.768111 Y622.525442
G1 X83.191198 Y626.187604
G1 X83.687248 Y629.849467
G1 X84.256649 Y633.510070
G1 X84.899785 Y637.168450
G1 X85.617042 Y640.823645
G1 X86.408806 Y644.474693
G1 X87.275463 Y648.120632
G1 X88.217399 Y651.760501
G1 X89.235000 Y655.393336
G1 X90.328652 Y659.018177
G1 X91.498740 Y662.634061
G1 X92.745650 Y666.240026
G1 X94.069769 Y669.835110
G1 X95.471481 Y673.418352
G1 X96.951174 Y676.988788
G1 X97.031800 Y677.177690
M5
G0 X196.828900 Y428.373970
; Cut at 300 mm/min, 100% power
G1 X193.475741 Y429.845715
G1 X190.151637 Y431.381960
G1 X186.857831 Y432.982132
G1 X183.595551 Y434.645634
G1 X180.366014 Y436.371844
G1 X177.170426 Y438.160120
G1 X174.009980 Y440.009793
G1 X170.885855 Y441.920173
G1 X167.799216 Y443.890547
G1 X164.751216 Y445.920179
G1 X161.742993 Y448.008313
G1 X158.775669 Y450.154169
G1 X155.850351 Y452.356946
G1 X152.968131 Y454.615822
G1 X150.130086 Y456.929954
G1 X147.337273 Y459.298479
G1 X144.590736 Y461.720511
G1 X141.891498 Y464.195149
G1 X139.240569 Y466.721467
G1 X136.638937 Y469.298524
G1 X134.087572 Y471.925356
G1 X131.587428 Y474.600985
G1 X129.139437 Y477.324411
G1 X126.744513 Y480.094619
G1 X124.403549 Y482.910573
G1 X122.117420 Y485.771224
G1 X119.886978 Y488.675504
G1 X117.713056 Y491.622328
G1 X115.596465 Y494.610598
G1 X113.537996 Y497.639197
G1 X111.538415 Y500.706996
G1 X109.598470 Y503.812849
G1 X107.718885 Y506.955598
G1 X105.900361 Y510.134069
G1 X104.143577 Y513.347077
G1 X102.449188 Y516.593422
G1 X100.817826 Y519.871893
G1 X99.250101 Y523.181266
G1 X97.746598 Y526.520306
G1 X96.307878 Y529.887767
G1 X94.934477 Y533.282393
G1 X93.626909 Y536.702915
G1 X92.385660 Y540.148059
G1 X91.211196 Y543.616537
G1 X90.103953 Y547.107056
G1 X89.064345 Y550.618313
G1 X88.092760 Y554.148998
G1 X87.189560 Y557.697792
G1 X86.355083 Y561.263372
G1 X85.589641 Y564.844407
G1 X84.893518 Y568.439560
G1 X84.266974 Y572.047489
G1 X83.710245 Y575.666848
G1 X83.223536 Y579.296287
G1 X82.807030 Y582.934451
G1 X82.460882 Y586.579981
G1 X82.185222 Y590.231518
G1 X81.980152 Y593.887699
G1 X81.845749 Y597.547159
G1 X81.782063 Y601.208532
G1 X81.789117 Y604.870452
G1 X81.866910 Y608.531553
G1 X82.015412 Y612.190468
G1 X82.234568 Y615.845831
G1 X82.524295 Y619.496279
G1 X82.884486 Y623.140449
G1 X83.315007 Y626.776981
G1 X83.815696 Y630.404517
G1 X84.386367 Y634.021705
G1 X85.026807 Y637.627193
G1 X85.736777 Y641.219637
G1 X86.516011 Y644.797696
G1 X87.364220 Y648.360034
G1 X88.281086 Y651.905322
G1 X89.266267 Y655.432237
G1 X90.319396 Y658.939462
G1 X91.440080 Y662.425689
G1 X92.627900 Y665.889617
G1 X93.882413 Y669.329952
G1 X95.203151 Y672.745412
G1 X96.589621 Y676.134720
G1 X98.041305 Y679.496613
G1 X99.557663 Y682.829835
G1 X101.138127 Y686.133143
G1 X102.782108 Y689.405304
G1 X104.488992 Y692.645097
G1 X106.258143 Y695.851312
G1 X108.088900 Y699.022753
G1 X109.980580 Y702.158237
G1 X111.932478 Y705.256592
G1 X113.943863 Y708.316664
G1 X116.013987 Y711.337310
G1 X118.142076 Y714.317402
G1 X120.327335 Y717.255828
G1 X122.568951 Y720.151492
G1 X124.866085 Y723.003314
G1 X127.217881 Y725.810228
G1 X129.623461 Y728.571187
G1 X129.803940 Y728.774040
M5
G0 X280.010000 Y74.156000
; Cut at 300 mm/min, 100% power
G1 X260.650000 Y79.586000
G1 X260.690000 Y81.666000
G1 X266.490000 Y396.946000
G1 X266.780000 Y412.666000
G1 X266.790000 Y413.126000
G1 X267.800000 Y468.206000
G1 X269.270000 Y548.046000
G1 Y548.056000
G1 X270.270000 Y602.176000
G1 X270.800000
G1 X271.820000 Y543.546000
G1 X273.150000 Y467.236000
G1 X274.100000 Y413.086000
G1 Y412.686000
G1 X274.140000 Y410.456000
G1 Y410.446000
G1 X275.980000 Y304.896000
G1 X276.170000 Y294.406000
G1 X279.970000 Y76.256000
G1 X280.010000 Y74.156000
M5
G0 X269.088202 Y301.269470
; Cut at 300 mm/min, 100% power
G1 X300.419710 Y317.764856
G1 X304.786128 Y309.471235
G1 X273.454620 Y292.975849
G1 X269.088202 Y301.269470
M5
G0 X176.668590 Y35.999690
; Cut at 300 mm/min, 100% power
G1 X266.040290
G1 Y33.999690
G1 X176.668590
G1 Y35.999690
M5
G0 X340.668490 Y1.999690
; Cut at 300 mm/min, 100% power
G1 X430.040320
G1 Y-0.000310
G1 X340.668490
G1 Y1.999690
M5
G0 X595.668460 Y27.999690
; Cut at 300 mm/min, 100% power
G1 X685.040290
G1 Y25.999690
G1 X595.668460
G1 Y27.999690
M5
G0 X644.219800 Y109.376030
; Cut at 300 mm/min, 100% power
G1 Y167.549850
G1 X645.387231 Y165.385381
G1 X646.491236 Y163.254921
G1 X647.531813 Y161.158470
G1 X648.508964 Y159.096027
G1 X649.422687 Y157.067593
G1 X650.272984 Y155.073168
G1 X651.059853 Y153.112751
G1 X651.783296 Y151.186343
G1 X652.443311 Y149.293944
G1 X653.039900 Y147.435553
G1 X653.573062 Y145.611171
G1 X654.042797 Y143.820797
G1 X654.449104 Y142.064432
G1 X654.791985 Y140.342076
G1 X655.071439 Y138.653728
G1 X655.287466 Y136.999389
G1 X655.440065 Y135.379059
G1 X655.529238 Y133.792737
G1 X655.554984 Y132.240424
G1 X655.517303 Y130.722119
G1 X655.416195 Y129.237824
G1 X655.251660 Y127.787536
G1 X655.023698 Y126.371258
G1 X654.732309 Y124.988988
G1 X654.377493 Y123.640727
G1 X653.959250 Y122.326474
G1 X653.477581 Y121.046230
G1 X652.932484 Y119.799995
G1 X652.323960 Y118.587768
G1 X651.652009 Y117.409550
G1 X650.916631 Y116.265340
G1 X650.117827 Y115.155140
G1 X649.255595 Y114.078947
G1 X648.329936 Y113.036764
G1 X647.340851 Y112.028589
G1 X646.288338 Y111.054423
G1 X645.172399 Y110.114265
G1 X644.219800 Y109.376030
M5
G0 Y167.549850
; Cut at 300 mm/min, 100% power
G1 Y109.376030
M5
G0 X645.620190 Y109.386260
; Cut at 300 mm/min, 100% power
G1 X602.766110 Y148.727410
G1 X605.150078 Y148.123643
G1 X607.466099 Y147.496151
G1 X609.714173 Y146.844934
G1 X611.894301 Y146.169992
G1 X614.006483 Y145.471325
G1 X616.050718 Y144.748934
G1 X618.027007 Y144.002817
G1 X619.935350 Y143.232976
G1 X621.775746 Y142.439409
G1 X623.548195 Y141.622118
G1 X625.252698 Y140.781102
G1 X626.889255 Y139.916361
G1 X628.457865 Y139.027895
G1 X629.958529 Y138.115704
G1 X631.391246 Y137.179788
G1 X632.756017 Y136.220148
G1 X634.052842 Y135.236782
G1 X635.281720 Y134.229692
G1 X636.442651 Y133.198876
G1 X637.535637 Y132.144336
G1 X638.560675 Y131.066071
G1 X639.517768 Y129.964081
G1 X640.406913 Y128.838366
G1 X641.228113 Y127.688926
G1 X641.981366 Y126.515762
G1 X642.666672 Y125.318872
G1 X643.284032 Y124.098258
G1 X643.833446 Y122.853918
G1 X644.314913 Y121.585854
G1 X644.728434 Y120.294065
G1 X645.074008 Y118.978551
G1 X645.351636 Y117.639312
G1 X645.561318 Y116.276348
G1 X645.703053 Y114.889659
G1 X645.776841 Y113.479245
G1 X645.782683 Y112.045107
G1 X645.720579 Y110.587243
G1 X645.620190 Y109.386260
M5
G0 X602.766110 Y148.727410
; Cut at 300 mm/min, 100% power
G1 X645.620190 Y109.386260
M5
G0 X201.219800 Y95.376030
; Cut at 300 mm/min, 100% power
G1 Y153.549850
G1 X202.387231 Y151.385381
G1 X203.491236 Y149.254921
G1 X204.531813 Y147.158470
G1 X205.508964 Y145.096027
G1 X206.422687 Y143.067593
G1 X207.272984 Y141.073168
G1 X208.059853 Y139.112751
G1 X208.783296 Y137.186343
G1 X209.443311 Y135.293944
G1 X210.039900 Y133.435553
G1 X210.573062 Y131.611171
G1 X211.042797 Y129.820797
G1 X211.449104 Y128.064432
G1 X211.791985 Y126.342076
G1 X212.071439 Y124.653728
G1 X212.287466 Y122.999389
G1 X212.440065 Y121.379059
G1 X212.529238 Y119.792737
G1 X212.554984 Y118.240424
G1 X212.517303 Y116.722119
G1 X212.416195 Y115.237824
G1 X212.251660 Y113.787536
G1 X212.023698 Y112.371258
G1 X211.732309 Y110.988988
G1 X211.377493 Y109.640727
G1 X210.959250 Y108.326474
G1 X210.477581 Y107.046230
G1 X209.932484 Y105.799995
G1 X209.323960 Y104.587768
G1 X208.652009 Y103.409550
G1 X207.916631 Y102.265340
G1 X207.117827 Y101.155140
G1 X206.255595 Y100.078947
G1 X205.329936 Y99.036764
G1 X204.340851 Y98.028589
G1 X203.288338 Y97.054423
G1 X202.172399 Y96.114265
G1 X201.219800 Y95.376030
M5
G0 Y153.549850
; Cut at 300 mm/min, 100% power
G1 Y95.376030
M5
G0 X202.620190 Y95.386260
; Cut at 300 mm/min, 100% power
G1 X159.766110 Y134.727410
G1 X162.150078 Y134.123643
G1 X164.466099 Y133.496151
G1 X166.714173 Y132.844934
G1 X168.894301 Y132.169992
G1 X171.006483 Y131.471325
G1 X173.050718 Y130.748934
G1 X175.027007 Y130.002817
G1 X176.935350 Y129.232976
G1 X178.775746 Y128.439409
G1 X180.548195 Y127.622118
G1 X182.252698 Y126.781102
G1 X183.889255 Y125.916361
G1 X185.457865 Y125.027895
G1 X186.958529 Y124.115704
G1 X188.391246 Y123.179788
G1 X189.756017 Y122.220148
G1 X191.052842 Y121.236782
G1 X192.281720 Y120.229692
G1 X193.442651 Y119.198876
G1 X194.535637 Y118.144336
G1 X195.560675 Y117.066071
G1 X196.517768 Y115.964081
G1 X197.406913 Y114.838366
G1 X198.228113 Y113.688926
G1 X198.981366 Y112.515762
G1 X199.666672 Y111.318872
G1 X200.284032 Y110.098258
G1 X200.833446 Y108.853918
G1 X201.314913 Y107.585854
G1 X201.728434 Y106.294065
G1 X202.074008 Y104.978551
G1 X202.351636 Y103.639312
G1 X202.561318 Y102.276348
G1 X202.703053 Y100.889659
G1 X202.776841 Y99.479245
G1 X202.782683 Y98.045107
G1 X202.720579 Y96.587243
G1 X202.620190 Y95.386260
M5
G0 X159.766110 Y134.727410
; Cut at 300 mm/min, 100% power
G1 X202.620190 Y95.386260
M5
G0 X355.219800 Y53.376030
; Cut at 300 mm/min, 100% power
G1 Y125.716030
G1 X356.542802 Y123.267419
G1 X357.800621 Y120.853759
G1 X358.993255 Y118.475049
G1 X360.120706 Y116.131290
G1 X361.182974 Y113.822481
G1 X362.180057 Y111.548624
G1 X363.111957 Y109.309717
G1 X363.978673 Y107.105760
G1 X364.780205 Y104.936755
G1 X365.516554 Y102.802700
G1 X366.187718 Y100.703595
G1 X366.793699 Y98.639442
G1 X367.334497 Y96.610239
G1 X367.810110 Y94.615986
G1 X368.220540 Y92.656685
G1 X368.565786 Y90.732334
G1 X368.845849 Y88.842934
G1 X369.060727 Y86.988484
G1 X369.210422 Y85.168985
G1 X369.294933 Y83.384437
G1 X369.314260 Y81.634839
G1 X369.268404 Y79.920192
G1 X369.157364 Y78.240496
G1 X368.981140 Y76.595751
G1 X368.739732 Y74.985956
G1 X368.433141 Y73.411112
G1 X368.061366 Y71.871218
G1 X367.624407 Y70.366275
G1 X367.122264 Y68.896283
G1 X366.554938 Y67.461242
G1 X365.922428 Y66.061151
G1 X365.224734 Y64.696011
G1 X364.461857 Y63.365821
G1 X363.633795 Y62.070582
G1 X362.740550 Y60.810294
G1 X361.782121 Y59.584957
G1 X360.758509 Y58.394570
G1 X359.669713 Y57.239134
G1 X358.515733 Y56.118649
G1 X357.296569 Y55.033114
G1 X356.012221 Y53.982530
G1 X355.219800 Y53.376030
M5
G0 Y125.716030
; Cut at 300 mm/min, 100% power
G1 Y53.376030
M5
G0 X356.961220 Y53.388750
; Cut at 300 mm/min, 100% power
G1 X303.671600 Y102.310000
G1 X306.370087 Y101.628681
G1 X308.998746 Y100.922979
G1 X311.557577 Y100.192896
G1 X314.046579 Y99.438431
G1 X316.465753 Y98.659583
G1 X318.815099 Y97.856354
G1 X321.094616 Y97.028742
G1 X323.304305 Y96.176749
G1 X325.444165 Y95.300374
G1 X327.514197 Y94.399616
G1 X329.514401 Y93.474476
G1 X331.444777 Y92.524955
G1 X333.305324 Y91.551051
G1 X335.096042 Y90.552766
G1 X336.816933 Y89.530098
G1 X338.467995 Y88.483048
G1 X340.049228 Y87.411617
G1 X341.560634 Y86.315803
G1 X343.002211 Y85.195607
G1 X344.373959 Y84.051030
G1 X345.675879 Y82.882070
G1 X346.907971 Y81.688728
G1 X348.070235 Y80.471004
G1 X349.162670 Y79.228898
G1 X350.185277 Y77.962411
G1 X351.138055 Y76.671541
G1 X352.021005 Y75.356289
G1 X352.834127 Y74.016655
G1 X353.577420 Y72.652639
G1 X354.250885 Y71.264241
G1 X354.854522 Y69.851461
G1 X355.388330 Y68.414299
G1 X355.852310 Y66.952755
G1 X356.246462 Y65.466829
G1 X356.570785 Y63.956520
G1 X356.825280 Y62.421830
G1 X357.009947 Y60.862758
G1 X357.124785 Y59.279304
G1 X357.169795 Y57.671468
G1 X357.144976 Y56.039250
G1 X357.050329 Y54.382649
G1 X356.961220 Y53.388750
M5
G0 X303.671600 Y102.310000
; Cut at 300 mm/min, 100% power
G1 X356.961220 Y53.388750
M5
G0 X813.310000 Y62.226000
; Cut at 300 mm/min, 100% power
G1 X812.760000 Y60.296000
G1 X644.930000 Y108.096000
G1 X518.500000 Y80.226000
G1 X356.810000 Y52.606000
G1 X356.590000 Y52.666000
G1 X280.010000 Y74.156000
G1 X260.650000 Y79.586000
G1 X201.520000 Y96.186000
G1 X152.200000 Y85.196000
G1 X137.780000 Y81.986000
G1 X106.430000 Y74.996000
G1 X106 Y76.946000
G1 X137.810000 Y84.036000
G1 X152.170000 Y87.236000
G1 X201.580000 Y98.246000
G1 X201.820000 Y98.186000
G1 X260.690000 Y81.666000
G1 X279.970000 Y76.256000
G1 X356.910000 Y54.656000
G1 X518.110000 Y82.186000
G1 X644.990000 Y110.156000
G1 X645.240000 Y110.096000
G1 X813.310000 Y62.226000
M5
G0 X513.051210 Y670.279100
; Cut at 300 mm/min, 100% power
G1 X525.846070 Y680.512510
G1 X524.717586 Y680.611025
G1 X523.640580 Y680.653573
G1 X522.613851 Y680.642819
G1 X521.636201 Y680.581427
G1 X520.706430 Y680.472060
G1 X519.823339 Y680.317382
G1 X518.985729 Y680.120057
G1 X518.192399 Y679.882750
G1 X517.442152 Y679.608123
G1 X516.733788 Y679.298841
G1 X516.066106 Y678.957568
G1 X515.437909 Y678.586967
G1 X514.847997 Y678.189703
G1 X514.295170 Y677.768439
G1 X513.778229 Y677.325838
G1 X513.295975 Y676.864566
G1 X512.847208 Y676.387286
G1 X512.430730 Y675.896662
G1 X512.045340 Y675.395357
G1 X511.689840 Y674.886035
G1 X511.363031 Y674.371361
G1 X511.063712 Y673.853998
G1 X510.790685 Y673.336610
G1 X510.542751 Y672.821861
G1 X510.318709 Y672.312415
G1 X510.150820 Y671.897510
G1 X509.155542 Y672.269881
G1 X508.157011 Y672.566569
G1 X507.159467 Y672.792989
G1 X506.167146 Y672.954553
G1 X505.184288 Y673.056675
G1 X504.215130 Y673.104767
G1 X503.263910 Y673.104244
G1 X502.334868 Y673.060519
G1 X501.432241 Y672.979003
G1 X500.560267 Y672.865112
G1 X499.723185 Y672.724258
G1 X498.925232 Y672.561854
G1 X498.170648 Y672.383313
G1 X497.463669 Y672.194049
G1 X496.808536 Y671.999475
G1 X496.209485 Y671.805005
G1 X495.670754 Y671.616050
G1 X495.196583 Y671.438026
G1 X494.791210 Y671.276344
G1 X494.458871 Y671.136418
G1 X494.223690 Y671.032647
G1 X494.055556 Y670.955398
G1 X493.957652 Y670.908736
G1 X493.932010 Y670.896150
G1 X519.532110 Y661.602400
G1 X519.071699 Y662.723965
G1 X518.542031 Y663.814533
G1 X517.945181 Y664.869833
G1 X517.283487 Y665.885730
G1 X516.559540 Y666.858246
G1 X515.776176 Y667.783572
G1 X514.936463 Y668.658082
G1 X514.043690 Y669.478353
G1 X513.101355 Y670.241171
G1 X513.051210 Y670.279100
M5
G0 X43.051210 Y674.279100
; Cut at 300 mm/min, 100% power
G1 X55.846070 Y684.512510
G1 X54.717586 Y684.611025
G1 X53.640580 Y684.653573
G1 X52.613851 Y684.642819
G1 X51.636201 Y684.581427
G1 X50.706430 Y684.472060
G1 X49.823339 Y684.317382
G1 X48.985729 Y684.120057
G1 X48.192399 Y683.882750
G1 X47.442152 Y683.608123
G1 X46.733788 Y683.298841
G1 X46.066106 Y682.957568
G1 X45.437909 Y682.586967
G1 X44.847997 Y682.189703
G1 X44.295170 Y681.768439
G1 X43.778229 Y681.325838
G1 X43.295975 Y680.864566
G1 X42.847208 Y680.387286
G1 X42.430730 Y679.896662
G1 X42.045340 Y679.395357
G1 X41.689840 Y678.886035
G1 X41.363031 Y678.371361
G1 X41.063712 Y677.853998
G1 X40.790685 Y677.336610
G1 X40.542751 Y676.821861
G1 X40.318709 Y676.312415
G1 X40.150820 Y675.897510
G1 X39.155542 Y676.269881
G1 X38.157011 Y676.566569
G1 X37.159467 Y676.792989
G1 X36.167146 Y676.954553
G1 X35.184288 Y677.056675
G1 X34.215130 Y677.104767
G1 X33.263910 Y677.104244
G1 X32.334868 Y677.060519
G1 X31.432241 Y676.979003
G1 X30.560267 Y676.865112
G1 X29.723185 Y676.724258
G1 X28.925232 Y676.561854
G1 X28.170648 Y676.383313
G1 X27.463669 Y676.194049
G1 X26.808536 Y675.999475
G1 X26.209485 Y675.805005
G1 X25.670754 Y675.616050
G1 X25.196583 Y675.438026
G1 X24.791210 Y675.276344
G1 X24.458871 Y675.136418
G1 X24.223690 Y675.032647
G1 X24.055556 Y674.955398
G1 X23.957652 Y674.908736
G1 X23.932010 Y674.896150
G1 X49.532110 Y665.602400
G1 X49.071699 Y666.723965
G1 X48.542031 Y667.814533
G1 X47.945181 Y668.869833
G1 X47.283487 Y669.885730
G1 X46.559540 Y670.858246
G1 X45.776176 Y671.783572
G1 X44.936463 Y672.658082
G1 X44.043690 Y673.478353
G1 X43.101355 Y674.241171
G1 X43.051210 Y674.279100
M5
G0 X485.051210 Y479.279100
; Cut at 300 mm/min, 100% power
G1 X497.846070 Y489.512510
G1 X496.717586 Y489.611025
G1 X495.640580 Y489.653573
G1 X494.613851 Y489.642819
G1 X493.636201 Y489.581427
G1 X492.706430 Y489.472060
G1 X491.823339 Y489.317382
G1 X490.985729 Y489.120057
G1 X490.192399 Y488.882750
G1 X489.442152 Y488.608123
G1 X488.733788 Y488.298841
G1 X488.066106 Y487.957568
G1 X487.437909 Y487.586967
G1 X486.847997 Y487.189703
G1 X486.295170 Y486.768439
G1 X485.778229 Y486.325838
G1 X485.295975 Y485.864566
G1 X484.847208 Y485.387286
G1 X484.430730 Y484.896662
G1 X484.045340 Y484.395357
G1 X483.689840 Y483.886035
G1 X483.363031 Y483.371361
G1 X483.063712 Y482.853998
G1 X482.790685 Y482.336610
G1 X482.542751 Y481.821861
G1 X482.318709 Y481.312415
G1 X482.150820 Y480.897510
G1 X481.155542 Y481.269881
G1 X480.157011 Y481.566569
G1 X479.159467 Y481.792989
G1 X478.167146 Y481.954553
G1 X477.184288 Y482.056675
G1 X476.215130 Y482.104767
G1 X475.263910 Y482.104244
G1 X474.334868 Y482.060519
G1 X473.432241 Y481.979003
G1 X472.560267 Y481.865112
G1 X471.723185 Y481.724258
G1 X470.925232 Y481.561854
G1 X470.170648 Y481.383313
G1 X469.463669 Y481.194049
G1 X468.808536 Y480.999475
G1 X468.209485 Y480.805005
G1 X467.670754 Y480.616050
G1 X467.196583 Y480.438026
G1 X466.791210 Y480.276344
G1 X466.458871 Y480.136418
G1 X466.223690 Y480.032647
G1 X466.055556 Y479.955398
G1 X465.957652 Y479.908736
G1 X465.932010 Y479.896150
G1 X491.532110 Y470.602400
G1 X491.071699 Y471.723965
G1 X490.542031 Y472.814533
G1 X489.945181 Y473.869833
G1 X489.283487 Y474.885730
G1 X488.559540 Y475.858246
G1 X487.776176 Y476.783572
G1 X486.936463 Y477.658082
G1 X486.043690 Y478.478353
G1 X485.101355 Y479.241171
G1 X485.051210 Y479.279100
M5
G0 X398.156000 Y39.138000
; Cut at 300 mm/min, 100% power
G1 X407.935000 Y35.505000
G1 X426.602000 Y71.495000
G1 X412.169000 Y76.857000
G1 X398.156000 Y39.138000
M5
G0 X396.847440 Y43.258120
; Cut at 300 mm/min, 100% power
G1 X416.105870 Y36.102910
G1 X416.106640 Y36.102620
G1 X416.996659 Y35.734046
G1 X417.857170 Y35.301033
G1 X418.683516 Y34.805924
G1 X419.471223 Y34.251399
G1 X420.216028 Y33.640461
G1 X420.913900 Y32.976417
G1 X421.561060 Y32.262859
G1 X422.154006 Y31.503652
G1 X422.689527 Y30.702905
G1 X423.164726 Y29.864951
G1 X423.577030 Y28.994328
G1 X423.924208 Y28.095747
G1 X424.204379 Y27.174072
G1 X424.416028 Y26.234293
G1 X424.558008 Y25.281496
G1 X424.629552 Y24.320839
G1 X424.630272 Y23.357522
G1 X424.560164 Y22.396760
G1 X424.419607 Y21.443752
G1 X424.209363 Y20.503657
G1 X423.930570 Y19.581565
G1 X423.819150 Y19.269620
G1 X423.670960 Y18.870800
G1 X392.139400 Y30.586100
G1 X396.847440 Y43.258120
M5
G0 X494.392000 Y28.983000
; Cut at 300 mm/min, 100% power
G1 X504.824000 Y28.984000
G1 X509.787000 Y69.222000
G1 X494.390000 Y69.221000
G1 X494.392000 Y28.983000
M5
G0 X492.581550 Y32.389200
; Cut at 300 mm/min, 100% power
G1 X513.126240 Y32.390030
G1 X513.127070
G1 X514.089733 Y32.354545
G1 X515.047182 Y32.248377
G1 X515.994234 Y32.072103
G1 X516.925762 Y31.826675
G1 X517.836725 Y31.513423
G1 X518.722191 Y31.134042
G1 X519.577367 Y30.690586
G1 X520.397625 Y30.185455
G1 X521.178524 Y29.621384
G1 X521.915837 Y29.001425
G1 X522.605573 Y28.328934
G1 X523.243999 Y27.607552
G1 X523.827659 Y26.841183
G1 X524.353394 Y26.033976
G1 X524.818357 Y25.190301
G1 X525.220033 Y24.314723
G1 X525.556246 Y23.411982
G1 X525.825177 Y22.486966
G1 X526.025370 Y21.544680
G1 X526.155742 Y20.590226
G1 X526.215587 Y19.628769
G1 X526.219800 Y19.297550
G1 Y18.872090
G1 X492.582220 Y18.870840
G1 X492.581550 Y32.389200
M5
G0 X446.630120 Y308.052420
; Cut at 300 mm/min, 100% power
G1 X450.033810 Y314.859790
G1 X478.965140 Y300.394130
G1 X478.114220 Y294.437680
G1 X483.645220 Y287.204840
G1 X484.498021 Y286.700281
G1 X485.302257 Y286.143421
G1 X486.057929 Y285.534261
G1 X486.765036 Y284.872800
G1 X487.423578 Y284.159039
G1 X488.033556 Y283.392978
G1 X488.594970 Y282.574615
G1 X489.107818 Y281.703953
G1 X489.572103 Y280.780990
G1 X489.987822 Y279.805726
G1 X490.354977 Y278.778162
G1 X490.673567 Y277.698297
G1 X490.943593 Y276.566132
G1 X491.165054 Y275.381667
G1 X491.337951 Y274.144900
G1 X491.462283 Y272.855834
G1 X491.538050 Y271.514467
G1 X491.565253 Y270.120799
G1 X491.543891 Y268.674831
G1 X491.473965 Y267.176562
G1 X491.355474 Y265.625993
G1 X491.303520 Y265.080840
M5
G0 X483.645220 Y287.204840
; Cut at 300 mm/min, 100% power
G1 X481.943370 Y271.037330
G1 X479.816070 Y250.189750
G1 X494.707200 Y198.709000
G1 X502.365490 Y130.635270
G1 X515.554800 Y53.626850
G1 X488.750800 Y54.903230
G1 X464.074080 Y144.250000
G1 X420.677080 Y48.095860
G1 X390.894800 Y55.754180
G1 X431.739040 Y151.057390
G1 X436.844570 Y191.050710
G1 X435.687014 Y189.177942
G1 X434.560859 Y187.363745
G1 X433.465810 Y185.607509
G1 X432.401572 Y183.908623
G1 X431.367851 Y182.266478
G1 X430.364350 Y180.680461
G1 X429.390775 Y179.149964
G1 X428.446833 Y177.674375
G1 X427.532226 Y176.253084
G1 X426.646661 Y174.885480
G1 X425.789843 Y173.570954
G1 X424.961477 Y172.308894
G1 X424.161268 Y171.098690
G1 X423.388921 Y169.939732
G1 X422.644141 Y168.831409
G1 X421.926634 Y167.773110
G1 X421.236104 Y166.764226
G1 X420.572256 Y165.804145
G1 X419.934796 Y164.892258
G1 X419.323429 Y164.027953
G1 X418.737860 Y163.210621
G1 X418.177794 Y162.439651
G1 X417.642935 Y161.714431
G1 X417.132990 Y161.034353
G1 X416.647664 Y160.398805
G1 X416.186660 Y159.807177
G1 X415.749686 Y159.258858
G1 X415.336444 Y158.753239
G1 X414.946642 Y158.289707
G1 X414.579983 Y157.867654
G1 X414.236174 Y157.486468
G1 X413.914918 Y157.145540
G1 X413.615922 Y156.844258
G1 X413.338889 Y156.582012
G1 X413.083527 Y156.358191
G1 X412.849538 Y156.172186
G1 X412.636630 Y156.023385
G1 X412.444506 Y155.911179
G1 X412.272872 Y155.834956
G1 X412.121433 Y155.794107
G1 X411.989893 Y155.788020
G1 X411.877960 Y155.816086
G1 X411.785336 Y155.877694
G1 X411.711728 Y155.972232
G1 X411.656840 Y156.099092
G1 X411.620378 Y156.257662
G1 X411.602046 Y156.447332
G1 X411.601550 Y156.667492
G1 X411.618596 Y156.917530
G1 X411.652887 Y157.196837
G1 X411.704129 Y157.504802
G1 X411.772028 Y157.840815
G1 X411.856288 Y158.204264
G1 X411.956615 Y158.594540
G1 X412.072713 Y159.011033
G1 X412.204287 Y159.453131
G1 X412.351044 Y159.920224
G1 X412.512688 Y160.411702
G1 X412.688923 Y160.926954
G1 X412.879456 Y161.465369
G1 X413.083991 Y162.026338
G1 X413.302233 Y162.609250
G1 X413.533888 Y163.213494
G1 X413.778660 Y163.838460
G1 X414.036255 Y164.483538
G1 X414.306378 Y165.148116
G1 X414.588733 Y165.831584
G1 X414.883027 Y166.533333
G1 X415.188964 Y167.252751
G1 X415.506249 Y167.989228
G1 X415.834587 Y168.742154
G1 X416.173684 Y169.510917
G1 X416.523244 Y170.294908
G1 X416.882973 Y171.093517
G1 X417.252576 Y171.906132
G1 X417.631757 Y172.732143
G1 X418.020223 Y173.570939
G1 X418.417678 Y174.421911
G1 X418.823827 Y175.284448
G1 X419.238375 Y176.157938
G1 X419.661028 Y177.041773
G1 X420.091490 Y177.935341
G1 X420.529467 Y178.838032
G1 X420.974664 Y179.749235
G1 X421.426785 Y180.668339
G1 X421.885537 Y181.594736
G1 X422.350623 Y182.527813
G1 X422.821750 Y183.466960
G1 X423.298622 Y184.411568
G1 X423.829465 Y185.456214
G1 X424.366511 Y186.505915
G1 X424.963957 Y187.665456
G1 X425.567910 Y188.829049
G1 X426.239152 Y190.112391
G1 X426.985052 Y191.526500
G1 X427.813588 Y193.082746
G1 X428.733284 Y194.792540
G1 X429.660094 Y196.496868
G1 X430.592377 Y198.192334
G1 X431.528494 Y199.875544
G1 X432.466805 Y201.543106
G1 X433.405671 Y203.191623
G1 X434.343453 Y204.817703
G1 X435.278510 Y206.417951
G1 X436.209203 Y207.988973
G1 X437.133892 Y209.527374
G1 X438.050938 Y211.029760
G1 X438.958702 Y212.492738
G1 X439.855544 Y213.912913
G1 X440.739824 Y215.286890
G1 X441.609902 Y216.611276
G1 X442.464140 Y217.882677
G1 X443.300897 Y219.097698
G1 X444.118534 Y220.252945
G1 X444.915412 Y221.345023
G1 X445.689890 Y222.370540
G1 X446.440330 Y223.326100
G1 X447.165091 Y224.208309
G1 X447.800302 Y224.943809
G1 X448.411705 Y225.613334
G1 X448.998068 Y226.214334
G1 X449.558158 Y226.744257
G1 X449.608390 Y226.789410
M5
G0 X436.844570 Y191.050710
; Cut at 300 mm/min, 100% power
G1 X434.291800 Y198.709010
G1 Y243.884850
G1 X425.782590 Y288.906640
G1 X446.630120 Y308.052420
M5
G0 X444.872524 Y210.485955
; Cut at 300 mm/min, 100% power
G1 X445.834935 Y210.757404
G1 X464.555143 Y144.385831
G1 X463.592732 Y144.114381
G1 X444.872524 Y210.485955
M5
G0 X489.176210 Y223.811180
; Cut at 300 mm/min, 100% power
G1 X447.481050
G1 Y228.065790
G1 X489.176210
G1 Y223.811180
M5
G0 X490.878050 Y225.513060
; Cut at 300 mm/min, 100% power
G1 X490.840671 Y224.626248
G1 X490.743137 Y223.852861
G1 X490.604941 Y223.201416
G1 X490.441932 Y222.668973
G1 X490.266342 Y222.245913
G1 X490.068368 Y221.889937
G1 X489.852076 Y221.608354
G1 X489.643281 Y221.421822
G1 X489.426559 Y221.304736
G1 X489.205587 Y221.259084
G1 X489.176210 Y221.258450
G1 X488.954956 Y221.294560
G1 X488.737457 Y221.402276
G1 X488.527405 Y221.579770
G1 X488.328367 Y221.824029
G1 X488.143721 Y222.130907
G1 X487.976600 Y222.495195
G1 X487.829842 Y222.910709
G1 X487.705937 Y223.370397
G1 X487.606990 Y223.866455
G1 X487.534679 Y224.390463
G1 X487.490232 Y224.933526
G1 X487.474403 Y225.486427
G1 X487.474370 Y225.513060
G1 X487.511749 Y226.399872
G1 X487.609283 Y227.173259
G1 X487.747479 Y227.824704
G1 X487.910488 Y228.357147
G1 X488.086078 Y228.780207
G1 X488.284052 Y229.136183
G1 X488.500344 Y229.417766
G1 X488.709139 Y229.604298
G1 X488.925861 Y229.721384
G1 X489.146833 Y229.767036
G1 X489.176210 Y229.767670
G1 X489.397464 Y229.731560
G1 X489.614963 Y229.623844
G1 X489.825015 Y229.446350
G1 X490.024053 Y229.202091
G1 X490.208699 Y228.895213
G1 X490.375820 Y228.530925
G1 X490.522578 Y228.115411
G1 X490.646483 Y227.655723
G1 X490.745430 Y227.159665
G1 X490.817741 Y226.635657
G1 X490.862188 Y226.092594
G1 X490.878017 Y225.539693
G1 X490.878050 Y225.513060
M5
G0 X481.252834 Y358.861682
; Cut at 300 mm/min, 100% power
G1 X482.336095 Y358.230012
G1 X483.382791 Y357.539442
G1 X484.389723 Y356.792082
G1 X485.353814 Y355.990216
G1 X486.272116 Y355.136295
G1 X487.141823 Y354.232930
G1 X487.960277 Y353.282880
G1 X488.724975 Y352.289051
G1 X489.433581 Y351.254480
G1 X490.083928 Y350.182329
G1 X490.674030 Y349.075875
G1 X491.202081 Y347.938501
G1 X491.666469 Y346.773681
G1 X492.065773 Y345.584978
G1 X492.398774 Y344.376024
G1 X492.664453 Y343.150514
G1 X492.861998 Y341.912194
G1 X492.990806 Y340.664850
G1 X493.050483 Y339.412293
G1 X493.040847 Y338.158353
G1 X492.961926 Y336.906861
G1 X492.813962 Y335.661643
G1 X492.597408 Y334.426506
G1 X492.312925 Y333.205225
G1 X491.961383 Y332.001531
G1 X491.543856 Y330.819105
G1 X491.061620 Y329.661561
G1 X490.516151 Y328.532436
G1 X490.275461 Y328.080070
G1 X489.643792 Y326.996809
G1 X488.953222 Y325.950113
G1 X488.205861 Y324.943181
G1 X487.403995 Y323.979091
G1 X486.550075 Y323.060788
G1 X485.646709 Y322.191081
G1 X484.696660 Y321.372628
G1 X483.702831 Y320.607930
G1 X482.668259 Y319.899324
G1 X481.596108 Y319.248976
G1 X480.489655 Y318.658875
G1 X479.352280 Y318.130823
G1 X478.187461 Y317.666436
G1 X476.998757 Y317.267131
G1 X475.789803 Y316.934131
G1 X474.564293 Y316.668452
G1 X473.325974 Y316.470906
G1 X472.078629 Y316.342098
G1 X470.826072 Y316.282421
G1 X469.572132 Y316.292058
G1 X468.320640 Y316.370979
G1 X467.075423 Y316.518943
G1 X465.840286 Y316.735497
G1 X464.619004 Y317.019980
G1 X463.415310 Y317.371522
G1 X462.232885 Y317.789049
G1 X461.075340 Y318.271284
G1 X459.946216 Y318.816754
G1 X459.493849 Y319.057444
G1 X458.410589 Y319.689113
G1 X457.363893 Y320.379683
G1 X456.356961 Y321.127043
G1 X455.392870 Y321.928909
G1 X454.474568 Y322.782830
G1 X453.604861 Y323.686196
G1 X452.786407 Y324.636245
G1 X452.021709 Y325.630074
G1 X451.313103 Y326.664645
G1 X450.662756 Y327.736796
G1 X450.072654 Y328.843250
G1 X449.544603 Y329.980625
G1 X449.080215 Y331.145444
G1 X448.680911 Y332.334147
G1 X448.347910 Y333.543102
G1 X448.082231 Y334.768611
G1 X447.884686 Y336.006931
G1 X447.755878 Y337.254275
G1 X447.696201 Y338.506832
G1 X447.705837 Y339.760773
G1 X447.784758 Y341.012264
G1 X447.932722 Y342.257482
G1 X448.149276 Y343.492619
G1 X448.433759 Y344.713901
G1 X448.785301 Y345.917594
G1 X449.202828 Y347.100020
G1 X449.685064 Y348.257564
G1 X450.230533 Y349.386689
G1 X450.471223 Y349.839055
G1 X451.102892 Y350.922316
G1 X451.793462 Y351.969012
G1 X452.540822 Y352.975944
G1 X453.342688 Y353.940035
G1 X454.196609 Y354.858337
G1 X455.099975 Y355.728044
G1 X456.050024 Y356.546497
G1 X457.043853 Y357.311196
G1 X458.078424 Y358.019801
G1 X459.150575 Y358.670149
G1 X460.257029 Y359.260250
G1 X461.394404 Y359.788302
G1 X462.559223 Y360.252689
G1 X463.747927 Y360.651994
G1 X464.956881 Y360.984995
G1 X466.182391 Y361.250674
G1 X467.420710 Y361.448219
G1 X468.668055 Y361.577027
G1 X469.920612 Y361.636704
G1 X471.174552 Y361.627067
G1 X472.426044 Y361.548146
G1 X473.671261 Y361.400183
G1 X474.906398 Y361.183628
G1 X476.127680 Y360.899145
G1 X477.331373 Y360.547603
G1 X478.513799 Y360.130076
G1 X479.671344 Y359.647841
G1 X480.800468 Y359.102371
G1 X481.252834 Y358.861682
M5
G0 X455.730720 Y367.122370
; Cut at 300 mm/min, 100% power
G1 X455.693616 Y365.902676
G1 X455.582442 Y364.687492
G1 X455.397609 Y363.481313
G1 X455.139800 Y362.288600
G1 X454.809970 Y361.113763
G1 X454.409336 Y359.961147
G1 X453.939382 Y358.835014
G1 X453.401846 Y357.739530
G1 X452.798714 Y356.678746
G1 X452.132218 Y355.656585
G1 X451.404823 Y354.676826
G1 X450.619218 Y353.743094
G1 X449.778309 Y352.858842
G1 X448.885206 Y352.027338
G1 X447.943211 Y351.251660
G1 X446.955809 Y350.534675
G1 X445.926651 Y349.879034
G1 X444.859543 Y349.287163
G1 X443.758431 Y348.761251
G1 X442.627388 Y348.303242
G1 X441.470597 Y347.914830
G1 X440.292335 Y347.597451
G1 X439.096959 Y347.352280
G1 X437.888892 Y347.180223
G1 X436.672600 Y347.081917
G1 X435.664950 Y347.056600
G1 X434.445256 Y347.093704
G1 X433.230072 Y347.204878
G1 X432.023893 Y347.389711
G1 X430.831180 Y347.647520
G1 X429.656343 Y347.977350
G1 X428.503727 Y348.377984
G1 X427.377594 Y348.847938
G1 X426.282111 Y349.385474
G1 X425.221326 Y349.988606
G1 X424.199165 Y350.655102
G1 X423.219407 Y351.382497
G1 X422.285674 Y352.168102
G1 X421.401422 Y353.009011
G1 X420.569918 Y353.902114
G1 X419.794240 Y354.844109
G1 X419.077255 Y355.831511
G1 X418.421614 Y356.860669
G1 X417.829743 Y357.927777
G1 X417.303831 Y359.028889
G1 X416.845822 Y360.159932
G1 X416.457410 Y361.316723
G1 X416.140031 Y362.494985
G1 X415.894860 Y363.690361
G1 X415.722803 Y364.898428
G1 X415.624497 Y366.114720
G1 X415.599180 Y367.122370
G1 X415.636284 Y368.342064
G1 X415.747458 Y369.557248
G1 X415.932291 Y370.763427
G1 X416.190100 Y371.956140
G1 X416.519930 Y373.130977
G1 X416.920564 Y374.283593
G1 X417.390518 Y375.409726
G1 X417.928054 Y376.505210
G1 X418.531186 Y377.565994
G1 X419.197682 Y378.588155
G1 X419.925077 Y379.567914
G1 X420.710682 Y380.501646
G1 X421.551591 Y381.385898
G1 X422.444694 Y382.217402
G1 X423.386689 Y382.993080
G1 X424.374091 Y383.710065
G1 X425.403249 Y384.365706
G1 X426.470357 Y384.957577
G1 X427.571469 Y385.483489
G1 X428.702512 Y385.941498
G1 X429.859303 Y386.329910
G1 X431.037565 Y386.647289
G1 X432.232941 Y386.892460
G1 X433.441008 Y387.064517
G1 X434.657300 Y387.162823
G1 X435.664950 Y387.188140
G1 X436.884644 Y387.151036
G1 X438.099828 Y387.039862
G1 X439.306007 Y386.855029
G1 X440.498720 Y386.597220
G1 X441.673557 Y386.267390
G1 X442.826173 Y385.866756
G1 X443.952306 Y385.396802
G1 X445.047789 Y384.859266
G1 X446.108574 Y384.256134
G1 X447.130735 Y383.589638
G1 X448.110493 Y382.862243
G1 X449.044226 Y382.076638
G1 X449.928478 Y381.235729
G1 X450.759982 Y380.342626
G1 X451.535660 Y379.400631
G1 X452.252645 Y378.413229
G1 X452.908286 Y377.384071
G1 X453.500157 Y376.316963
G1 X454.026069 Y375.215851
G1 X454.484078 Y374.084808
G1 X454.872490 Y372.928017
G1 X455.189869 Y371.749755
G1 X455.435040 Y370.554379
G1 X455.607097 Y369.346312
G1 X455.705403 Y368.130020
G1 X455.730720 Y367.122370
M5
G0 X410.201130 Y369.271630
; Cut at 300 mm/min, 100% power
G1 X409.893727 Y368.113621
G1 X409.655982 Y366.939331
G1 X409.488741 Y365.752945
G1 X409.392602 Y364.558693
G1 X409.367906 Y363.360832
G1 X409.414742 Y362.163632
G1 X409.532942 Y360.971361
G1 X409.722087 Y359.788269
G1 X409.981500 Y358.618575
G1 X410.310258 Y357.466447
G1 X410.707188 Y356.335992
G1 X411.170876 Y355.231241
G1 X411.699668 Y354.156132
G1 X412.291680 Y353.114497
G1 X412.944801 Y352.110050
G1 X413.656703 Y351.146371
G1 X414.424847 Y350.226896
G1 X415.246496 Y349.354902
G1 X416.118721 Y348.533498
G1 X417.038413 Y347.765612
G1 X418.002292 Y347.053981
G1 X419.006922 Y346.401143
G1 X420.048724 Y345.809424
G1 X421.123982 Y345.280934
G1 X422.228863 Y344.817557
G1 X423.359429 Y344.420944
G1 X424.511649 Y344.092510
G1 X425.681417 Y343.833426
G1 X426.864562 Y343.644614
G1 X428.056866 Y343.526749
G1 X429.254078 Y343.480249
G1 X430.451933 Y343.505282
G1 X431.646158 Y343.601757
G1 X432.832496 Y343.769331
G1 X434.006720 Y344.007407
G1 X435.164642 Y344.315135
G1 X436.302136 Y344.691419
G1 X437.415145 Y345.134918
G1 X438.499703 Y345.644050
G1 X439.551943 Y346.217000
G1 X440.568114 Y346.851726
G1 X441.544594 Y347.545965
G1 X442.477901 Y348.297243
G1 X443.364709 Y349.102881
G1 X444.201857 Y349.960008
G1 X444.986359 Y350.865567
G1 X445.715419 Y351.816331
G1 X446.386439 Y352.808910
G1 X446.997027 Y353.839766
G1 X447.545004 Y354.905224
G1 X448.028420 Y356.001486
G1 X448.445549 Y357.124644
G1 X448.794905 Y358.270695
G1 X449.075243 Y359.435552
G1 X449.285563 Y360.615063
G1 X449.344030 Y361.042820
G1 X448.971764 Y359.915830
G1 X448.533521 Y358.812820
G1 X448.030835 Y357.737647
G1 X447.465464 Y356.694074
G1 X446.839387 Y355.685751
G1 X446.154792 Y354.716206
G1 X445.414076 Y353.788829
G1 X444.619829 Y352.906865
G1 X443.774829 Y352.073400
G1 X442.882033 Y351.291348
G1 X441.944565 Y350.563447
G1 X440.965702 Y349.892242
G1 X439.948870 Y349.280080
G1 X438.897626 Y348.729105
G1 X437.815647 Y348.241243
G1 X436.706718 Y347.818200
G1 X435.574718 Y347.461457
G1 X434.423608 Y347.172261
G1 X433.257414 Y346.951625
G1 X432.080216 Y346.800320
G1 X430.896132 Y346.718876
G1 X429.709304 Y346.707576
G1 X428.523883 Y346.766462
G1 X427.344018 Y346.895326
G1 X426.173835 Y347.093718
G1 X425.017427 Y347.360944
G1 X423.878840 Y347.696070
G1 X422.762058 Y348.097922
G1 X421.670986 Y348.565096
G1 X420.609442 Y349.095956
G1 X419.581139 Y349.688646
G1 X418.589674 Y350.341093
G1 X417.638516 Y351.051013
G1 X416.730993 Y351.815924
G1 X415.870277 Y352.633150
G1 X415.059382 Y353.499832
G1 X414.301143 Y354.412938
G1 X413.598213 Y355.369273
G1 X412.953051 Y356.365493
G1 X412.367913 Y357.398113
G1 X411.844848 Y358.463519
G1 X411.385683 Y359.557986
G1 X410.992027 Y360.677683
G1 X410.665256 Y361.818696
G1 X410.406512 Y362.977031
G1 X410.216702 Y364.148637
G1 X410.096489 Y365.329415
G1 X410.046293 Y366.515235
G1 X410.066291 Y367.701948
G1 X410.156412 Y368.885404
G1 X410.201130 Y369.271630
M5
G0 X489.472880 Y345.256690
; Cut at 300 mm/min, 100% power
G1 X489.582063 Y343.995553
G1 X489.623825 Y342.730388
G1 X489.598045 Y341.464797
G1 X489.504799 Y340.202382
G1 X489.344350 Y338.946737
G1 X489.117156 Y337.701438
G1 X488.823865 Y336.470030
G1 X488.465309 Y335.256018
G1 X488.042512 Y334.062859
G1 X487.556675 Y332.893949
G1 X487.009183 Y331.752617
G1 X486.401594 Y330.642111
G1 X485.735638 Y329.565594
G1 X485.013210 Y328.526130
G1 X484.236368 Y327.526679
G1 X483.407323 Y326.570085
G1 X482.528436 Y325.659073
G1 X481.602208 Y324.796235
G1 X480.631276 Y323.984029
G1 X479.618406 Y323.224767
G1 X478.566479 Y322.520609
G1 X477.478492 Y321.873562
G1 X476.357541 Y321.285466
G1 X475.206818 Y320.757997
G1 X474.029599 Y320.292656
G1 X472.829236 Y319.890768
G1 X471.609145 Y319.553477
G1 X470.372801 Y319.281743
G1 X469.123722 Y319.076340
G1 X467.865467 Y318.937853
G1 X466.601615 Y318.866675
G1 X465.335766 Y318.863010
G1 X464.071524 Y318.926868
G1 X462.812487 Y319.058068
G1 X461.562240 Y319.256234
G1 X460.324343 Y319.520805
G1 X459.102320 Y319.851025
G1 X457.899649 Y320.245956
G1 X456.719756 Y320.704473
G1 X455.565998 Y321.225270
G1 X454.441660 Y321.806864
G1 X453.349945 Y322.447601
G1 X452.293959 Y323.145656
G1 X451.276708 Y323.899040
G1 X450.301090 Y324.705611
G1 X449.369882 Y325.563071
G1 X448.485734 Y326.468979
G1 X447.651164 Y327.420756
G1 X446.868547 Y328.415692
G1 X446.140113 Y329.450955
G1 X445.467934 Y330.523598
G1 X444.853925 Y331.630567
G1 X444.299833 Y332.768710
G1 X443.807236 Y333.934786
G1 X443.377537 Y335.125477
G1 X443.011958 Y336.337393
G1 X442.711541 Y337.567082
G1 X442.477140 Y338.811045
G1 X442.309423 Y340.065739
G1 X442.208868 Y341.327593
G1 X442.175761 Y342.593014
G1 X442.210196 Y343.858400
G1 X442.312075 Y345.120148
G1 X442.481108 Y346.374665
G1 X442.716813 Y347.618381
G1 X443.018521 Y348.847755
G1 X443.385371 Y350.059286
G1 X443.816319 Y351.249526
G1 X444.310139 Y352.415085
G1 X444.865425 Y353.552646
G1 X445.480595 Y354.658970
G1 X446.153899 Y355.730907
G1 X446.883419 Y356.765405
G1 X447.667079 Y357.759520
G1 X448.502647 Y358.710421
G1 X449.387745 Y359.615401
G1 X450.319852 Y360.471883
G1 X451.296316 Y361.277430
G1 X452.314356 Y362.029747
G1 X453.371074 Y362.726693
G1 X454.463461 Y363.366284
G1 X455.588408 Y363.946699
G1 X456.742712 Y364.466285
G1 X457.923086 Y364.923563
G1 X459.126170 Y365.317232
G1 X460.348539 Y365.646170
G1 X461.586713 Y365.909442
G1 X462.837167 Y366.106297
G1 X464.096341 Y366.236175
G1 X465.360650 Y366.298707
G1 X466.626494 Y366.293714
G1 X467.890270 Y366.221210
G1 X469.148380 Y366.081403
G1 X470.397242 Y365.874690
G1 X471.633301 Y365.601659
G1 X472.853037 Y365.263088
G1 X474.052978 Y364.859940
G1 X475.229708 Y364.393365
G1 X475.315940 Y364.356280
G1 X475.935921 Y364.817262
G1 X476.569511 Y365.213013
G1 X477.215175 Y365.545014
G1 X477.871378 Y365.814748
G1 X478.536585 Y366.023696
G1 X479.209261 Y366.173339
G1 X479.887870 Y366.265159
G1 X480.570877 Y366.300638
G1 X481.256747 Y366.281257
G1 X481.943946 Y366.208498
G1 X482.630937 Y366.083843
G1 X483.316185 Y365.908772
G1 X483.998157 Y365.684768
G1 X484.675315 Y365.413313
G1 X485.346126 Y365.095887
G1 X486.009053 Y364.733972
G1 X486.662562 Y364.329051
G1 X487.305118 Y363.882604
G1 X487.935185 Y363.396114
G1 X488.185500 Y363.188840
G1 X488.994720 Y362.488162
G1 X489.737598 Y361.808288
G1 X490.421900 Y361.142169
G1 X491.055396 Y360.482753
G1 X491.645853 Y359.822991
G1 X492.201040 Y359.155833
G1 X492.728724 Y358.474227
G1 X493.236673 Y357.771125
G1 X493.732657 Y357.039476
G1 X494.224442 Y356.272229
G1 X494.719796 Y355.462335
G1 X495.226489 Y354.602743
G1 X495.752288 Y353.686403
G1 X496.304961 Y352.706264
G1 X496.837248 Y351.753935
G1 X497.404002 Y350.737756
G1 X497.545500 Y350.484320
G1 X497.030350 Y350.380469
G1 X496.547515 Y350.222639
G1 X496.093280 Y350.017034
G1 X495.663932 Y349.769856
G1 X495.255757 Y349.487308
G1 X494.865042 Y349.175595
G1 X494.488073 Y348.840918
G1 X494.121136 Y348.489483
G1 X493.760517 Y348.127491
G1 X493.402504 Y347.761146
G1 X493.007265 Y347.360542
G1 X492.565054 Y346.932318
G1 X492.108660 Y346.527783
G1 X491.631503 Y346.157926
G1 X491.127006 Y345.833738
G1 X490.588588 Y345.566206
G1 X490.064147 Y345.381408
G1 X489.501292 Y345.260773
G1 X489.472880 Y345.256690
M5
G0 X406.098870 Y277.045710
; Cut at 300 mm/min, 100% power
G1 X406.136114 Y276.059998
G1 X406.176176 Y275.000323
G1 X406.218592 Y273.878450
G1 X406.262898 Y272.706143
G1 X406.308630 Y271.495166
G1 X406.355322 Y270.257283
G1 X406.402512 Y269.004258
G1 X406.449735 Y267.747855
G1 X406.501164 Y266.375951
G1 X406.551453 Y265.029853
G1 X406.599984 Y263.725218
G1 X406.646140 Y262.477704
G1 X406.685518 Y261.406345
G1 X406.721959 Y260.406899
G1 X406.752146 Y259.570613
G1 X406.776856 Y258.877801
G1 X406.798691 Y258.256086
G1 X406.815827 Y257.758175
G1 X406.830174 Y257.329499
G1 X406.841535 Y256.975047
G1 X406.849107 Y256.721426
G1 X406.853901 Y256.537019
G1 X406.855769 Y256.425575
G1 X406.855790 Y256.417580
G1 X406.872966 Y256.331914
G1 X406.923619 Y256.179344
G1 X407.006439 Y255.962529
G1 X407.120113 Y255.684128
G1 X407.263330 Y255.346800
G1 X407.434778 Y254.953204
G1 X407.633147 Y254.505998
G1 X407.857124 Y254.007843
G1 X408.105398 Y253.461396
G1 X408.376658 Y252.869317
G1 X408.669592 Y252.234265
G1 X408.982888 Y251.558898
G1 X409.315236 Y250.845875
G1 X409.665323 Y250.097856
G1 X410.031838 Y249.317499
G1 X410.413469 Y248.507464
G1 X410.808906 Y247.670409
G1 X411.216836 Y246.808992
G1 X411.635949 Y245.925874
G1 X412.064932 Y245.023713
G1 X412.502474 Y244.105167
G1 X412.947263 Y243.172897
G1 X413.397989 Y242.229560
G1 X413.853339 Y241.277816
G1 X414.312002 Y240.320324
G1 X414.818793 Y239.263616
G1 X415.376978 Y238.101144
G1 X415.989152 Y236.827769
G1 X416.596414 Y235.566071
G1 X417.195669 Y234.322320
G1 X417.783826 Y233.102786
G1 X418.357792 Y231.913739
G1 X418.914474 Y230.761448
G1 X419.450781 Y229.652183
G1 X419.963620 Y228.592213
G1 X420.449898 Y227.587809
G1 X420.906523 Y226.645239
G1 X421.219790 Y225.998920
G1 Y225.994380
G1 X421.590999 Y225.233230
G1 X421.928651 Y224.538284
G1 X422.049300 Y224.290100
G1 X422.325929 Y223.806153
G1 X422.666714 Y223.365026
G1 X423.065130 Y222.975163
G1 X423.513549 Y222.644030
G1 X424.003384 Y222.377967
G1 X424.525257 Y222.182069
G1 X425.069177 Y222.060085
G1 X425.624727 Y222.014352
G1 X425.752450 Y222.014730
G1 X444.689800 Y222.354730
G1 X445.250547 Y222.403537
G1 X445.799051 Y222.529881
G1 X446.324645 Y222.731303
G1 X446.817106 Y223.003886
G1 X447.266856 Y223.342330
G1 X447.665149 Y223.740051
G1 X448.004238 Y224.189315
G1 X448.277529 Y224.681384
G1 X448.479706 Y225.206688
G1 X448.606837 Y225.755010
G1 X448.655870 Y226.289070
G1 X450.768160 Y309.603850
G1 X450.739679 Y310.001609
G1 X450.635085 Y310.386425
G1 X450.458298 Y310.743874
G1 X450.215946 Y311.060557
G1 X449.917112 Y311.324605
G1 X449.572997 Y311.526121
G1 X449.196500 Y311.657550
G1 X448.801734 Y311.713966
G1 X448.710320 Y311.716050
G1 X424.288370
G1 X423.672125 Y311.681071
G1 X423.063700 Y311.577149
G1 X422.470783 Y311.405596
G1 X421.900867 Y311.168580
G1 X421.361153 Y310.869096
G1 X420.858463 Y310.510929
G1 X420.399148 Y310.098605
G1 X419.989013 Y309.637335
G1 X419.633241 Y309.132947
G1 X419.347820 Y308.615730
G1 X407.626430 Y284.366010
G1 X407.180258 Y283.349317
G1 X406.808016 Y282.303292
G1 X406.511614 Y281.233301
G1 X406.292572 Y280.144837
G1 X406.152015 Y279.043485
G1 X406.090664 Y277.934895
G1 X406.098870 Y277.045760
G1 Y277.045710
M5
G0 X448.985380 Y232.006300
; Cut at 300 mm/min, 100% power
G1 X450.732469 Y233.111105
G1 X452.436185 Y234.281687
G1 X454.094053 Y235.516346
G1 X455.703665 Y236.813289
G1 X457.262682 Y238.170631
G1 X458.768839 Y239.586400
G1 X460.219949 Y241.058539
G1 X461.613901 Y242.584910
G1 X461.924800 Y242.941780
G1 X463.349479 Y244.604210
G1 X464.712565 Y246.317505
G1 X466.012246 Y248.079382
G1 X467.246790 Y249.887498
G1 X468.414555 Y251.739446
G1 X469.513985 Y253.632759
G1 X470.543618 Y255.564918
G1 X471.502083 Y257.533351
G1 X472.388103 Y259.535438
G1 X473.200501 Y261.568513
G1 X473.938193 Y263.629870
G1 X474.600198 Y265.716765
G1 X475.185635 Y267.826421
G1 X475.693725 Y269.956028
G1 X476.123791 Y272.102753
G1 X476.475261 Y274.263737
G1 X476.747667 Y276.436104
G1 X476.880250 Y277.829960
G1 X477.003947 Y279.519216
G1 X477.077337 Y281.162990
G1 X477.100470 Y282.761095
G1 X477.073395 Y284.313342
G1 X476.996163 Y285.819544
G1 X476.868825 Y287.279515
G1 X476.691430 Y288.693066
G1 X476.464029 Y290.060010
G1 X476.186672 Y291.380160
G1 X475.859409 Y292.653328
G1 X475.482291 Y293.879328
G1 X475.055367 Y295.057971
G1 X474.578688 Y296.189070
G1 X474.052304 Y297.272438
G1 X473.476266 Y298.307887
G1 X472.850623 Y299.295230
G1 X472.175426 Y300.234280
G1 X471.450725 Y301.124848
G1 X470.676570 Y301.966749
G1 X470.350250 Y302.292590
G1 X469.558009 Y303.021207
G1 X468.747801 Y303.685180
G1 X467.923530 Y304.287442
G1 X467.089099 Y304.830928
G1 X466.248413 Y305.318569
G1 X465.405375 Y305.753300
G1 X464.563889 Y306.138053
G1 X463.727859 Y306.475762
G1 X462.901187 Y306.769360
G1 X462.087779 Y307.021780
G1 X461.291538 Y307.235955
G1 X460.516367 Y307.414819
G1 X459.766170 Y307.561305
G1 X459.044852 Y307.678346
G1 X458.356315 Y307.768875
G1 X457.704463 Y307.835825
G1 X457.093201 Y307.882131
G1 X456.526432 Y307.910724
G1 X456.008059 Y307.924539
G1 X455.541987 Y307.926508
G1 X455.132119 Y307.919564
G1 X454.782359 Y307.906642
G1 X454.496610 Y307.890674
G1 X454.278777 Y307.874593
G1 X454.132763 Y307.861332
G1 X454.069090 Y307.854590
G1 X453.658870 Y307.808120
G1 X447.451250 Y302.555500
G1 X449.207880 Y300.479500
G1 X454.762370 Y305.179500
G1 X455.035125 Y305.190503
G1 X455.372521 Y305.197598
G1 X455.770168 Y305.197754
G1 X456.223679 Y305.187941
G1 X456.728664 Y305.165127
G1 X457.280736 Y305.126282
G1 X457.875505 Y305.068376
G1 X458.508583 Y304.988378
G1 X459.175582 Y304.883257
G1 X459.872112 Y304.749983
G1 X460.593786 Y304.585525
G1 X461.336215 Y304.386852
G1 X462.095010 Y304.150933
G1 X462.865783 Y303.874739
G1 X463.644144 Y303.555239
G1 X464.425707 Y303.189401
G1 X465.206081 Y302.774195
G1 X465.980879 Y302.306591
G1 X466.745711 Y301.783558
G1 X467.496190 Y301.202066
G1 X468.227927 Y300.559083
G1 X468.474370 Y300.323280
G1 X469.241607 Y299.518715
G1 X469.955743 Y298.658004
G1 X470.616722 Y297.741375
G1 X471.224484 Y296.769056
G1 X471.778972 Y295.741274
G1 X472.280127 Y294.658255
G1 X472.727892 Y293.520229
G1 X473.122209 Y292.327421
G1 X473.463018 Y291.080060
G1 X473.750263 Y289.778373
G1 X473.983885 Y288.422587
G1 X474.163827 Y287.012929
G1 X474.290029 Y285.549628
G1 X474.362435 Y284.032910
G1 X474.380985 Y282.463004
G1 X474.345623 Y280.840135
G1 X474.256289 Y279.164533
G1 X474.170840 Y278.065450
G1 X473.960015 Y275.991501
G1 X473.673900 Y273.926591
G1 X473.312874 Y271.873454
G1 X472.877414 Y269.834806
G1 X472.368096 Y267.813344
G1 X471.785595 Y265.811744
G1 X471.130681 Y263.832653
G1 X470.404221 Y261.878691
G1 X469.607175 Y259.952443
G1 X468.740600 Y258.056458
G1 X467.805640 Y256.193245
G1 X466.803534 Y254.365269
G1 X465.735608 Y252.574949
G1 X464.603274 Y250.824654
G1 X463.408032 Y249.116700
G1 X462.151461 Y247.453347
G1 X460.835226 Y245.836796
G1 X459.963020 Y244.828540
G1 X458.648805 Y243.364590
G1 X457.280821 Y241.950754
G1 X455.860978 Y240.589005
G1 X454.391258 Y239.281246
G1 X452.873713 Y238.029301
G1 X451.310460 Y236.834917
G1 X449.703682 Y235.699763
G1 X448.055621 Y234.625422
G1 X447.672720 Y234.388160
G1 X448.985380 Y232.006300
M5
G0 X413.563284 Y262.771087
; Cut at 300 mm/min, 100% power
G1 X413.745652 Y263.659023
G1 X446.834681 Y256.863071
G1 X446.652314 Y255.975135
G1 X413.563284 Y262.771087
M5
G0 X433.405523 Y259.083721
; Cut at 300 mm/min, 100% power
G1 X435.554666 Y311.734477
G1 X436.460541 Y311.697500
G1 X434.311398 Y259.046745
G1 X433.405523 Y259.083721
M5
G0 X406.098870 Y277.045710
; Cut at 300 mm/min, 100% power
G1 X406.136114 Y276.059998
G1 X406.176176 Y275.000323
G1 X406.218592 Y273.878450
G1 X406.262898 Y272.706143
G1 X406.308630 Y271.495166
G1 X406.355322 Y270.257283
G1 X406.402512 Y269.004258
G1 X406.449735 Y267.747855
G1 X406.501164 Y266.375951
G1 X406.551453 Y265.029853
G1 X406.599984 Y263.725218
G1 X406.646140 Y262.477704
G1 X406.685518 Y261.406345
G1 X406.721959 Y260.406899
G1 X406.752146 Y259.570613
G1 X406.776856 Y258.877801
G1 X406.798691 Y258.256086
G1 X406.815827 Y257.758175
G1 X406.830174 Y257.329499
G1 X406.841535 Y256.975047
G1 X406.849107 Y256.721426
G1 X406.853901 Y256.537019
G1 X406.855769 Y256.425575
G1 X406.855790 Y256.417580
G1 X406.872966 Y256.331914
G1 X406.923619 Y256.179344
G1 X407.006439 Y255.962529
G1 X407.120113 Y255.684128
G1 X407.263330 Y255.346800
G1 X407.434778 Y254.953204
G1 X407.633147 Y254.505998
G1 X407.857124 Y254.007843
G1 X408.105398 Y253.461396
G1 X408.376658 Y252.869317
G1 X408.669592 Y252.234265
G1 X408.982888 Y251.558898
G1 X409.315236 Y250.845875
G1 X409.665323 Y250.097856
G1 X410.031838 Y249.317499
G1 X410.413469 Y248.507464
G1 X410.808906 Y247.670409
G1 X411.216836 Y246.808992
G1 X411.635949 Y245.925874
G1 X412.064932 Y245.023713
G1 X412.502474 Y244.105167
G1 X412.947263 Y243.172897
G1 X413.397989 Y242.229560
G1 X413.853339 Y241.277816
G1 X414.312002 Y240.320324
G1 X414.818793 Y239.263616
G1 X415.376978 Y238.101144
G1 X415.989152 Y236.827769
G1 X416.596414 Y235.566071
G1 X417.195669 Y234.322320
G1 X417.783826 Y233.102786
G1 X418.357792 Y231.913739
G1 X418.914474 Y230.761448
G1 X419.450781 Y229.652183
G1 X419.963620 Y228.592213
G1 X420.449898 Y227.587809
G1 X420.906523 Y226.645239
G1 X421.219790 Y225.998920
G1 X413.142680 Y272.898320
G1 X412.949023 Y273.783789
G1 X412.678549 Y274.648891
G1 X412.333336 Y275.486975
G1 X411.916039 Y276.291600
G1 X411.429865 Y277.056579
G1 X410.878552 Y277.776031
G1 X410.266338 Y278.444426
G1 X409.597930 Y279.056626
G1 X408.878466 Y279.607924
G1 X408.113477 Y280.094082
G1 X407.308844 Y280.511362
G1 X406.470752 Y280.856557
G1 X406.429780 Y280.871270
G1 X406.236049 Y279.785438
G1 X406.121494 Y278.688423
G1 X406.086720 Y277.585992
G1 X406.098870 Y277.045710
M5
G0 X455.724600 Y178.757410
; Cut at 300 mm/min, 100% power
G1 X455.271729 Y179.404804
G1 X454.885104 Y180.093811
G1 X454.568514 Y180.817676
G1 X454.325063 Y181.569302
G1 X454.157139 Y182.341320
G1 X454.066388 Y183.126160
G1 X454.053699 Y183.916128
G1 X454.119197 Y184.703478
G1 X454.262240 Y185.480491
G1 X454.481426 Y186.239548
G1 X454.774605 Y186.973207
G1 X455.138903 Y187.674276
G1 X455.570748 Y188.335880
G1 X456.065906 Y188.951533
G1 X456.619522 Y189.515199
G1 X457.226169 Y190.021350
G1 X457.879899 Y190.465026
G1 X458.319700 Y190.713970
G1 X456.678170 Y208.873470
G1 X467.470340 Y212.562560
G1 X469.428340 Y186.885270
G1 X469.698460 Y186.190336
G1 X469.902897 Y185.473327
G1 X470.039885 Y184.740434
G1 X470.108241 Y183.997988
G1 X470.107373 Y183.252403
G1 X470.037291 Y182.510119
G1 X469.898598 Y181.777547
G1 X469.692494 Y181.061015
G1 X469.420758 Y180.366711
G1 X469.085737 Y179.700634
G1 X468.690325 Y179.068537
G1 X468.237938 Y178.475878
G1 X467.732484 Y177.927779
G1 X467.178327 Y177.428972
G1 X466.580255 Y176.983767
G1 X465.943434 Y176.596008
G1 X465.273365 Y176.269046
G1 X464.575834 Y176.005704
G1 X463.856868 Y175.808257
G1 X463.122676 Y175.678411
G1 X462.379601 Y175.617287
G1 X461.634060 Y175.625413
G1 X460.892493 Y175.702719
G1 X460.161305 Y175.848537
G1 X459.446814 Y176.061607
G1 X458.755189 Y176.340090
G1 X458.092405 Y176.681580
G1 X457.464187 Y177.083126
G1 X456.875961 Y177.541262
G1 X456.332808 Y178.052029
G1 X455.839420 Y178.611015
G1 X455.724610 Y178.757410
G1 X455.724600
M5
G0 X448.661240 Y288.357410
; Cut at 300 mm/min, 100% power
G1 X448.624987 Y289.288656
G1 X448.658495 Y290.220005
G1 X448.761576 Y291.146238
G1 X448.933654 Y292.062165
G1 X449.173763 Y292.962654
G1 X449.480559 Y293.842660
G1 X449.852322 Y294.697251
G1 X450.286969 Y295.521639
G1 X450.782065 Y296.311204
G1 X451.334835 Y297.061523
G1 X451.942183 Y297.768391
G1 X452.600704 Y298.427847
G1 X453.306710 Y299.036196
G1 X454.056244 Y299.590030
G1 X454.845107 Y300.086246
G1 X455.668877 Y300.522061
G1 X456.522940 Y300.895036
G1 X457.082790 Y301.099630
G1 X457.927554 Y301.342665
G1 X458.788642 Y301.519355
G1 X459.660851 Y301.628635
G1 X460.538914 Y301.669843
G1 X461.417525 Y301.642731
G1 X462.291376 Y301.547462
G1 X463.155188 Y301.384613
G1 X464.003743 Y301.155166
G1 X464.195340 Y301.093400
G1 X465.099042 Y300.745692
G1 X465.972985 Y300.328796
G1 X466.811882 Y299.845235
G1 X467.610656 Y299.297934
G1 X468.364475 Y298.690205
G1 X469.068779 Y298.025724
G1 X469.719306 Y297.308512
G1 X470.312121 Y296.542908
G1 X470.843636 Y295.733544
G1 X471.310636 Y294.885317
G1 X471.710296 Y294.003359
G1 X472.040197 Y293.093005
G1 X472.298344 Y292.159764
G1 X472.483174 Y291.209282
G1 X472.593570 Y290.247309
G1 X472.628864 Y289.279666
G1 X472.628730 Y289.244890
G1 X473.437730 Y197.022530
G1 X454.314630 Y196.329080
G1 X448.661240 Y288.357410
M5
G91
G1 Z-2
G90
; pass #2
M5
G0 X722.258680 Y91.825540
; Cut at 300 mm/min, 100% power
M4
G1 X722.333634 Y92.908849 S255 F300
G1 X722.452573 Y93.939400
G1 X722.615498 Y94.917193
G1 X722.822409 Y95.842227
G1 X723.073305 Y96.714502
G1 X723.368188 Y97.534019
G1 X723.707056 Y98.300777
G1 X724.089909 Y99.014777
G1 X724.516749 Y99.676019
G1 X724.987574 Y100.284502
G1 X725.502385 Y100.840226
G1 X726.061182 Y101.343192
G1 X726.663964 Y101.793399
G1 X727.310733 Y102.190848
G1 X728.001487 Y102.535538
G1 X728.736226 Y102.827470
G1 X729.514952 Y103.066644
G1 X730.337663 Y103.253058
G1 X731.204360 Y103.386715
G1 X732.115043 Y103.467613
G1 X733.069711 Y103.495752
G1 X734.068365 Y103.471133
G1 X735.111005 Y103.393755
G1 X735.625110 Y103.338110
M5
G0 X725.036240 Y110.600770
; Cut at 300 mm/min, 100% power
G1 X724.999247 Y109.914797
G1 X724.888698 Y109.236780
G1 X724.705875 Y108.574584
G1 X724.452898 Y107.935890
G1 X724.132701 Y107.328106
G1 X723.749000 Y106.758281
G1 X723.306243 Y106.233024
G1 X722.809567 Y105.758429
G1 X722.264732 Y105.340000
G1 X721.678059 Y104.982590
G1 X721.056351 Y104.690345
G1 X720.406820 Y104.466655
G1 X719.737000 Y104.314114
G1 X719.054660 Y104.234491
G1 X718.657590 Y104.222120
G1 X717.971617 Y104.259113
G1 X717.293600 Y104.369662
G1 X716.631404 Y104.552485
G1 X715.992710 Y104.805462
G1 X715.384926 Y105.125659
G1 X714.815101 Y105.509360
G1 X714.289844 Y105.952117
G1 X713.815249 Y106.448793
G1 X713.396820 Y106.993628
G1 X713.039410 Y107.580301
G1 X712.747165 Y108.202009
G1 X712.523475 Y108.851540
G1 X712.370934 Y109.521360
G1 X712.291311 Y110.203700
G1 X712.278940 Y110.600770
G1 X712.315933 Y111.286743
G1 X712.426482 Y111.964760
G1 X712.609305 Y112.626956
G1 X712.862282 Y113.265650
G1 X713.182479 Y113.873434
G1 X713.566180 Y114.443259
G1 X714.008937 Y114.968516
G1 X714.505613 Y115.443111
G1 X715.050448 Y115.861540
G1 X715.637121 Y116.218950
G1 X716.258829 Y116.511195
G1 X716.908360 Y116.734885
G1 X717.578180 Y116.887426
G1 X718.260520 Y116.967049
G1 X718.657590 Y116.979420
G1 X719.343563 Y116.942427
G1 X720.021580 Y116.831878
G1 X720.683776 Y116.649055
G1 X721.322470 Y116.396078
G1 X721.930254 Y116.075881
G1 X722.500079 Y115.692180
G1 X723.025336 Y115.249423
G1 X723.499931 Y114.752747
G1 X723.918360 Y114.207912
G1 X724.275770 Y113.621239
G1 X724.568015 Y112.999531
G1 X724.791705 Y112.350000
G1 X724.944246 Y111.680180
G1 X725.023869 Y110.997840
G1 X725.036240 Y110.600770
M5
G0 X717.619690 Y99.859490
; Cut at 300 mm/min, 100% power
G1 X719.420230
G1 Y87.255730
G1 X717.619690
G1 Y99.859490
M5
G0 X289.219800 Y474.796020
; Cut at 300 mm/min, 100% power
G1 X289.182527 Y471.487558
G1 X289.070708 Y468.198329
G1 X288.909740 Y465.306020
G1 X288.653865 Y461.934568
G1 X288.318769 Y458.570067
G1 X287.904637 Y455.214378
G1 X287.411698 Y451.869356
G1 X286.840225 Y448.536853
G1 X286.190533 Y445.218712
G1 X285.462983 Y441.916769
G1 X284.657976 Y438.632851
G1 X283.775959 Y435.368773
G1 X282.817419 Y432.126342
G1 X281.782886 Y428.907352
G1 X280.672932 Y425.713582
G1 X279.488172 Y422.546801
G1 X278.229262 Y419.408760
G1 X276.896897 Y416.301195
G1 X275.491814 Y413.225825
G1 X275.440020 Y413.116020
G1 X275.250080 Y412.716020
G1 X274.139720 Y410.446020
G1 X272.618211 Y407.470343
G1 X271.027110 Y404.531289
G1 X269.367300 Y401.630483
G1 X267.639697 Y398.769534
G1 X266.489820 Y396.946020
G1 X264.796620 Y394.354072
G1 X263.048263 Y391.799005
G1 X261.245554 Y389.281992
G1 X259.389318 Y386.804188
G1 X257.480411 Y384.366732
G1 X255.519706 Y381.970744
G1 X253.508107 Y379.617324
G1 X251.446536 Y377.307553
G1 X249.335940 Y375.042491
G1 X247.177289 Y372.823180
G1 X244.971573 Y370.650637
G1 X242.719807 Y368.525862
G1 X240.423025 Y366.449830
G1 X238.082280 Y364.423495
G1 X235.698650 Y362.447787
G1 X233.273227 Y360.523613
G1 X230.807126 Y358.651858
G1 X228.301480 Y356.833381
G1 X225.757440 Y355.069018
G1 X223.176174 Y353.359578
G1 X220.558867 Y351.705847
G1 X217.906723 Y350.108584
G1 X215.220958 Y348.568524
G1 X212.502806 Y347.086373
G1 X209.753517 Y345.662812
G1 X206.974352 Y344.298494
G1 X204.166588 Y342.994048
G1 X201.331515 Y341.750071
G1 X198.470434 Y340.567135
G1 X195.584660 Y339.445783
G1 X192.675519 Y338.386531
G1 X189.744346 Y337.389865
G1 X186.792487 Y336.456242
G1 X183.821300 Y335.586092
G1 X180.832147 Y334.779813
G1 X177.826402 Y334.037778
G1 X174.805445 Y333.360325
G1 X171.770665 Y332.747767
G1 X168.723455 Y332.200384
G1 X165.665214 Y331.718429
G1 X162.597347 Y331.302122
G1 X159.521263 Y330.951655
G1 X156.438375 Y330.667189
G1 X153.350099 Y330.448853
G1 X150.257853 Y330.296750
G1 X147.929760 Y330.226020
G1 X149.359940 Y247.986020
G1 X168.009840 Y257.806020
G1 X171.339920 Y251.476020
G1 X149.500080 Y239.976020
G1 X152.170000 Y87.236020
G1 X152.199780 Y85.196020
G1 X137.779860 Y81.986020
G1 X137.809650 Y84.036020
G1 X142.349650 Y330.216020
G1 X139.028635 Y330.301960
G1 X135.710481 Y330.464396
G1 X132.396951 Y330.703241
G1 X129.089803 Y331.018370
G1 X125.790795 Y331.409615
G1 X122.501677 Y331.876767
G1 X119.224196 Y332.419580
G1 X115.960091 Y333.037764
G1 X112.711097 Y333.730992
G1 X109.478938 Y334.498895
G1 X106.265329 Y335.341066
G1 X103.071979 Y336.257058
G1 X99.900581 Y337.246384
G1 X96.752820 Y338.308519
G1 X93.630368 Y339.442899
G1 X90.534881 Y340.648922
G1 X87.468004 Y341.925948
G1 X84.431364 Y343.273297
G1 X81.426575 Y344.690256
G1 X78.455232 Y346.176071
G1 X75.518911 Y347.729954
G1 X72.619173 Y349.351080
G1 X69.757557 Y351.038588
G1 X66.935583 Y352.791582
G1 X64.154747 Y354.609131
G1 X61.416528 Y356.490270
G1 X58.722379 Y358.434001
G1 X56.073730 Y360.439291
G1 X53.471988 Y362.505076
G1 X50.918534 Y364.630259
G1 X48.414724 Y366.813711
G1 X45.961887 Y369.054274
G1 X43.561326 Y371.350757
G1 X41.214314 Y373.701941
G1 X40.349650 Y374.596020
G1 X38.143342 Y376.939779
G1 X37.659710 Y377.466020
G1 X37.559620 Y377.576020
G1 X35.327735 Y380.067124
G1 X33.153996 Y382.609125
G1 X31.039564 Y385.200665
G1 X28.985566 Y387.840362
G1 X26.993100 Y390.526807
G1 X25.063228 Y393.258565
G1 X23.196982 Y396.034179
G1 X21.395356 Y398.852167
G1 X19.659314 Y401.711024
G1 X17.989781 Y404.609224
G1 X16.387648 Y407.545222
G1 X14.853772 Y410.517448
G1 X13.388970 Y413.524318
G1 X11.994025 Y416.564225
G1 X11.219770 Y418.336020
G1 X11.649950 Y417.866020
G1 X10.399136 Y420.884861
G1 X9.216837 Y423.931189
G1 X8.103658 Y427.003447
G1 X7.060166 Y430.100068
G1 X6.086893 Y433.219472
G1 X5.184338 Y436.360067
G1 X4.352959 Y439.520249
G1 X3.593182 Y442.698405
G1 X2.905395 Y445.892914
G1 X2.289947 Y449.102145
G1 X1.747155 Y452.324461
G1 X1.277293 Y455.558215
G1 X0.880603 Y458.801759
G1 X0.557287 Y462.053437
G1 X0.307510 Y465.311588
G1 X0.131399 Y468.574551
G1 X0.029044 Y471.840659
G1 X0.000498 Y475.108246
G1 X0.045774 Y478.375644
G1 X0.164851 Y481.641186
G1 X0.357666 Y484.903204
G1 X0.624123 Y488.160033
G1 X0.964084 Y491.410013
G1 X1.377376 Y494.651483
G1 X1.863788 Y497.882790
G1 X2.423073 Y501.102284
G1 X3.054943 Y504.308322
G1 X3.759078 Y507.499267
G1 X4.535118 Y510.673492
G1 X5.382666 Y513.829376
G1 X6.301291 Y516.965307
G1 X7.290522 Y520.079687
G1 X8.349856 Y523.170925
G1 X9.478751 Y526.237444
G1 X10.676631 Y529.277677
G1 X11.942886 Y532.290075
G1 X13.276869 Y535.273099
G1 X14.677898 Y538.225226
G1 X16.145259 Y541.144951
G1 X17.678203 Y544.030782
G1 X19.275948 Y546.881247
G1 X20.937678 Y549.694891
G1 X22.662545 Y552.470278
G1 X24.449668 Y555.205992
G1 X26.298136 Y557.900636
G1 X28.207005 Y560.552835
G1 X30.175300 Y563.161236
G1 X32.202018 Y565.724506
G1 X34.286124 Y568.241338
G1 X36.426553 Y570.710447
G1 X38.622215 Y573.130573
G1 X40.871987 Y575.500481
G1 X43.174722 Y577.818962
G1 X45.529245 Y580.084831
G1 X47.934353 Y582.296932
G1 X50.388820 Y584.454137
G1 X52.891392 Y586.555345
G1 X55.440792 Y588.599482
G1 X58.035720 Y590.585506
G1 X60.674850 Y592.512404
G1 X63.356835 Y594.379190
G1 X66.080308 Y596.184914
G1 X68.843877 Y597.928653
G1 X71.646133 Y599.609517
G1 X74.485644 Y601.226648
G1 X77.360963 Y602.779221
G1 X80.229540 Y604.246020
G1 X81.739790 Y604.986020
G1 X84.650458 Y606.348413
G1 X87.590655 Y607.645853
G1 X90.558930 Y608.877699
G1 X93.553821 Y610.043345
G1 X96.573852 Y611.142217
G1 X99.617534 Y612.173772
G1 X102.683366 Y613.137502
G1 X105.769838 Y614.032932
G1 X108.875428 Y614.859621
G1 X111.998605 Y615.617161
G1 X115.137831 Y616.305179
G1 X118.291557 Y616.923336
G1 X121.458228 Y617.471326
G1 X124.636285 Y617.948881
G1 X127.824161 Y618.355764
G1 X131.020284 Y618.691774
G1 X134.223078 Y618.956747
G1 X137.430966 Y619.150552
G1 X140.642366 Y619.273093
G1 X143.855694 Y619.324310
G1 X147.069368 Y619.304177
G1 X150.281803 Y619.212704
G1 X153.491415 Y619.049937
G1 X156.696623 Y618.815956
G1 X159.895846 Y618.510876
G1 X163.087508 Y618.134847
G1 X166.270036 Y617.688055
G1 X169.441860 Y617.170721
G1 X172.601418 Y616.583098
G1 X175.747151 Y615.925477
G1 X178.877510 Y615.198181
G1 X181.990951 Y614.401570
G1 X185.085939 Y613.536036
G1 X188.160950 Y612.602006
G1 X191.214467 Y611.599939
G1 X194.244986 Y610.530331
G1 X197.251012 Y609.393708
G1 X200.231063 Y608.190630
G1 X203.183672 Y606.921691
G1 X206.107382 Y605.587515
G1 X209.000752 Y604.188761
G1 X211.862357 Y602.726118
G1 X214.690785 Y601.200307
G1 X217.484642 Y599.612081
G1 X220.242552 Y597.962221
G1 X222.963155 Y596.251541
G1 X225.645109 Y594.480885
G1 X228.287094 Y592.651125
G1 X230.887806 Y590.763163
G1 X233.445964 Y588.817929
G1 X235.960306 Y586.816383
G1 X238.429594 Y584.759512
G1 X240.852611 Y582.648328
G1 X243.228161 Y580.483873
G1 X245.555074 Y578.267213
G1 X247.832203 Y575.999442
G1 X250.058426 Y573.681676
G1 X252.232644 Y571.315059
G1 X254.353788 Y568.900757
G1 X256.420810 Y566.439960
G1 X258.432693 Y563.933881
G1 X260.388444 Y561.383755
G1 X262.287099 Y558.790839
G1 X264.127723 Y556.156411
G1 X265.909408 Y553.481771
G1 X267.631276 Y550.768235
G1 X269.269580 Y548.056020
G1 X270.716035 Y545.552185
G1 X271.819870 Y543.546020
G1 X273.385833 Y540.576456
G1 X274.882073 Y537.571158
G1 X276.307772 Y534.531761
G1 X277.662157 Y531.459923
G1 X278.944487 Y528.357314
G1 X280.154066 Y525.225626
G1 X281.290235 Y522.066564
G1 X282.352374 Y518.881849
G1 X283.339905 Y515.673215
G1 X284.252291 Y512.442410
G1 X285.089033 Y509.191193
G1 X285.849678 Y505.921335
G1 X286.533809 Y502.634617
G1 X287.141056 Y499.332829
G1 X287.671086 Y496.017770
G1 X288.123612 Y492.691245
G1 X288.498387 Y489.355065
G1 X288.795206 Y486.011048
G1 X289.013909 Y482.661015
G1 X289.154375 Y479.306791
G1 X289.216529 Y475.950203
G1 X289.219800 Y474.796020
M5
G0 X459.293140 Y602.176590
; Cut at 300 mm/min, 100% power
G1 X459.257548 Y598.503572
G1 X459.150784 Y594.831933
G1 X458.972889 Y591.163052
G1 X458.723929 Y587.498308
G1 X458.403999 Y583.839077
G1 X458.013217 Y580.186733
G1 X457.551732 Y576.542647
G1 X457.019715 Y572.908188
G1 X456.417368 Y569.284722
G1 X455.744915 Y565.673609
G1 X455.002611 Y562.076205
G1 X454.190733 Y558.493862
G1 X453.309587 Y554.927924
G1 X452.359503 Y551.379732
G1 X451.340838 Y547.850617
G1 X450.253975 Y544.341905
G1 X449.099322 Y540.854914
G1 X447.877312 Y537.390954
G1 X446.588405 Y533.951325
G1 X445.233085 Y530.537319
G1 X443.811861 Y527.150218
G1 X442.325266 Y523.791295
G1 X440.773859 Y520.461810
G1 X439.158222 Y517.163016
G1 X437.478962 Y513.896149
G1 X435.736710 Y510.662438
G1 X433.932121 Y507.463096
G1 X432.065871 Y504.299326
G1 X430.138662 Y501.172315
G1 X428.151218 Y498.083239
G1 X426.104285 Y495.033256
G1 X423.998632 Y492.023513
G1 X421.835049 Y489.055139
G1 X419.614350 Y486.129251
G1 X417.337368 Y483.246946
G1 X415.004958 Y480.409307
G1 X412.617996 Y477.617400
G1 X410.177380 Y474.872273
G1 X407.684025 Y472.174958
G1 X405.138867 Y469.526467
G1 X402.542864 Y466.927795
G1 X399.896989 Y464.379918
G1 X397.202237 Y461.883793
G1 X394.459619 Y459.440358
G1 X391.670166 Y457.050529
G1 X388.834925 Y454.715205
G1 X385.954960 Y452.435263
G1 X383.031355 Y450.211559
G1 X380.065206 Y448.044928
G1 X377.057628 Y445.936184
G1 X374.009750 Y443.886118
G1 X370.922716 Y441.895501
G1 X367.797687 Y439.965081
G1 X364.635836 Y438.095582
G1 X361.438350 Y436.287706
G1 X358.206430 Y434.542133
G1 X354.941291 Y432.859518
G1 X351.644158 Y431.240493
G1 X348.316269 Y429.685666
G1 X344.958875 Y428.195621
G1 X341.573236 Y426.770917
G1 X338.160624 Y425.412091
G1 X334.722321 Y424.119651
G1 X331.259618 Y422.894083
G1 X327.773815 Y421.735848
G1 X324.266222 Y420.645381
G1 X320.738155 Y419.623091
G1 X317.190941 Y418.669362
G1 X313.625910 Y417.784553
G1 X310.044403 Y416.968995
G1 X306.447764 Y416.222995
G1 X302.837343 Y415.546833
G1 X299.214498 Y414.940763
G1 X295.580588 Y414.405013
G1 X291.936978 Y413.939784
G1 X288.285037 Y413.545250
G1 X284.626136 Y413.221560
G1 X280.961650 Y412.968836
G1 X277.292955 Y412.787172
G1 X273.621427 Y412.676636
G1 X269.948448 Y412.637270
G1 X269.753720 Y412.637170
G1 X266.080702 Y412.672762
G1 X262.409063 Y412.779526
G1 X258.740183 Y412.957421
G1 X255.075439 Y413.206381
G1 X251.416208 Y413.526312
G1 X247.763864 Y413.917094
G1 X244.119778 Y414.378580
G1 X240.485320 Y414.910596
G1 X236.861854 Y415.512944
G1 X233.250741 Y416.185396
G1 X229.653337 Y416.927701
G1 X226.070994 Y417.739579
G1 X222.505057 Y418.620725
G1 X218.956864 Y419.570810
G1 X215.427749 Y420.589475
G1 X211.919038 Y421.676338
G1 X208.432047 Y422.830991
G1 X204.968087 Y424.053000
G1 X201.528458 Y425.341907
G1 X198.114452 Y426.697227
G1 X194.727351 Y428.118452
G1 X191.368428 Y429.605047
G1 X188.038944 Y431.156454
G1 X184.740150 Y432.772091
G1 X181.473283 Y434.451351
G1 X178.239572 Y436.193603
G1 X175.040231 Y437.998193
G1 X171.876461 Y439.864442
G1 X168.749450 Y441.791651
G1 X165.660374 Y443.779095
G1 X162.610391 Y445.826028
G1 X159.600648 Y447.931682
G1 X156.632275 Y450.095264
G1 X153.706386 Y452.315964
G1 X150.824082 Y454.592946
G1 X147.986443 Y456.925356
G1 X145.194536 Y459.312317
G1 X142.449409 Y461.752934
G1 X139.752094 Y464.246289
G1 X137.103603 Y466.791446
G1 X134.504932 Y469.387449
G1 X131.957055 Y472.033324
G1 X129.460930 Y474.728076
G1 X127.017495 Y477.470694
G1 X124.627666 Y480.260147
G1 X122.292343 Y483.095389
G1 X120.012401 Y485.975353
G1 X117.788697 Y488.898958
G1 X115.622066 Y491.865107
G1 X113.513322 Y494.872685
G1 X111.463256 Y497.920563
G1 X109.472640 Y501.007597
G1 X107.542219 Y504.132626
G1 X105.672720 Y507.294477
G1 X103.864845 Y510.491963
G1 X102.119272 Y513.723882
G1 X100.436657 Y516.989022
G1 X98.817632 Y520.286155
G1 X97.262805 Y523.614043
G1 X95.772760 Y526.971437
G1 X94.348057 Y530.357076
G1 X92.989230 Y533.769688
G1 X91.696790 Y537.207991
G1 X90.471222 Y540.670694
G1 X89.312988 Y544.156497
G1 X88.222521 Y547.664090
G1 X87.200231 Y551.192156
G1 X86.246502 Y554.739371
G1 X85.361692 Y558.304401
G1 X84.546135 Y561.885908
G1 X83.800135 Y565.482547
G1 X83.123973 Y569.092968
G1 X82.517903 Y572.715813
G1 X81.982153 Y576.349723
G1 X81.516924 Y579.993332
G1 X81.122390 Y583.645273
G1 X80.798700 Y587.304174
G1 X80.545976 Y590.968660
G1 X80.364312 Y594.637356
G1 X80.253776 Y598.308883
G1 X80.214410 Y601.981862
G1 X80.214310 Y602.176590
G1 X80.249902 Y605.849608
G1 X80.356666 Y609.521247
G1 X80.534561 Y613.190127
G1 X80.783521 Y616.854870
G1 X81.103452 Y620.514102
G1 X81.494234 Y624.166446
G1 X81.955719 Y627.810531
G1 X82.487736 Y631.444989
G1 X83.090084 Y635.068455
G1 X83.762536 Y638.679568
G1 X84.504841 Y642.276972
G1 X85.316719 Y645.859315
G1 X86.197865 Y649.425252
G1 X87.147949 Y652.973444
G1 X88.166614 Y656.502559
G1 X89.253477 Y660.011270
G1 X90.408130 Y663.498261
G1 X91.630140 Y666.962221
G1 X92.919046 Y670.401850
G1 X94.274366 Y673.815856
G1 X95.695591 Y677.202956
G1 X97.182186 Y680.561879
G1 X98.733593 Y683.891363
G1 X100.349230 Y687.190158
G1 X102.028490 Y690.457024
G1 X103.770741 Y693.690735
G1 X105.575331 Y696.890076
G1 X107.441580 Y700.053846
G1 X109.368789 Y703.180857
G1 X111.356233 Y706.269933
G1 X113.403166 Y709.319916
G1 X115.508819 Y712.329659
G1 X117.672402 Y715.298032
G1 X119.893101 Y718.223920
G1 X122.170083 Y721.106225
G1 X124.502493 Y723.943864
G1 X126.889454 Y726.735771
G1 X129.330071 Y729.480897
G1 X131.823425 Y732.178212
G1 X134.368583 Y734.826703
G1 X136.964586 Y737.425375
G1 X139.610460 Y739.973251
G1 X142.305213 Y742.469376
G1 X145.047830 Y744.912812
G1 X147.837283 Y747.302640
G1 X150.672524 Y749.637964
G1 X153.552488 Y751.917906
G1 X156.476093 Y754.141610
G1 X159.442242 Y756.308241
G1 X162.449820 Y758.416985
G1 X165.497698 Y760.467050
G1 X168.584731 Y762.457667
G1 X171.709760 Y764.388087
G1 X174.871611 Y766.257586
G1 X178.069097 Y768.065462
G1 X181.301016 Y769.811035
G1 X184.566155 Y771.493650
G1 X187.863288 Y773.112675
G1 X191.191177 Y774.667502
G1 X194.548570 Y776.157547
G1 X197.934209 Y777.582251
G1 X201.346820 Y778.941077
G1 X204.785123 Y780.233517
G1 X208.247826 Y781.459085
G1 X211.733629 Y782.617320
G1 X215.241222 Y783.707787
G1 X218.769288 Y784.730077
G1 X222.316503 Y785.683806
G1 X225.881533 Y786.568616
G1 X229.463040 Y787.384174
G1 X233.059679 Y788.130174
G1 X236.670099 Y788.806336
G1 X240.292944 Y789.412406
G1 X243.926854 Y789.948156
G1 X247.570463 Y790.413385
G1 X251.222404 Y790.807919
G1 X254.881304 Y791.131609
G1 X258.545790 Y791.384334
G1 X262.214486 Y791.565998
G1 X265.886013 Y791.676534
G1 X269.558992 Y791.715900
G1 X269.753720 Y791.716000
G1 X273.426738 Y791.680408
G1 X277.098377 Y791.573644
G1 X280.767257 Y791.395749
G1 X284.432001 Y791.146790
G1 X288.091232 Y790.826859
G1 X291.743576 Y790.436077
G1 X295.387662 Y789.974592
G1 X299.022120 Y789.442575
G1 X302.645586 Y788.840228
G1 X306.256699 Y788.167776
G1 X309.854103 Y787.425471
G1 X313.436446 Y786.613593
G1 X317.002384 Y785.732447
G1 X320.550576 Y784.782363
G1 X324.079691 Y783.763698
G1 X327.588403 Y782.676835
G1 X331.075394 Y781.522182
G1 X334.539354 Y780.300173
G1 X337.978983 Y779.011266
G1 X341.392989 Y777.655946
G1 X344.780090 Y776.234722
G1 X348.139013 Y774.748127
G1 X351.468497 Y773.196720
G1 X354.767292 Y771.581083
G1 X358.034158 Y769.901824
G1 X361.267869 Y768.159572
G1 X364.467211 Y766.354982
G1 X367.630981 Y764.488733
G1 X370.757991 Y762.561524
G1 X373.847068 Y760.574080
G1 X376.897051 Y758.527147
G1 X379.906794 Y756.421494
G1 X382.875167 Y754.257912
G1 X385.801056 Y752.037212
G1 X388.683361 Y749.760230
G1 X391.520999 Y747.427821
G1 X394.312906 Y745.040859
G1 X397.058033 Y742.600243
G1 X399.755348 Y740.106888
G1 X402.403839 Y737.561731
G1 X405.002511 Y734.965728
G1 X407.550388 Y732.319853
G1 X410.046513 Y729.625101
G1 X412.489949 Y726.882483
G1 X414.879777 Y724.093030
G1 X417.215101 Y721.257789
G1 X419.495043 Y718.377825
G1 X421.718747 Y715.454220
G1 X423.885379 Y712.488071
G1 X425.994123 Y709.480493
G1 X428.044188 Y706.432615
G1 X430.034805 Y703.345582
G1 X431.965226 Y700.220553
G1 X433.834725 Y697.058702
G1 X435.642600 Y693.861216
G1 X437.388173 Y690.629297
G1 X439.070789 Y687.364157
G1 X440.689814 Y684.067024
G1 X442.244641 Y680.739136
G1 X443.734686 Y677.381742
G1 X445.159390 Y673.996103
G1 X446.518217 Y670.583492
G1 X447.810657 Y667.145189
G1 X449.036224 Y663.682486
G1 X450.194459 Y660.196683
G1 X451.284927 Y656.689090
G1 X452.307217 Y653.161023
G1 X453.260946 Y649.613809
G1 X454.145755 Y646.048779
G1 X454.961313 Y642.467272
G1 X455.707313 Y638.870632
G1 X456.383475 Y635.260212
G1 X456.989545 Y631.637367
G1 X457.525296 Y628.003457
G1 X457.990525 Y624.359848
G1 X458.385059 Y620.707907
G1 X458.708749 Y617.049006
G1 X458.961474 Y613.384520
G1 X459.143138 Y609.715824
G1 X459.253674 Y606.044297
G1 X459.293040 Y602.371318
G1 X459.293140 Y602.176590
M5
G0 X129.803940 Y728.774040
; Cut at 300 mm/min, 100% power
G1 X128.319935 Y725.204413
G1 X126.913929 Y721.621926
G1 X125.585536 Y718.027541
G1 X124.334371 Y714.422220
G1 X123.160048 Y710.806926
G1 X122.062180 Y707.182620
G1 X121.040383 Y703.550264
G1 X120.094270 Y699.910821
G1 X119.223456 Y696.265252
G1 X118.427554 Y692.614520
G1 X117.706179 Y688.959586
G1 X117.058945 Y685.301412
G1 X116.485467 Y681.640961
G1 X115.985358 Y677.979194
G1 X115.558232 Y674.317074
G1 X115.203704 Y670.655562
G1 X114.921388 Y666.995621
G1 X114.710899 Y663.338212
G1 X114.571849 Y659.684298
G1 X114.503854 Y656.034840
G1 X114.506528 Y652.390802
G1 X114.579485 Y648.753143
G1 X114.722339 Y645.122828
G1 X114.934703 Y641.500817
G1 X115.216194 Y637.888073
G1 X115.566424 Y634.285557
G1 X115.985007 Y630.694233
G1 X116.471559 Y627.115061
G1 X117.025693 Y623.549004
G1 X117.647023 Y619.997023
G1 X118.335163 Y616.460082
G1 X119.089729 Y612.939141
G1 X119.910333 Y609.435163
G1 X120.796590 Y605.949110
G1 X121.748114 Y602.481945
G1 X122.764520 Y599.034627
G1 X123.845421 Y595.608121
G1 X124.990432 Y592.203388
G1 X126.199168 Y588.821390
G1 X127.471241 Y585.463089
G1 X128.806266 Y582.129447
G1 X130.203858 Y578.821426
G1 X131.663631 Y575.539988
G1 X133.185198 Y572.286096
G1 X134.768175 Y569.060710
G1 X136.412175 Y565.864794
G1 X138.116812 Y562.699308
G1 X139.881701 Y559.565216
G1 X141.706455 Y556.463479
G1 X143.590690 Y553.395060
G1 X145.534019 Y550.360919
G1 X147.536056 Y547.362020
G1 X149.596415 Y544.399324
G1 X151.714711 Y541.473794
G1 X153.890558 Y538.586391
G1 X156.123570 Y535.738077
G1 X158.413361 Y532.929814
G1 X160.759546 Y530.162565
G1 X163.161738 Y527.437292
G1 X165.619552 Y524.754955
G1 X168.132602 Y522.116519
G1 X170.700502 Y519.522944
G1 X173.322867 Y516.975192
G1 X175.999309 Y514.474226
G1 X178.729445 Y512.021007
G1 X181.512887 Y509.616498
G1 X184.349251 Y507.261661
G1 X187.238149 Y504.957457
G1 X190.179198 Y502.704848
G1 X193.172009 Y500.504798
G1 X196.216199 Y498.358267
G1 X199.311380 Y496.266218
G1 X202.457167 Y494.229612
G1 X205.653175 Y492.249413
G1 X208.899017 Y490.326581
G1 X212.194308 Y488.462079
G1 X215.538662 Y486.656868
G1 X218.931693 Y484.911912
