; SvgToGcode v1.5.4
; GRBL 1.1, unit=mm, absolute coordinates
; Boundingbox: (X10,Y17.143040) to (X197.218279,Y184.998941)
; rapid movement,XY plane,cutter compensation off,coordinate system 1,move 'unit'/min
G0 G17 G40 G54 G94
G21
G90
; pass #1
M5
G0 X50 Y160
; Cut at 300 mm/min, 100% power
M4
G1 X50.993492 Y161.947502 S255 F300
G1 X51.986984 Y163.816043
G1 X52.980475 Y165.605621
G1 X53.973967 Y167.316238
G1 X54.967459 Y168.947892
G1 X55.960951 Y170.500584
G1 X56.954442 Y171.974314
G1 X57.947934 Y173.369082
G1 X58.941426 Y174.684888
G1 X59.934918 Y175.921732
G1 X60.928409 Y177.079613
G1 X61.921901 Y178.158533
G1 X62.915393 Y179.158491
G1 X63.908885 Y180.079486
G1 X64.902376 Y180.921520
G1 X65.895868 Y181.684591
G1 X66.889360 Y182.368701
G1 X67.882852 Y182.973848
G1 X68.876343 Y183.500033
G1 X69.869835 Y183.947256
G1 X70.863327 Y184.315517
G1 X71.856819 Y184.604816
G1 X72.850310 Y184.815153
G1 X73.843802 Y184.946528
G1 X74.837294 Y184.998941
G1 X75.830786 Y184.972392
G1 X76.824278 Y184.866880
G1 X77.817769 Y184.682407
G1 X78.811261 Y184.418972
G1 X79.804753 Y184.076574
G1 X80.798245 Y183.655214
G1 X81.791736 Y183.154893
G1 X82.785228 Y182.575609
G1 X83.778720 Y181.917363
G1 X84.772212 Y181.180155
G1 X85.765703 Y180.363985
G1 X86.759195 Y179.468853
G1 X87.752687 Y178.494759
G1 X88.746179 Y177.441703
G1 X89.739670 Y176.309685
G1 X90.733162 Y175.098704
G1 X91.726654 Y173.808762
G1 X92.720146 Y172.439857
G1 X93.713637 Y170.991991
G1 X94.707129 Y169.465162
G1 X95.700621 Y167.859372
G1 X96.694113 Y166.174619
G1 X97.687604 Y164.410904
G1 X98.681096 Y162.568227
G1 X99.674588 Y160.646588
G1 X100 Y160
G1 X100.993492 Y161.947502
G1 X101.986984 Y163.816043
G1 X102.980475 Y165.605621
G1 X103.973967 Y167.316238
G1 X104.967459 Y168.947892
G1 X105.960951 Y170.500584
G1 X106.954442 Y171.974314
G1 X107.947934 Y173.369082
G1 X108.941426 Y174.684888
G1 X109.934918 Y175.921732
G1 X110.928409 Y177.079613
G1 X111.921901 Y178.158533
G1 X112.915393 Y179.158491
G1 X113.908885 Y180.079486
G1 X114.902376 Y180.921520
G1 X115.895868 Y181.684591
G1 X116.889360 Y182.368701
G1 X117.882852 Y182.973848
G1 X118.876343 Y183.500033
G1 X119.869835 Y183.947256
G1 X120.863327 Y184.315517
G1 X121.856819 Y184.604816
G1 X122.850310 Y184.815153
G1 X123.843802 Y184.946528
G1 X124.837294 Y184.998941
G1 X125.830786 Y184.972392
G1 X126.824278 Y184.866880
G1 X127.817769 Y184.682407
G1 X128.811261 Y184.418972
G1 X129.804753 Y184.076574
G1 X130.798245 Y183.655214
G1 X131.791736 Y183.154893
G1 X132.785228 Y182.575609
G1 X133.778720 Y181.917363
G1 X134.772212 Y181.180155
G1 X135.765703 Y180.363985
G1 X136.759195 Y179.468853
G1 X137.752687 Y178.494759
G1 X138.746179 Y177.441703
G1 X139.739670 Y176.309685
G1 X140.733162 Y175.098704
G1 X141.726654 Y173.808762
G1 X142.720146 Y172.439857
G1 X143.713637 Y170.991991
G1 X144.707129 Y169.465162
G1 X145.700621 Y167.859372
G1 X146.694113 Y166.174619
G1 X147.687604 Y164.410904
G1 X148.681096 Y162.568227
G1 X149.674588 Y160.646588
G1 X150 Y160
G1 X149.965028 Y158.677662
G1 X149.860114 Y157.355325
G1 X149.685256 Y156.032987
G1 X149.440456 Y154.710650
G1 X149.125712 Y153.388312
G1 X148.741025 Y152.065975
G1 X148.286395 Y150.743637
G1 X147.761822 Y149.421300
G1 X147.167306 Y148.098962
G1 X146.502847 Y146.776625
G1 X145.768445 Y145.454287
G1 X144.964100 Y144.131950
G1 X144.089811 Y142.809612
G1 X143.145580 Y141.487275
G1 X142.131406 Y140.164937
G1 X141.047288 Y138.842599
G1 X139.893228 Y137.520262
G1 X138.669224 Y136.197924
G1 X137.375277 Y134.875587
G1 X136.011388 Y133.553249
G1 X134.577555 Y132.230912
G1 X133.073779 Y130.908574
G1 X131.500060 Y129.586237
G1 X129.856398 Y128.263899
G1 X128.142793 Y126.941562
G1 X126.359245 Y125.619224
G1 X124.505754 Y124.296887
G1 X122.582320 Y122.974549
G1 X120.588942 Y121.652212
G1 X118.525622 Y120.329874
G1 X116.392359 Y119.007536
G1 X114.189152 Y117.685199
G1 X111.916003 Y116.362861
G1 X109.572910 Y115.040524
G1 X107.159875 Y113.718186
G1 X104.676896 Y112.395849
G1 X102.123974 Y111.073511
G1 X100 Y110
G1 X97.390296 Y111.322338
G1 X94.850536 Y112.644675
G1 X92.380719 Y113.967013
G1 X89.980844 Y115.289350
G1 X87.650913 Y116.611688
G1 X85.390925 Y117.934025
G1 X83.200880 Y119.256363
G1 X81.080777 Y120.578700
G1 X79.030618 Y121.901038
G1 X77.050402 Y123.223375
G1 X75.140130 Y124.545713
G1 X73.299800 Y125.868050
G1 X71.529413 Y127.190388
G1 X69.828969 Y128.512725
G1 X68.198468 Y129.835063
G1 X66.637911 Y131.157401
G1 X65.147296 Y132.479738
G1 X63.726625 Y133.802076
G1 X62.375896 Y135.124413
G1 X61.095111 Y136.446751
G1 X59.884269 Y137.769088
G1 X58.743370 Y139.091426
G1 X57.672413 Y140.413763
G1 X56.671400 Y141.736101
G1 X55.740330 Y143.058438
G1 X54.879203 Y144.380776
G1 X54.088019 Y145.703113
G1 X53.366778 Y147.025451
G1 X52.715481 Y148.347788
G1 X52.134126 Y149.670126
G1 X51.622714 Y150.992464
G1 X51.181246 Y152.314801
G1 X50.809720 Y153.637139
G1 X50.508138 Y154.959476
G1 X50.276498 Y156.281814
G1 X50.114802 Y157.604151
G1 X50.023049 Y158.926489
G1 X50 Y160
M5
G0 X10 Y60
; Cut at 300 mm/min, 100% power
G1 X10.864280 Y61.129805
G1 X11.711633 Y62.191904
G1 X12.542060 Y63.186299
G1 X13.355561 Y64.112989
G1 X14.152136 Y64.971974
G1 X14.931785 Y65.763254
G1 X15.694507 Y66.486830
G1 X16.440303 Y67.142700
G1 X17.169173 Y67.730865
G1 X17.881117 Y68.251326
G1 X18.576134 Y68.704082
G1 X19.254225 Y69.089133
G1 X19.915390 Y69.406479
G1 X20.559629 Y69.656120
G1 X21.186942 Y69.838056
G1 X21.797328 Y69.952287
G1 X22.390788 Y69.998814
G1 X22.967322 Y69.977635
G1 X23.526930 Y69.888752
G1 X24.069611 Y69.732164
G1 X24.595366 Y69.507871
G1 X25.104195 Y69.215873
G1 X25.596098 Y68.856170
G1 X26.071075 Y68.428762
G1 X26.529125 Y67.933649
G1 X26.970249 Y67.370832
G1 X27.394447 Y66.740310
G1 X27.801719 Y66.042082
G1 X28.192064 Y65.276150
G1 X28.565484 Y64.442513
G1 X28.921977 Y63.541171
G1 X29.261544 Y62.572124
G1 X29.584184 Y61.535373
G1 X29.889898 Y60.430916
G1 X30 Y60
G1 X30.581829 Y61.129805
G1 X31.163657 Y62.191904
G1 X31.745486 Y63.186299
G1 X32.327314 Y64.112989
G1 X32.909143 Y64.971974
G1 X33.490971 Y65.763254
G1 X34.072800 Y66.486830
G1 X34.654628 Y67.142700
G1 X35.236457 Y67.730865
G1 X35.818285 Y68.251326
G1 X36.400114 Y68.704082
G1 X36.981942 Y69.089133
G1 X37.563771 Y69.406479
G1 X38.145599 Y69.656120
G1 X38.727428 Y69.838056
G1 X39.309256 Y69.952287
G1 X39.891085 Y69.998814
G1 X40.472913 Y69.977635
G1 X41.054742 Y69.888752
G1 X41.636570 Y69.732164
G1 X42.218399 Y69.507871
G1 X42.800227 Y69.215873
G1 X43.382056 Y68.856170
G1 X43.963884 Y68.428762
G1 X44.545713 Y67.933649
G1 X45.127541 Y67.370832
G1 X45.709370 Y66.740310
G1 X46.291198 Y66.042082
G1 X46.873027 Y65.276150
G1 X47.454855 Y64.442513
G1 X48.036684 Y63.541171
G1 X48.618512 Y62.572124
G1 X49.200341 Y61.535373
G1 X49.782169 Y60.430916
G1 X50 Y60
G1 X49.963717 Y59.139074
G1 X49.854869 Y58.260007
G1 X49.673454 Y57.362798
G1 X49.419474 Y56.447448
G1 X49.092929 Y55.513956
G1 X48.693817 Y54.562324
G1 X48.222140 Y53.592549
G1 X47.677897 Y52.604633
G1 X47.061089 Y51.598576
G1 X46.371714 Y50.574377
G1 X45.609774 Y49.532037
G1 X44.775268 Y48.471556
G1 X43.868197 Y47.392933
G1 X42.888560 Y46.296168
G1 X41.836357 Y45.181262
G1 X40.711588 Y44.048215
G1 X39.514254 Y42.897026
G1 X38.244354 Y41.727696
G1 X36.901888 Y40.540225
G1 X35.486857 Y39.334612
G1 X33.999260 Y38.110857
G1 X32.439097 Y36.868961
G1 X30.806368 Y35.608924
G1 X30 Y35
G1 X29.225586 Y35.037482
G1 X28.451172 Y35.149929
G1 X27.676759 Y35.337341
G1 X26.902345 Y35.599717
G1 X26.127931 Y35.937057
G1 X25.353517 Y36.349362
G1 X24.579104 Y36.836632
G1 X23.804690 Y37.398867
G1 X23.030276 Y38.036066
G1 X22.255862 Y38.748229
G1 X21.481449 Y39.535357
G1 X20.707035 Y40.397450
G1 X19.932621 Y41.334507
G1 X19.158207 Y42.346529
G1 X18.383794 Y43.433516
G1 X17.609380 Y44.595467
G1 X16.834966 Y45.832382
G1 X16.060552 Y47.144262
G1 X15.286139 Y48.531107
G1 X14.511725 Y49.992917
G1 X13.737311 Y51.529690
G1 X12.962897 Y53.141429
G1 X12.188484 Y54.828132
G1 X11.414070 Y56.589800
G1 X10.639656 Y58.426432
G1 X10 Y60
M5
G0 Y110
; Cut at 300 mm/min, 100% power
G1 X10.034972 Y109.986011
G1 X10.139886 Y109.944046
G1 X10.314744 Y109.874102
G1 X10.559544 Y109.776182
G1 X10.874288 Y109.650285
G1 X11.258975 Y109.496410
G1 X11.713605 Y109.314558
G1 X12.238178 Y109.104729
G1 X12.832694 Y108.866922
G1 X13.497153 Y108.601139
G1 X14.231555 Y108.307378
G1 X15.035900 Y107.985640
G1 X15.910189 Y107.635925
G1 X16.854420 Y107.258232
G1 X17.868594 Y106.852562
G1 X18.952712 Y106.418915
G1 X20.106772 Y105.957291
G1 X21.330776 Y105.467690
G1 X22.624723 Y104.950111
G1 X23.988612 Y104.404555
G1 X25.422445 Y103.831022
G1 X26.926221 Y103.229512
G1 X28.499940 Y102.600024
G1 X30.143602 Y101.942559
G1 X31.857207 Y101.257117
G1 X33.640755 Y100.543698
G1 X35.494246 Y99.802302
G1 X37.417680 Y99.032928
G1 X39.411058 Y98.235577
G1 X41.474378 Y97.410249
G1 X43.607641 Y96.556943
G1 X45.810848 Y95.675661
G1 X48.083997 Y94.766401
G1 X50.427090 Y93.829164
G1 X52.840125 Y92.863950
G1 X55.323104 Y91.870758
G1 X57.876026 Y90.849590
G1 X60 Y90
G1 X61.776983 Y89.293775
G1 X63.495233 Y88.620179
G1 X65.154751 Y87.979212
G1 X66.755538 Y87.370874
G1 X68.297592 Y86.795165
G1 X69.780914 Y86.252084
G1 X71.205504 Y85.741633
G1 X72.571361 Y85.263811
G1 X73.878487 Y84.818618
G1 X75.126881 Y84.406053
G1 X76.316542 Y84.026118
G1 X77.447471 Y83.678811
G1 X78.519669 Y83.364134
G1 X79.533134 Y83.082085
G1 X80.487867 Y82.832665
G1 X81.383867 Y82.615875
G1 X82.221136 Y82.431713
G1 X82.999673 Y82.280180
G1 X83.719477 Y82.161277
G1 X84.380549 Y82.075002
G1 X84.982890 Y82.021356
G1 X85.526498 Y82.000339
G1 X86.011374 Y82.011951
G1 X86.437518 Y82.056192
G1 X86.804929 Y82.133062
G1 X87.113609 Y82.242561
G1 X87.363557 Y82.384688
G1 X87.554772 Y82.559445
G1 X87.687255 Y82.766831
G1 X87.761006 Y83.006846
G1 X87.776025 Y83.279489
G1 X87.732312 Y83.584762
G1 X87.629867 Y83.922664
G1 X87.468690 Y84.293194
G1 X87.248780 Y84.696354
G1 X86.970139 Y85.132142
G1 X86.632765 Y85.600559
G1 X86.236659 Y86.101606
G1 X85.781822 Y86.635281
G1 X85.268252 Y87.201585
G1 X84.695949 Y87.800518
G1 X84.064915 Y88.432081
G1 X83.375149 Y89.096272
G1 X82.626650 Y89.793092
G1 X81.819420 Y90.522541
G1 X80.953457 Y91.284619
G1 X80.028762 Y92.079326
G1 X79.045335 Y92.906662
G1 X78.003176 Y93.766626
G1 X76.902285 Y94.659220
G1 X75.742662 Y95.584443
G1 X74.524306 Y96.542295
G1 X73.247219 Y97.532775
G1 X71.911399 Y98.555885
G1 X70.516847 Y99.611623
G1 X70 Y100
G1 X68.438050 Y101.164553
G1 X66.931373 Y102.273833
G1 X65.479970 Y103.327840
G1 X64.083840 Y104.326573
G1 X62.742984 Y105.270032
G1 X61.457401 Y106.158219
G1 X60.227092 Y106.991131
G1 X59.052056 Y107.768771
G1 X57.932293 Y108.491136
G1 X56.867804 Y109.158229
G1 X55.858589 Y109.770048
G1 X54.904647 Y110.326593
G1 X54.005978 Y110.827865
G1 X53.162583 Y111.273864
G1 X52.374461 Y111.664589
G1 X51.641612 Y112.000040
G1 X50.964038 Y112.280219
G1 X50.341736 Y112.505123
G1 X49.774708 Y112.674755
G1 X49.262954 Y112.789112
G1 X48.806472 Y112.848197
G1 X48.405265 Y112.852008
G1 X48.059331 Y112.800545
G1 X47.768670 Y112.693809
G1 X47.533282 Y112.531800
G1 X47.353169 Y112.314517
G1 X47.228328 Y112.041961
G1 X47.158761 Y111.714131
G1 X47.144468 Y111.331028
G1 X47.185448 Y110.892651
G1 X47.281701 Y110.399001
G1 X47.433228 Y109.850078
G1 X47.640028 Y109.245881
G1 X47.902102 Y108.586410
G1 X48.219449 Y107.871666
G1 X48.592070 Y107.101649
G1 X49.019964 Y106.276358
G1 X49.503131 Y105.395794
G1 X50.041572 Y104.459956
G1 X50.635287 Y103.468845
G1 X51.284275 Y102.422461
G1 X51.988536 Y101.320803
G1 X52.748071 Y100.163871
G1 X53.562879 Y98.951666
G1 X54.432961 Y97.684188
G1 X55.358316 Y96.361436
G1 X56.338944 Y94.983411
G1 X57.374846 Y93.550112
G1 X58.466022 Y92.061540
G1 X59.612471 Y90.517694
G1 X60 Y90
G1 X61.168501 Y88.441998
G1 X62.289626 Y86.947166
G1 X63.363373 Y85.515503
G1 X64.389743 Y84.147010
G1 X65.368735 Y82.841687
G1 X66.300350 Y81.599533
G1 X67.184588 Y80.420549
G1 X68.021449 Y79.304734
G1 X68.810933 Y78.252090
G1 X69.553039 Y77.262615
G1 X70.247768 Y76.336309
G1 X70.895120 Y75.473173
G1 X71.495094 Y74.673207
G1 X72.047692 Y73.936411
G1 X72.552912 Y73.262784
G1 X73.010755 Y72.652327
G1 X73.421220 Y72.105039
G1 X73.784309 Y71.620922
G1 X74.100020 Y71.199973
G1 X74.368354 Y70.842195
G1 X74.589310 Y70.547586
G1 X74.762890 Y70.316147
G1 X74.889092 Y70.147877
G1 X74.967917 Y70.042777
G1 X74.999365 Y70.000847
G1 X74.983435 Y70.022087
G1 X74.920128 Y70.106496
G1 X74.809444 Y70.254074
G1 X74.651383 Y70.464823
G1 X74.445944 Y70.738741
G1 X74.193129 Y71.075828
G1 X73.892936 Y71.476086
G1 X73.545365 Y71.939513
G1 X73.150418 Y72.466110
G1 X72.708093 Y73.055876
G1 X72.218391 Y73.708812
G1 X71.681312 Y74.424917
G1 X71.096855 Y75.204193
G1 X70.465022 Y76.046638
G1 X69.785811 Y76.952252
G1 X69.059223 Y77.921037
G1 X68.285257 Y78.952990
G1 X67.463914 Y80.048114
G1 X66.595195 Y81.206407
G1 X65.679097 Y82.427870
G1 X64.715623 Y83.712503
G1 X63.704771 Y85.060305
G1 X62.646542 Y86.471277
G1 X61.540936 Y87.945418
G1 X60.387953 Y89.482729
G1 X60 Y90
G1 X59.047078 Y91.292135
G1 X58.158875 Y92.541125
G1 X57.335390 Y93.746969
G1 X56.576624 Y94.909667
G1 X55.882577 Y96.029219
G1 X55.253248 Y97.105626
G1 X54.688638 Y98.138887
G1 X54.188746 Y99.129002
G1 X53.753573 Y100.075971
G1 X53.383119 Y100.979795
G1 X53.077383 Y101.840473
G1 X52.836365 Y102.658005
G1 X52.660067 Y103.432392
G1 X52.548486 Y104.163633
G1 X52.501625 Y104.851728
G1 X52.519482 Y105.496677
G1 X52.602057 Y106.098481
G1 X52.749352 Y106.657139
G1 X52.961364 Y107.172651
G1 X53.238096 Y107.645017
G1 X53.579546 Y108.074238
G1 X53.985714 Y108.460313
G1 X54.456602 Y108.803242
G1 X54.992207 Y109.103026
G1 X55.592532 Y109.359664
G1 X56.257574 Y109.573156
G1 X56.987336 Y109.743502
G1 X57.781816 Y109.870703
G1 X58.641015 Y109.954758
G1 X59.564932 Y109.995667
G1 X60.553568 Y109.993431
G1 X61.606922 Y109.948048
G1 X62.724995 Y109.859520
G1 X63.907787 Y109.727847
G1 X65.155297 Y109.553027
G1 X66.467526 Y109.335062
G1 X67.844473 Y109.073951
G1 X69.286139 Y108.769695
G1 X70.792524 Y108.422292
G1 X72.363627 Y108.031744
G1 X73.999448 Y107.598051
G1 X75.699989 Y107.121211
G1 X77.465248 Y106.601226
G1 X79.295225 Y106.038095
G1 X81.189921 Y105.431818
G1 X83.149336 Y104.782396
G1 X85.173469 Y104.089828
G1 X87.262321 Y103.354114
G1 X89.415891 Y102.575255
G1 X91.634180 Y101.753249
G1 X93.917188 Y100.888098
G1 X96.264914 Y99.979801
G1 X98.677359 Y99.028359
G1 X101.154522 Y98.033771
G1 X103.696404 Y96.996037
G1 X106.303005 Y95.915157
G1 X108.974324 Y94.791132
G1 X111.710362 Y93.623961
G1 X114.511118 Y92.413644
G1 X117.376593 Y91.160182
G1 X120 Y90
M5
G0 X100 Y40
; Cut at 300 mm/min, 100% power
G1 X100.033440
G1 X100.133762
G1 X100.300964
G1 X100.535047
G1 X100.836011
G1 X101.203856
G1 X101.638581
G1 X102.140188
G1 X102.708675
G1 X103.344044
G1 X104.046293
G1 X104.815423
G1 X105.651434
G1 X106.554326
G1 X107.524098
G1 X108.560752
G1 X109.664286
G1 X110.834702
G1 X112.071998
G1 X113.376175
G1 X114.747233
G1 X116.185171
G1 X117.689991
G1 X119.261692
G1 X120.900273
G1 X122.605735
G1 X124.378078
G1 X126.217302
G1 X128.123407
G1 X130.096393
G1 X132.136260
G1 X134.243007
G1 X136.416636
G1 X138.657145
G1 X140.964535
G1 X143.338806
G1 X145.779958
G1 X148.287991
G1 X150.862904
G1 X153.504699
G1 X156.213374
G1 X158.988930
G1 X161.831368
G1 X164.740686
G1 X167.716884
G1 X170
G1 X171.866838 Y40.001842
G1 X173.667371 Y40.007367
G1 X175.401598 Y40.016576
G1 X177.069520 Y40.029469
G1 X178.671137 Y40.046045
G1 X180.206447 Y40.066305
G1 X181.675453 Y40.090249
G1 X183.078153 Y40.117876
G1 X184.414547 Y40.149187
G1 X185.684636 Y40.184182
G1 X186.888419 Y40.222860
G1 X188.025897 Y40.265222
G1 X189.097069 Y40.311267
G1 X190.101936 Y40.360997
G1 X191.040497 Y40.414409
G1 X191.912753 Y40.471506
G1 X192.718704 Y40.532286
G1 X193.458348 Y40.596749
G1 X194.131688 Y40.664897
G1 X194.738722 Y40.736728
G1 X195.279450 Y40.812242
G1 X195.753873 Y40.891441
G1 X196.161990 Y40.974322
G1 X196.503802 Y41.060888
G1 X196.779308 Y41.151137
G1 X196.988509 Y41.245070
G1 X197.131404 Y41.342686
G1 X197.207994 Y41.443986
G1 X197.218279 Y41.548970
G1 X197.162257 Y41.657637
G1 X197.039931 Y41.769988
G1 X196.851299 Y41.886023
G1 X196.596361 Y42.005741
G1 X196.275118 Y42.129143
G1 X195.887569 Y42.256229
G1 X195.433715 Y42.386998
G1 X194.913555 Y42.521451
G1 X194.327090 Y42.659587
G1 X193.674320 Y42.801407
G1 X192.955243 Y42.946911
G1 X192.169862 Y43.096098
G1 X191.318175 Y43.248969
G1 X190.400182 Y43.405524
G1 X189.415884 Y43.565762
G1 X188.365280 Y43.729684
G1 X187.248371 Y43.897290
G1 X186.065156 Y44.068579
G1 X184.815636 Y44.243552
G1 X183.499811 Y44.422208
G1 X182.117679 Y44.604549
G1 X180.669243 Y44.790572
G1 X179.154501 Y44.980280
G1 X177.573453 Y45.173671
G1 X175.926100 Y45.370745
G1 X174.212441 Y45.571504
G1 X172.432477 Y45.775946
G1 X170.586207 Y45.984071
G1 X168.673632 Y46.195881
G1 X166.694752 Y46.411373
G1 X164.649566 Y46.630550
G1 X162.538074 Y46.853410
G1 X160.360277 Y47.079954
G1 X158.116174 Y47.310181
G1 X155.805766 Y47.544092
G1 X153.429052 Y47.781687
G1 X150.986033 Y48.022965
G1 X148.476709 Y48.267927
G1 X145.901078 Y48.516573
G1 X143.259143 Y48.768902
G1 X140.550902 Y49.024915
G1 X137.776355 Y49.284612
G1 X134.935503 Y49.547992
G1 X132.028345 Y49.815056
G1 X130 Y50
G1 X127.047452 Y50.264060
G1 X124.161210 Y50.513385
G1 X121.341274 Y50.747976
G1 X118.587643 Y50.967833
G1 X115.900317 Y51.172955
G1 X113.279297 Y51.363342
G1 X110.724583 Y51.538994
G1 X108.236174 Y51.699913
G1 X105.814070 Y51.846096
G1 X103.458272 Y51.977545
G1 X101.168780 Y52.094260
G1 X98.945593 Y52.196240
G1 X96.788711 Y52.283485
G1 X94.698135 Y52.355996
G1 X92.673865 Y52.413772
G1 X90.715900 Y52.456814
G1 X88.824240 Y52.485121
G1 X86.998886 Y52.498693
G1 X85.239838 Y52.497531
G1 X83.547095 Y52.481635
G1 X81.920657 Y52.451004
G1 X80.360525 Y52.405638
G1 X78.866699 Y52.345538
G1 X77.439178 Y52.270703
G1 X76.077962 Y52.181134
G1 X74.783052 Y52.076830
G1 X73.554448 Y51.957792
G1 X72.392149 Y51.824019
G1 X71.296155 Y51.675511
G1 X70.266467 Y51.512269
G1 X69.303084 Y51.334292
G1 X68.406007 Y51.141581
G1 X67.575236 Y50.934135
G1 X66.810770 Y50.711955
G1 X66.112609 Y50.475040
G1 X65.480754 Y50.223391
G1 X64.915205 Y49.957007
G1 X64.415961 Y49.675888
G1 X63.983022 Y49.380035
G1 X63.616389 Y49.069448
G1 X63.316062 Y48.744125
G1 X63.082040 Y48.404069
G1 X62.914323 Y48.049277
G1 X62.812912 Y47.679751
G1 X62.777807 Y47.295491
G1 X62.809006 Y46.896496
G1 X62.906512 Y46.482766
G1 X63.070323 Y46.054302
G1 X63.300439 Y45.611104
G1 X63.596861 Y45.153171
G1 X63.959589 Y44.680503
G1 X64.388622 Y44.193100
G1 X64.883960 Y43.690964
G1 X65.445604 Y43.174092
G1 X66.073554 Y42.642486
G1 X66.767809 Y42.096146
G1 X67.528369 Y41.535071
G1 X68.355235 Y40.959261
G1 X69.248406 Y40.368717
G1 X70.207883 Y39.763438
G1 X71.233666 Y39.143425
G1 X72.325754 Y38.508677
G1 X73.484147 Y37.859194
G1 X74.708846 Y37.194977
G1 X75.999851 Y36.516026
G1 X77.357161 Y35.822340
G1 X78.780776 Y35.113919
G1 X80.270697 Y34.390764
G1 X81.826923 Y33.652874
G1 X83.449455 Y32.900250
G1 X85.138293 Y32.132891
G1 X86.893436 Y31.350798
G1 X88.714884 Y30.553970
G1 X90 Y30
G1 X92.263933 Y29.033595
G1 X94.457755 Y28.104943
G1 X96.581464 Y27.214043
G1 X98.635062 Y26.360896
G1 X100.618548 Y25.545501
G1 X102.531923 Y24.767859
G1 X104.375185 Y24.027969
G1 X106.148336 Y23.325832
G1 X107.851375 Y22.661447
G1 X109.484302 Y22.034815
G1 X111.047117 Y21.445935
G1 X112.539821 Y20.894808
G1 X113.962412 Y20.381433
G1 X115.314892 Y19.905811
G1 X116.597260 Y19.467941
G1 X117.809516 Y19.067824
G1 X118.951661 Y18.705459
G1 X120.023693 Y18.380847
G1 X121.025614 Y18.093987
G1 X121.957423 Y17.844880
G1 X122.819121 Y17.633526
G1 X123.610706 Y17.459923
G1 X124.332180 Y17.324074
G1 X124.983541 Y17.225977
G1 X125.564791 Y17.165632
G1 X126.075930 Y17.143040
G1 X126.516956 Y17.158200
G1 X126.887871 Y17.211113
G1 X127.188673 Y17.301779
G1 X127.419364 Y17.430197
G1 X127.579944 Y17.596367
G1 X127.670411 Y17.800290
G1 X127.690767 Y18.041966
G1 X127.641010 Y18.321394
G1 X127.521142 Y18.638574
G1 X127.331163 Y18.993507
G1 X127.071071 Y19.386193
G1 X126.740867 Y19.816631
G1 X126.340552 Y20.284821
G1 X125.870125 Y20.790764
G1 X125.329586 Y21.334460
G1 X124.718936 Y21.915908
G1 X124.038173 Y22.535108
G1 X123.287299 Y23.192061
G1 X122.466313 Y23.886767
G1 X121.575215 Y24.619225
G1 X120.614005 Y25.389436
G1 X119.582684 Y26.197399
G1 X118.481251 Y27.043115
G1 X117.309706 Y27.926583
G1 X116.068049 Y28.847803
G1 X114.756280 Y29.806776
G1 X113.374400 Y30.803502
G1 X111.922407 Y31.837980
G1 X110.400303 Y32.910211
G1 X108.808087 Y34.020194
G1 X107.145760 Y35.167930
G1 X105.413320 Y36.353418
G1 X103.610769 Y37.576659
G1 X101.738106 Y38.837652
G1 X100 Y40
M5
G91
G1 Z-2
G90
; pass #2
M5
G0 X50 Y160
; Cut at 300 mm/min, 100% power
M4
G1 X50.993492 Y161.947502 S255 F300
G1 X51.986984 Y163.816043
G1 X52.980475 Y165.605621
G1 X53.973967 Y167.316238
G1 X54.967459 Y168.947892
G1 X55.960951 Y170.500584
G1 X56.954442 Y171.974314
G1 X57.947934 Y173.369082
G1 X58.941426 Y174.684888
G1 X59.934918 Y175.921732
G1 X60.928409 Y177.079613
G1 X61.921901 Y178.158533
G1 X62.915393 Y179.158491
G1 X63.908885 Y180.079486
G1 X64.902376 Y180.921520
G1 X65.895868 Y181.684591
G1 X66.889360 Y182.368701
G1 X67.882852 Y182.973848
G1 X68.876343 Y183.500033
G1 X69.869835 Y183.947256
G1 X70.863327 Y184.315517
G1 X71.856819 Y184.604816
G1 X72.850310 Y184.815153
G1 X73.843802 Y184.946528
G1 X74.837294 Y184.998941
G1 X75.830786 Y184.972392
G1 X76.824278 Y184.866880
G1 X77.817769 Y184.682407
G1 X78.811261 Y184.418972
G1 X79.804753 Y184.076574
G1 X80.798245 Y183.655214
G1 X81.791736 Y183.154893
G1 X82.785228 Y182.575609
G1 X83.778720 Y181.917363
G1 X84.772212 Y181.180155
G1 X85.765703 Y180.363985
G1 X86.759195 Y179.468853
G1 X87.752687 Y178.494759
G1 X88.746179 Y177.441703
G1 X89.739670 Y176.309685
G1 X90.733162 Y175.098704
G1 X91.726654 Y173.808762
G1 X92.720146 Y172.439857
G1 X93.713637 Y170.991991
G1 X94.707129 Y169.465162
G1 X95.700621 Y167.859372
G1 X96.694113 Y166.174619
G1 X97.687604 Y164.410904
G1 X98.681096 Y162.568227
G1 X99.674588 Y160.646588
G1 X100 Y160
G1 X100.993492 Y161.947502
G1 X101.986984 Y163.816043
G1 X102.980475 Y165.605621
G1 X103.973967 Y167.316238
G1 X104.967459 Y168.947892
G1 X105.960951 Y170.500584
G1 X106.954442 Y171.974314
G1 X107.947934 Y173.369082
G1 X108.941426 Y174.684888
G1 X109.934918 Y175.921732
G1 X110.928409 Y177.079613
G1 X111.921901 Y178.158533
G1 X112.915393 Y179.158491
G1 X113.908885 Y180.079486
G1 X114.902376 Y180.921520
G1 X115.895868 Y181.684591
G1 X116.889360 Y182.368701
G1 X117.882852 Y182.973848
G1 X118.876343 Y183.500033
G1 X119.869835 Y183.947256
G1 X120.863327 Y184.315517
G1 X121.856819 Y184.604816
G1 X122.850310 Y184.815153
G1 X123.843802 Y184.946528
G1 X124.837294 Y184.998941
G1 X125.830786 Y184.972392
G1 X126.824278 Y184.866880
G1 X127.817769 Y184.682407
G1 X128.811261 Y184.418972
G1 X129.804753 Y184.076574
G1 X130.798245 Y183.655214
G1 X131.791736 Y183.154893
G1 X132.785228 Y182.575609
G1 X133.778720 Y181.917363
G1 X134.772212 Y181.180155
G1 X135.765703 Y180.363985
G1 X136.759195 Y179.468853
G1 X137.752687 Y178.494759
G1 X138.746179 Y177.441703
G1 X139.739670 Y176.309685
G1 X140.733162 Y175.098704
G1 X141.726654 Y173.808762
G1 X142.720146 Y172.439857
G1 X143.713637 Y170.991991
G1 X144.707129 Y169.465162
G1 X145.700621 Y167.859372
G1 X146.694113 Y166.174619
G1 X147.687604 Y164.410904
G1 X148.681096 Y162.568227
G1 X149.674588 Y160.646588
G1 X150 Y160
G1 X149.965028 Y158.677662
G1 X149.860114 Y157.355325
G1 X149.685256 Y156.032987
G1 X149.440456 Y154.710650
G1 X149.125712 Y153.388312
G1 X148.741025 Y152.065975
G1 X148.286395 Y150.743637
G1 X147.761822 Y149.421300
G1 X147.167306 Y148.098962
G1 X146.502847 Y146.776625
G1 X145.768445 Y145.454287
G1 X144.964100 Y144.131950
G1 X144.089811 Y142.809612
G1 X143.145580 Y141.487275
G1 X142.131406 Y140.164937
G1 X141.047288 Y138.842599
G1 X139.893228 Y137.520262
G1 X138.669224 Y136.197924
G1 X137.375277 Y134.875587
G1 X136.011388 Y133.553249
G1 X134.577555 Y132.230912
G1 X133.073779 Y130.908574
G1 X131.500060 Y129.586237
G1 X129.856398 Y128.263899
G1 X128.142793 Y126.941562
G1 X126.359245 Y125.619224
G1 X124.505754 Y124.296887
G1 X122.582320 Y122.974549
G1 X120.588942 Y121.652212
G1 X118.525622 Y120.329874
G1 X116.392359 Y119.007536
G1 X114.189152 Y117.685199
G1 X111.916003 Y116.362861
G1 X109.572910 Y115.040524
G1 X107.159875 Y113.718186
G1 X104.676896 Y112.395849
G1 X102.123974 Y111.073511
G1 X100 Y110
G1 X97.390296 Y111.322338
G1 X94.850536 Y112.644675
G1 X92.380719 Y113.967013
G1 X89.980844 Y115.289350
G1 X87.650913 Y116.611688
G1 X85.390925 Y117.934025
G1 X83.200880 Y119.256363
G1 X81.080777 Y120.578700
G1 X79.030618 Y121.901038
G1 X77.050402 Y123.223375
G1 X75.140130 Y124.545713
G1 X73.299800 Y125.868050
G1 X71.529413 Y127.190388
G1 X69.828969 Y128.512725
G1 X68.198468 Y129.835063
G1 X66.637911 Y131.157401
G1 X65.147296 Y132.479738
G1 X63.726625 Y133.802076
G1 X62.375896 Y135.124413
G1 X61.095111 Y136.446751
G1 X59.884269 Y137.769088
G1 X58.743370 Y139.091426
G1 X57.672413 Y140.413763
G1 X56.671400 Y141.736101
G1 X55.740330 Y143.058438
G1 X54.879203 Y144.380776
G1 X54.088019 Y145.703113
G1 X53.366778 Y147.025451
G1 X52.715481 Y148.347788
G1 X52.134126 Y149.670126
G1 X51.622714 Y150.992464
G1 X51.181246 Y152.314801
G1 X50.809720 Y153.637139
G1 X50.508138 Y154.959476
G1 X50.276498 Y156.281814
G1 X50.114802 Y157.604151
G1 X50.023049 Y158.926489
G1 X50 Y160
M5
G0 X10 Y60
; Cut at 300 mm/min, 100% power
G1 X10.864280 Y61.129805
G1 X11.711633 Y62.191904
G1 X12.542060 Y63.186299
G1 X13.355561 Y64.112989
G1 X14.152136 Y64.971974
G1 X14.931785 Y65.763254
G1 X15.694507 Y66.486830
G1 X16.440303 Y67.142700
G1 X17.169173 Y67.730865
G1 X17.881117 Y68.251326
G1 X18.576134 Y68.704082
G1 X19.254225 Y69.089133
G1 X19.915390 Y69.406479
G1 X20.559629 Y69.656120
G1 X21.186942 Y69.838056
G1 X21.797328 Y69.952287
G1 X22.390788 Y69.998814
G1 X22.967322 Y69.977635
G1 X23.526930 Y69.888752
G1 X24.069611 Y69.732164
G1 X24.595366 Y69.507871
G1 X25.104195 Y69.215873
G1 X25.596098 Y68.856170
G1 X26.071075 Y68.428762
G1 X26.529125 Y67.933649
G1 X26.970249 Y67.370832
G1 X27.394447 Y66.740310
G1 X27.801719 Y66.042082
G1 X28.192064 Y65.276150
G1 X28.565484 Y64.442513
G1 X28.921977 Y63.541171
G1 X29.261544 Y62.572124
G1 X29.584184 Y61.535373
G1 X29.889898 Y60.430916
G1 X30 Y60
G1 X30.581829 Y61.129805
G1 X31.163657 Y62.191904
G1 X31.745486 Y63.186299
G1 X32.327314 Y64.112989
G1 X32.909143 Y64.971974
G1 X33.490971 Y65.763254
G1 X34.072800 Y66.486830
G1 X34.654628 Y67.142700
G1 X35.236457 Y67.730865
G1 X35.818285 Y68.251326
G1 X36.400114 Y68.704082
G1 X36.981942 Y69.089133
G1 X37.563771 Y69.406479
G1 X38.145599 Y69.656120
G1 X38.727428 Y69.838056
G1 X39.309256 Y69.952287
G1 X39.891085 Y69.998814
G1 X40.472913 Y69.977635
G1 X41.054742 Y69.888752
G1 X41.636570 Y69.732164
G1 X42.218399 Y69.507871
G1 X42.800227 Y69.215873
G1 X43.382056 Y68.856170
G1 X43.963884 Y68.428762
G1 X44.545713 Y67.933649
G1 X45.127541 Y67.370832
G1 X45.709370 Y66.740310
G1 X46.291198 Y66.042082
G1 X46.873027 Y65.276150
G1 X47.454855 Y64.442513
G1 X48.036684 Y63.541171
G1 X48.618512 Y62.572124
G1 X49.200341 Y61.535373
G1 X49.782169 Y60.430916
G1 X50 Y60
G1 X49.963717 Y59.139074
G1 X49.854869 Y58.260007
G1 X49.673454 Y57.362798
G1 X49.419474 Y56.447448
G1 X49.092929 Y55.513956
G1 X48.693817 Y54.562324
G1 X48.222140 Y53.592549
G1 X47.677897 Y52.604633
G1 X47.061089 Y51.598576
G1 X46.371714 Y50.574377
G1 X45.609774 Y49.532037
G1 X44.775268 Y48.471556
G1 X43.868197 Y47.392933
G1 X42.888560 Y46.296168
G1 X41.836357 Y45.181262
G1 X40.711588 Y44.048215
G1 X39.514254 Y42.897026
G1 X38.244354 Y41.727696
G1 X36.901888 Y40.540225
G1 X35.486857 Y39.334612
G1 X33.999260 Y38.110857
G1 X32.439097 Y36.868961
G1 X30.806368 Y35.608924
G1 X30 Y35
G1 X29.225586 Y35.037482
G1 X28.451172 Y35.149929
G1 X27.676759 Y35.337341
G1 X26.902345 Y35.599717
G1 X26.127931 Y35.937057
G1 X25.353517 Y36.349362
G1 X24.579104 Y36.836632
G1 X23.804690 Y37.398867
G1 X23.030276 Y38.036066
G1 X22.255862 Y38.748229
G1 X21.481449 Y39.535357
G1 X20.707035 Y40.397450
G1 X19.932621 Y41.334507
G1 X19.158207 Y42.346529
G1 X18.383794 Y43.433516
G1 X17.609380 Y44.595467
G1 X16.834966 Y45.832382
G1 X16.060552 Y47.144262
G1 X15.286139 Y48.531107
G1 X14.511725 Y49.992917
G1 X13.737311 Y51.529690
G1 X12.962897 Y53.141429
G1 X12.188484 Y54.828132
G1 X11.414070 Y56.589800
G1 X10.639656 Y58.426432
G1 X10 Y60
M5
G0 Y110
; Cut at 300 mm/min, 100% power
G1 X10.034972 Y109.986011
G1 X10.139886 Y109.944046
G1 X10.314744 Y109.874102
G1 X10.559544 Y109.776182
G1 X10.874288 Y109.650285
G1 X11.258975 Y109.496410
G1 X11.713605 Y109.314558
G1 X12.238178 Y109.104729
G1 X12.832694 Y108.866922
G1 X13.497153 Y108.601139
G1 X14.231555 Y108.307378
G1 X15.035900 Y107.985640
G1 X15.910189 Y107.635925
G1 X16.854420 Y107.258232
G1 X17.868594 Y106.852562
G1 X18.952712 Y106.418915
G1 X20.106772 Y105.957291
G1 X21.330776 Y105.467690
G1 X22.624723 Y104.950111
G1 X23.988612 Y104.404555
G1 X25.422445 Y103.831022
G1 X26.926221 Y103.229512
G1 X28.499940 Y102.600024
G1 X30.143602 Y101.942559
G1 X31.857207 Y101.257117
G1 X33.640755 Y100.543698
G1 X35.494246 Y99.802302
G1 X37.417680 Y99.032928
G1 X39.411058 Y98.235577
G1 X41.474378 Y97.410249
G1 X43.607641 Y96.556943
G1 X45.810848 Y95.675661
G1 X48.083997 Y94.766401
G1 X50.427090 Y93.829164
G1 X52.840125 Y92.863950
G1 X55.323104 Y91.870758
G1 X57.876026 Y90.849590
G1 X60 Y90
G1 X61.776983 Y89.293775
G1 X63.495233 Y88.620179
G1 X65.154751 Y87.979212
G1 X66.755538 Y87.370874
G1 X68.297592 Y86.795165
G1 X69.780914 Y86.252084
G1 X71.205504 Y85.741633
G1 X72.571361 Y85.263811
G1 X73.878487 Y84.818618
G1 X75.126881 Y84.406053
G1 X76.316542 Y84.026118
G1 X77.447471 Y83.678811
G1 X78.519669 Y83.364134
G1 X79.533134 Y83.082085
G1 X80.487867 Y82.832665
G1 X81.383867 Y82.615875
G1 X82.221136 Y82.431713
G1 X82.999673 Y82.280180
G1 X83.719477 Y82.161277
G1 X84.380549 Y82.075002
G1 X84.982890 Y82.021356
G1 X85.526498 Y82.000339
G1 X86.011374 Y82.011951
G1 X86.437518 Y82.056192
G1 X86.804929 Y82.133062
G1 X87.113609 Y82.242561
G1 X87.363557 Y82.384688
G1 X87.554772 Y82.559445
G1 X87.687255 Y82.766831
G1 X87.761006 Y83.006846
G1 X87.776025 Y83.279489
G1 X87.732312 Y83.584762
G1 X87.629867 Y83.922664
G1 X87.468690 Y84.293194
G1 X87.248780 Y84.696354
G1 X86.970139 Y85.132142
G1 X86.632765 Y85.600559
G1 X86.236659 Y86.101606
G1 X85.781822 Y86.635281
G1 X85.268252 Y87.201585
G1 X84.695949 Y87.800518
G1 X84.064915 Y88.432081
G1 X83.375149 Y89.096272
G1 X82.626650 Y89.793092
G1 X81.819420 Y90.522541
G1 X80.953457 Y91.284619
G1 X80.028762 Y92.079326
G1 X79.045335 Y92.906662
G1 X78.003176 Y93.766626
G1 X76.902285 Y94.659220
G1 X75.742662 Y95.584443
G1 X74.524306 Y96.542295
G1 X73.247219 Y97.532775
G1 X71.911399 Y98.555885
G1 X70.516847 Y99.611623
G1 X70 Y100
G1 X68.438050 Y101.164553
G1 X66.931373 Y102.273833
G1 X65.479970 Y103.327840
G1 X64.083840 Y104.326573
G1 X62.742984 Y105.270032
G1 X61.457401 Y106.158219
G1 X60.227092 Y106.991131
G1 X59.052056 Y107.768771
G1 X57.932293 Y108.491136
G1 X56.867804 Y109.158229
G1 X55.858589 Y109.770048
G1 X54.904647 Y110.326593
G1 X54.005978 Y110.827865
G1 X53.162583 Y111.273864
G1 X52.374461 Y111.664589
G1 X51.641612 Y112.000040
G1 X50.964038 Y112.280219
G1 X50.341736 Y112.505123
G1 X49.774708 Y112.674755
G1 X49.262954 Y112.789112
G1 X48.806472 Y112.848197
G1 X48.405265 Y112.852008
G1 X48.059331 Y112.800545
G1 X47.768670 Y112.693809
G1 X47.533282 Y112.531800
G1 X47.353169 Y112.314517
G1 X47.228328 Y112.041961
G1 X47.158761 Y111.714131
G1 X47.144468 Y111.331028
G1 X47.185448 Y110.892651
G1 X47.281701 Y110.399001
G1 X47.433228 Y109.850078
G1 X47.640028 Y109.245881
G1 X47.902102 Y108.586410
G1 X48.219449 Y107.871666
G1 X48.592070 Y107.101649
G1 X49.019964 Y106.276358
G1 X49.503131 Y105.395794
G1 X50.041572 Y104.459956
G1 X50.635287 Y103.468845
G1 X51.284275 Y102.422461
G1 X51.988536 Y101.320803
G1 X52.748071 Y100.163871
G1 X53.562879 Y98.951666
G1 X54.432961 Y97.684188
G1 X55.358316 Y96.361436
G1 X56.338944 Y94.983411
G1 X57.374846 Y93.550112
G1 X58.466022 Y92.061540
G1 X59.612471 Y90.517694
G1 X60 Y90
G1 X61.168501 Y88.441998
G1 X62.289626 Y86.947166
G1 X63.363373 Y85.515503
G1 X64.389743 Y84.147010
G1 X65.368735 Y82.841687
G1 X66.300350 Y81.599533
G1 X67.184588 Y80.420549
G1 X68.021449 Y79.304734
G1 X68.810933 Y78.252090
G1 X69.553039 Y77.262615
G1 X70.247768 Y76.336309
G1 X70.895120 Y75.473173
G1 X71.495094 Y74.673207
G1 X72.047692 Y73.936411
G1 X72.552912 Y73.262784
G1 X73.010755 Y72.652327
G1 X73.421220 Y72.105039
G1 X73.784309 Y71.620922
G1 X74.100020 Y71.199973
G1 X74.368354 Y70.842195
G1 X74.589310 Y70.547586
G1 X74.762890 Y70.316147
G1 X74.889092 Y70.147877
G1 X74.967917 Y70.042777
G1 X74.999365 Y70.000847
G1 X74.983435 Y70.022087
G1 X74.920128 Y70.106496
G1 X74.809444 Y70.254074
G1 X74.651383 Y70.464823
G1 X74.445944 Y70.738741
G1 X74.193129 Y71.075828
G1 X73.892936 Y71.476086
G1 X73.545365 Y71.939513
G1 X73.150418 Y72.466110
G1 X72.708093 Y73.055876
G1 X72.218391 Y73.708812
G1 X71.681312 Y74.424917
G1 X71.096855 Y75.204193
G1 X70.465022 Y76.046638
G1 X69.785811 Y76.952252
G1 X69.059223 Y77.921037
G1 X68.285257 Y78.952990
G1 X67.463914 Y80.048114
G1 X66.595195 Y81.206407
G1 X65.679097 Y82.427870
G1 X64.715623 Y83.712503
G1 X63.704771 Y85.060305
G1 X62.646542 Y86.471277
G1 X61.540936 Y87.945418
G1 X60.387953 Y89.482729
G1 X60 Y90
G1 X59.047078 Y91.292135
G1 X58.158875 Y92.541125
G1 X57.335390 Y93.746969
G1 X56.576624 Y94.909667
G1 X55.882577 Y96.029219
G1 X55.253248 Y97.105626
G1 X54.688638 Y98.138887
G1 X54.188746 Y99.129002
G1 X53.753573 Y100.075971
G1 X53.383119 Y100.979795
G1 X53.077383 Y101.840473
G1 X52.836365 Y102.658005
G1 X52.660067 Y103.432392
G1 X52.548486 Y104.163633
G1 X52.501625 Y104.851728
G1 X52.519482 Y105.496677
G1 X52.602057 Y106.098481
G1 X52.749352 Y106.657139
G1 X52.961364 Y107.172651
G1 X53.238096 Y107.645017
G1 X53.579546 Y108.074238
G1 X53.985714 Y108.460313
G1 X54.456602 Y108.803242
G1 X54.992207 Y109.103026
G1 X55.592532 Y109.359664
G1 X56.257574 Y109.573156
G1 X56.987336 Y109.743502
G1 X57.781816 Y109.870703
G1 X58.641015 Y109.954758
G1 X59.564932 Y109.995667
G1 X60.553568 Y109.993431
G1 X61.606922 Y109.948048
G1 X62.724995 Y109.859520
G1 X63.907787 Y109.727847
G1 X65.155297 Y109.553027
G1 X66.467526 Y109.335062
G1 X67.844473 Y109.073951
G1 X69.286139 Y108.769695
G1 X70.792524 Y108.422292
G1 X72.363627 Y108.031744
G1 X73.999448 Y107.598051
G1 X75.699989 Y107.121211
G1 X77.465248 Y106.601226
G1 X79.295225 Y106.038095
G1 X81.189921 Y105.431818
G1 X83.149336 Y104.782396
G1 X85.173469 Y104.089828
G1 X87.262321 Y103.354114
G1 X89.415891 Y102.575255
G1 X91.634180 Y101.753249
G1 X93.917188 Y100.888098
G1 X96.264914 Y99.979801
G1 X98.677359 Y99.028359
G1 X101.154522 Y98.033771
G1 X103.696404 Y96.996037
G1 X106.303005 Y95.915157
G1 X108.974324 Y94.791132
G1 X111.710362 Y93.623961
G1 X114.511118 Y92.413644
G1 X117.376593 Y91.160182
G1 X120 Y90
M5
G0 X100 Y40
; Cut at 300 mm/min, 100% power
G1 X100.033440
G1 X100.133762
G1 X100.300964
G1 X100.535047
G1 X100.836011
G1 X101.203856
G1 X101.638581
G1 X102.140188
G1 X102.708675
G1 X103.344044
G1 X104.046293
G1 X104.815423
G1 X105.651434
G1 X106.554326
G1 X107.524098
G1 X108.560752
G1 X109.664286
G1 X110.834702
G1 X112.071998
G1 X113.376175
G1 X114.747233
G1 X116.185171
G1 X117.689991
G1 X119.261692
G1 X120.900273
G1 X122.605735
G1 X124.378078
G1 X126.217302
G1 X128.123407
G1 X130.096393
G1 X132.136260
G1 X134.243007
G1 X136.416636
G1 X138.657145
G1 X140.964535
G1 X143.338806
G1 X145.779958
G1 X148.287991
G1 X150.862904
G1 X153.504699
G1 X156.213374
G1 X158.988930
G1 X161.831368
G1 X164.740686
G1 X167.716884
G1 X170
G1 X171.866838 Y40.001842
G1 X173.667371 Y40.007367
G1 X175.401598 Y40.016576
G1 X177.069520 Y40.029469
G1 X178.671137 Y40.046045
G1 X180.206447 Y40.066305
G1 X181.675453 Y40.090249
G1 X183.078153 Y40.117876
G1 X184.414547 Y40.149187
G1 X185.684636 Y40.184182
G1 X186.888419 Y40.222860
G1 X188.025897 Y40.265222
G1 X189.097069 Y40.311267
G1 X190.101936 Y40.360997
G1 X191.040497 Y40.414409
G1 X191.912753 Y40.471506
G1 X192.718704 Y40.532286
G1 X193.458348 Y40.596749
G1 X194.131688 Y40.664897
G1 X194.738722 Y40.736728
G1 X195.279450 Y40.812242
G1 X195.753873 Y40.891441
G1 X196.161990 Y40.974322
G1 X196.503802 Y41.060888
G1 X196.779308 Y41.151137
G1 X196.988509 Y41.245070
G1 X197.131404 Y41.342686
G1 X197.207994 Y41.443986
G1 X197.218279 Y41.548970
G1 X197.162257 Y41.657637
G1 X197.039931 Y41.769988
G1 X196.851299 Y41.886023
G1 X196.596361 Y42.005741
G1 X196.275118 Y42.129143
G1 X195.887569 Y42.256229
G1 X195.433715 Y42.386998
G1 X194.913555 Y42.521451
G1 X194.327090 Y42.659587
G1 X193.674320 Y42.801407
G1 X192.955243 Y42.946911
G1 X192.169862 Y43.096098
G1 X191.318175 Y43.248969
G1 X190.400182 Y43.405524
G1 X189.415884 Y43.565762
G1 X188.365280 Y43.729684
G1 X187.248371 Y43.897290
G1 X186.065156 Y44.068579
G1 X184.815636 Y44.243552
G1 X183.499811 Y44.422208
G1 X182.117679 Y44.604549
G1 X180.669243 Y44.790572
G1 X179.154501 Y44.980280
G1 X177.573453 Y45.173671
G1 X175.926100 Y45.370745
G1 X174.212441 Y45.571504
G1 X172.432477 Y45.775946
G1 X170.586207 Y45.984071
G1 X168.673632 Y46.195881
G1 X166.694752 Y46.411373
G1 X164.649566 Y46.630550
G1 X162.538074 Y46.853410
G1 X160.360277 Y47.079954
G1 X158.116174 Y47.310181
G1 X155.805766 Y47.544092
G1 X153.429052 Y47.781687
G1 X150.986033 Y48.022965
G1 X148.476709 Y48.267927
G1 X145.901078 Y48.516573
G1 X143.259143 Y48.768902
G1 X140.550902 Y49.024915
G1 X137.776355 Y49.284612
G1 X134.935503 Y49.547992
G1 X132.028345 Y49.815056
G1 X130 Y50
G1 X127.047452 Y50.264060
G1 X124.161210 Y50.513385
G1 X121.341274 Y50.747976
G1 X118.587643 Y50.967833
G1 X115.900317 Y51.172955
G1 X113.279297 Y51.363342
G1 X110.724583 Y51.538994
G1 X108.236174 Y51.699913
G1 X105.814070 Y51.846096
G1 X103.458272 Y51.977545
G1 X101.168780 Y52.094260
G1 X98.945593 Y52.196240
G1 X96.788711 Y52.283485
G1 X94.698135 Y52.355996
G1 X92.673865 Y52.413772
G1 X90.715900 Y52.456814
G1 X88.824240 Y52.485121
G1 X86.998886 Y52.498693
G1 X85.239838 Y52.497531
G1 X83.547095 Y52.481635
G1 X81.920657 Y52.451004
G1 X80.360525 Y52.405638
G1 X78.866699 Y52.345538
G1 X77.439178 Y52.270703
G1 X76.077962 Y52.181134
G1 X74.783052 Y52.076830
G1 X73.554448 Y51.957792
G1 X72.392149 Y51.824019
G1 X71.296155 Y51.675511
G1 X70.266467 Y51.512269
G1 X69.303084 Y51.334292
G1 X68.406007 Y51.141581
G1 X67.575236 Y50.934135
G1 X66.810770 Y50.711955
G1 X66.112609 Y50.475040
G1 X65.480754 Y50.223391
G1 X64.915205 Y49.957007
G1 X64.415961 Y49.675888
G1 X63.983022 Y49.380035
G1 X63.616389 Y49.069448
G1 X63.316062 Y48.744125
G1 X63.082040 Y48.404069
G1 X62.914323 Y48.049277
G1 X62.812912 Y47.679751
G1 X62.777807 Y47.295491
G1 X62.809006 Y46.896496
G1 X62.906512 Y46.482766
G1 X63.070323 Y46.054302
G1 X63.300439 Y45.611104
G1 X63.596861 Y45.153171
G1 X63.959589 Y44.680503
G1 X64.388622 Y44.193100
G1 X64.883960 Y43.690964
G1 X65.445604 Y43.174092
G1 X66.073554 Y42.642486
G1 X66.767809 Y42.096146
G1 X67.528369 Y41.535071
G1 X68.355235 Y40.959261
G1 X69.248406 Y40.368717
G1 X70.207883 Y39.763438
G1 X71.233666 Y39.143425
G1 X72.325754 Y38.508677
G1 X73.484147 Y37.859194
G1 X74.708846 Y37.194977
G1 X75.999851 Y36.516026
G1 X77.357161 Y35.822340
G1 X78.780776 Y35.113919
G1 X80.270697 Y34.390764
G1 X81.826923 Y33.652874
G1 X83.449455 Y32.900250
G1 X85.138293 Y32.132891
G1 X86.893436 Y31.350798
G1 X88.714884 Y30.553970
G1 X90 Y30
G1 X92.263933 Y29.033595
G1 X94.457755 Y28.104943
G1 X96.581464 Y27.214043
G1 X98.635062 Y26.360896
G1 X100.618548 Y25.545501
G1 X102.531923 Y24.767859
G1 X104.375185 Y24.027969
G1 X106.148336 Y23.325832
G1 X107.851375 Y22.661447
G1 X109.484302 Y22.034815
G1 X111.047117 Y21.445935
G1 X112.539821 Y20.894808
G1 X113.962412 Y20.381433
G1 X115.314892 Y19.905811
G1 X116.597260 Y19.467941
G1 X117.809516 Y19.067824
G1 X118.951661 Y18.705459
G1 X120.023693 Y18.380847
G1 X121.025614 Y18.093987
G1 X121.957423 Y17.844880
G1 X122.819121 Y17.633526
G1 X123.610706 Y17.459923
G1 X124.332180 Y17.324074
G1 X124.983541 Y17.225977
G1 X125.564791 Y17.165632
G1 X126.075930 Y17.143040
G1 X126.516956 Y17.158200
G1 X126.887871 Y17.211113
G1 X127.188673 Y17.301779
G1 X127.419364 Y17.430197
G1 X127.579944 Y17.596367
G1 X127.670411 Y17.800290
G1 X127.690767 Y18.041966
G1 X127.641010 Y18.321394
G1 X127.521142 Y18.638574
G1 X127.331163 Y18.993507
G1 X127.071071 Y19.386193
G1 X126.740867 Y19.816631
G1 X126.340552 Y20.284821
G1 X125.870125 Y20.790764
G1 X125.329586 Y21.334460
G1 X124.718936 Y21.915908
G1 X124.038173 Y22.535108
G1 X123.287299 Y23.192061
G1 X122.466313 Y23.886767
G1 X121.575215 Y24.619225
G1 X120.614005 Y25.389436
G1 X119.582684 Y26.197399
G1 X118.481251 Y27.043115
G1 X117.309706 Y27.926583
G1 X116.068049 Y28.847803
G1 X114.756280 Y29.806776
G1 X113.374400 Y30.803502
G1 X111.922407 Y31.837980
G1 X110.400303 Y32.910211
G1 X108.808087 Y34.020194
G1 X107.145760 Y35.167930
G1 X105.413320 Y36.353418
G1 X103.610769 Y37.576659
G1 X101.738106 Y38.837652
G1 X100 Y40
M5
G91
G1 Z-2
G90
; pass #3
M5
G0 X50 Y160
; Cut at 300 mm/min, 100% power
M4
G1 X50.993492 Y161.947502 S255 F300
G1 X51.986984 Y163.816043
G1 X52.980475 Y165.605621
G1 X53.973967 Y167.316238
G1 X54.967459 Y168.947892
G1 X55.960951 Y170.500584
G1 X56.954442 Y171.974314
G1 X57.947934 Y173.369082
G1 X58.941426 Y174.684888
G1 X59.934918 Y175.921732
G1 X60.928409 Y177.079613
G1 X61.921901 Y178.158533
G1 X62.915393 Y179.158491
G1 X63.908885 Y180.079486
G1 X64.902376 Y180.921520
G1 X65.895868 Y181.684591
G1 X66.889360 Y182.368701
G1 X67.882852 Y182.973848
G1 X68.876343 Y183.500033
G1 X69.869835 Y183.947256
G1 X70.863327 Y184.315517
G1 X71.856819 Y184.604816
G1 X72.850310 Y184.815153
G1 X73.843802 Y184.946528
G1 X74.837294 Y184.998941
G1 X75.830786 Y184.972392
G1 X76.824278 Y184.866880
G1 X77.817769 Y184.682407
G1 X78.811261 Y184.418972
G1 X79.804753 Y184.076574
G1 X80.798245 Y183.655214
G1 X81.791736 Y183.154893
G1 X82.785228 Y182.575609
G1 X83.778720 Y181.917363
G1 X84.772212 Y181.180155
G1 X85.765703 Y180.363985
G1 X86.759195 Y179.468853
G1 X87.752687 Y178.494759
G1 X88.746179 Y177.441703
G1 X89.739670 Y176.309685
G1 X90.733162 Y175.098704
G1 X91.726654 Y173.808762
G1 X92.720146 Y172.439857
G1 X93.713637 Y170.991991
G1 X94.707129 Y169.465162
G1 X95.700621 Y167.859372
G1 X96.694113 Y166.174619
G1 X97.687604 Y164.410904
G1 X98.681096 Y162.568227
G1 X99.674588 Y160.646588
G1 X100 Y160
G1 X100.993492 Y161.947502
G1 X101.986984 Y163.816043
G1 X102.980475 Y165.605621
G1 X103.973967 Y167.316238
G1 X104.967459 Y168.947892
G1 X105.960951 Y170.500584
G1 X106.954442 Y171.974314
G1 X107.947934 Y173.369082
G1 X108.941426 Y174.684888
G1 X109.934918 Y175.921732
G1 X110.928409 Y177.079613
G1 X111.921901 Y178.158533
G1 X112.915393 Y179.158491
G1 X113.908885 Y180.079486
G1 X114.902376 Y180.921520
G1 X115.895868 Y181.684591
G1 X116.889360 Y182.368701
G1 X117.882852 Y182.973848
G1 X118.876343 Y183.500033
G1 X119.869835 Y183.947256
G1 X120.863327 Y184.315517
G1 X121.856819 Y184.604816
G1 X122.850310 Y184.815153
G1 X123.843802 Y184.946528
G1 X124.837294 Y184.998941
G1 X125.830786 Y184.972392
G1 X126.824278 Y184.866880
G1 X127.817769 Y184.682407
G1 X128.811261 Y184.418972
G1 X129.804753 Y184.076574
G1 X130.798245 Y183.655214
G1 X131.791736 Y183.154893
G1 X132.785228 Y182.575609
G1 X133.778720 Y181.917363
G1 X134.772212 Y181.180155
G1 X135.765703 Y180.363985
G1 X136.759195 Y179.468853
G1 X137.752687 Y178.494759
G1 X138.746179 Y177.441703
G1 X139.739670 Y176.309685
G1 X140.733162 Y175.098704
G1 X141.726654 Y173.808762
G1 X142.720146 Y172.439857
G1 X143.713637 Y170.991991
G1 X144.707129 Y169.465162
G1 X145.700621 Y167.859372
G1 X146.694113 Y166.174619
G1 X147.687604 Y164.410904
G1 X148.681096 Y162.568227
G1 X149.674588 Y160.646588
G1 X150 Y160
G1 X149.965028 Y158.677662
G1 X149.860114 Y157.355325
G1 X149.685256 Y156.032987
G1 X149.440456 Y154.710650
G1 X149.125712 Y153.388312
G1 X148.741025 Y152.065975
G1 X148.286395 Y150.743637
G1 X147.761822 Y149.421300
G1 X147.167306 Y148.098962
G1 X146.502847 Y146.776625
G1 X145.768445 Y145.454287
G1 X144.964100 Y144.131950
G1 X144.089811 Y142.809612
G1 X143.145580 Y141.487275
G1 X142.131406 Y140.164937
G1 X141.047288 Y138.842599
G1 X139.893228 Y137.520262
G1 X138.669224 Y136.197924
G1 X137.375277 Y134.875587
G1 X136.011388 Y133.553249
G1 X134.577555 Y132.230912
G1 X133.073779 Y130.908574
G1 X131.500060 Y129.586237
G1 X129.856398 Y128.263899
G1 X128.142793 Y126.941562
G1 X126.359245 Y125.619224
G1 X124.505754 Y124.296887
G1 X122.582320 Y122.974549
G1 X120.588942 Y121.652212
G1 X118.525622 Y120.329874
G1 X116.392359 Y119.007536
G1 X114.189152 Y117.685199
G1 X111.916003 Y116.362861
G1 X109.572910 Y115.040524
G1 X107.159875 Y113.718186
G1 X104.676896 Y112.395849
G1 X102.123974 Y111.073511
G1 X100 Y110
G1 X97.390296 Y111.322338
G1 X94.850536 Y112.644675
G1 X92.380719 Y113.967013
G1 X89.980844 Y115.289350
G1 X87.650913 Y116.611688
G1 X85.390925 Y117.934025
G1 X83.200880 Y119.256363
G1 X81.080777 Y120.578700
G1 X79.030618 Y121.901038
G1 X77.050402 Y123.223375
G1 X75.140130 Y124.545713
G1 X73.299800 Y125.868050
G1 X71.529413 Y127.190388
G1 X69.828969 Y128.512725
G1 X68.198468 Y129.835063
G1 X66.637911 Y131.157401
G1 X65.147296 Y132.479738
G1 X63.726625 Y133.802076
G1 X62.375896 Y135.124413
G1 X61.095111 Y136.446751
G1 X59.884269 Y137.769088
G1 X58.743370 Y139.091426
G1 X57.672413 Y140.413763
G1 X56.671400 Y141.736101
G1 X55.740330 Y143.058438
G1 X54.879203 Y144.380776
G1 X54.088019 Y145.703113
G1 X53.366778 Y147.025451
G1 X52.715481 Y148.347788
G1 X52.134126 Y149.670126
G1 X51.622714 Y150.992464
G1 X51.181246 Y152.314801
G1 X50.809720 Y153.637139
G1 X50.508138 Y154.959476
G1 X50.276498 Y156.281814
G1 X50.114802 Y157.604151
G1 X50.023049 Y158.926489
G1 X50 Y160
M5
G0 X10 Y60
; Cut at 300 mm/min, 100% power
G1 X10.864280 Y61.129805
G1 X11.711633 Y62.191904
G1 X12.542060 Y63.186299
G1 X13.355561 Y64.112989
G1 X14.152136 Y64.971974
G1 X14.931785 Y65.763254
G1 X15.694507 Y66.486830
G1 X16.440303 Y67.142700
G1 X17.169173 Y67.730865
G1 X17.881117 Y68.251326
G1 X18.576134 Y68.704082
G1 X19.254225 Y69.089133
G1 X19.915390 Y69.406479
G1 X20.559629 Y69.656120
G1 X21.186942 Y69.838056
G1 X21.797328 Y69.952287
G1 X22.390788 Y69.998814
G1 X22.967322 Y69.977635
G1 X23.526930 Y69.888752
G1 X24.069611 Y69.732164
G1 X24.595366 Y69.507871
G1 X25.104195 Y69.215873
G1 X25.596098 Y68.856170
G1 X26.071075 Y68.428762
G1 X26.529125 Y67.933649
G1 X26.970249 Y67.370832
G1 X27.394447 Y66.740310
G1 X27.801719 Y66.042082
G1 X28.192064 Y65.276150
G1 X28.565484 Y64.442513
G1 X28.921977 Y63.541171
G1 X29.261544 Y62.572124
G1 X29.584184 Y61.535373
G1 X29.889898 Y60.430916
G1 X30 Y60
G1 X30.581829 Y61.129805
G1 X31.163657 Y62.191904
G1 X31.745486 Y63.186299
G1 X32.327314 Y64.112989
G1 X32.909143 Y64.971974
G1 X33.490971 Y65.763254
G1 X34.072800 Y66.486830
G1 X34.654628 Y67.142700
G1 X35.236457 Y67.730865
G1 X35.818285 Y68.251326
G1 X36.400114 Y68.704082
G1 X36.981942 Y69.089133
G1 X37.563771 Y69.406479
G1 X38.145599 Y69.656120
G1 X38.727428 Y69.838056
G1 X39.309256 Y69.952287
G1 X39.891085 Y69.998814
G1 X40.472913 Y69.977635
G1 X41.054742 Y69.888752
G1 X41.636570 Y69.732164
G1 X42.218399 Y69.507871
G1 X42.800227 Y69.215873
G1 X43.382056 Y68.856170
G1 X43.963884 Y68.428762
G1 X44.545713 Y67.933649
G1 X45.127541 Y67.370832
G1 X45.709370 Y66.740310
G1 X46.291198 Y66.042082
G1 X46.873027 Y65.276150
G1 X47.454855 Y64.442513
G1 X48.036684 Y63.541171
G1 X48.618512 Y62.572124
G1 X49.200341 Y61.535373
G1 X49.782169 Y60.430916
G1 X50 Y60
G1 X49.963717 Y59.139074
G1 X49.854869 Y58.260007
G1 X49.673454 Y57.362798
G1 X49.419474 Y56.447448
G1 X49.092929 Y55.513956
G1 X48.693817 Y54.562324
G1 X48.222140 Y53.592549
G1 X47.677897 Y52.604633
G1 X47.061089 Y51.598576
G1 X46.371714 Y50.574377
G1 X45.609774 Y49.532037
G1 X44.775268 Y48.471556
G1 X43.868197 Y47.392933
G1 X42.888560 Y46.296168
G1 X41.836357 Y45.181262
G1 X40.711588 Y44.048215
G1 X39.514254 Y42.897026
G1 X38.244354 Y41.727696
G1 X36.901888 Y40.540225
G1 X35.486857 Y39.334612
G1 X33.999260 Y38.110857
G1 X32.439097 Y36.868961
G1 X30.806368 Y35.608924
G1 X30 Y35
G1 X29.225586 Y35.037482
G1 X28.451172 Y35.149929
G1 X27.676759 Y35.337341
G1 X26.902345 Y35.599717
G1 X26.127931 Y35.937057
G1 X25.353517 Y36.349362
G1 X24.579104 Y36.836632
G1 X23.804690 Y37.398867
G1 X23.030276 Y38.036066
G1 X22.255862 Y38.748229
G1 X21.481449 Y39.535357
G1 X20.707035 Y40.397450
G1 X19.932621 Y41.334507
G1 X19.158207 Y42.346529
G1 X18.383794 Y43.433516
G1 X17.609380 Y44.595467
G1 X16.834966 Y45.832382
G1 X16.060552 Y47.144262
G1 X15.286139 Y48.531107
G1 X14.511725 Y49.992917
G1 X13.737311 Y51.529690
G1 X12.962897 Y53.141429
G1 X12.188484 Y54.828132
G1 X11.414070 Y56.589800
G1 X10.639656 Y58.426432
G1 X10 Y60
M5
G0 Y110
; Cut at 300 mm/min, 100% power
G1 X10.034972 Y109.986011
G1 X10.139886 Y109.944046
G1 X10.314744 Y109.874102
G1 X10.559544 Y109.776182
G1 X10.874288 Y109.650285
G1 X11.258975 Y109.496410
G1 X11.713605 Y109.314558
G1 X12.238178 Y109.104729
G1 X12.832694 Y108.866922
G1 X13.497153 Y108.601139
G1 X14.231555 Y108.307378
G1 X15.035900 Y107.985640
G1 X15.910189 Y107.635925
G1 X16.854420 Y107.258232
G1 X17.868594 Y106.852562
G1 X18.952712 Y106.418915
G1 X20.106772 Y105.957291
G1 X21.330776 Y105.467690
G1 X22.624723 Y104.950111
G1 X23.988612 Y104.404555
G1 X25.422445 Y103.831022
G1 X26.926221 Y103.229512
G1 X28.499940 Y102.600024
G1 X30.143602 Y101.942559
G1 X31.857207 Y101.257117
G1 X33.640755 Y100.543698
G1 X35.494246 Y99.802302
G1 X37.417680 Y99.032928
G1 X39.411058 Y98.235577
G1 X41.474378 Y97.410249
G1 X43.607641 Y96.556943
G1 X45.810848 Y95.675661
G1 X48.083997 Y94.766401
G1 X50.427090 Y93.829164
G1 X52.840125 Y92.863950
G1 X55.323104 Y91.870758
G1 X57.876026 Y90.849590
G1 X60 Y90
G1 X61.776983 Y89.293775
G1 X63.495233 Y88.620179
G1 X65.154751 Y87.979212
G1 X66.755538 Y87.370874
G1 X68.297592 Y86.795165
G1 X69.780914 Y86.252084
G1 X71.205504 Y85.741633
G1 X72.571361 Y85.263811
G1 X73.878487 Y84.818618
G1 X75.126881 Y84.406053
G1 X76.316542 Y84.026118
G1 X77.447471 Y83.678811
G1 X78.519669 Y83.364134
G1 X79.533134 Y83.082085
G1 X80.487867 Y82.832665
G1 X81.383867 Y82.615875
G1 X82.221136 Y82.431713
G1 X82.999673 Y82.280180
G1 X83.719477 Y82.161277
G1 X84.380549 Y82.075002
G1 X84.982890 Y82.021356
G1 X85.526498 Y82.000339
G1 X86.011374 Y82.011951
G1 X86.437518 Y82.056192
G1 X86.804929 Y82.133062
G1 X87.113609 Y82.242561
G1 X87.363557 Y82.384688
G1 X87.554772 Y82.559445
G1 X87.687255 Y82.766831
G1 X87.761006 Y83.006846
G1 X87.776025 Y83.279489
G1 X87.732312 Y83.584762
G1 X87.629867 Y83.922664
G1 X87.468690 Y84.293194
G1 X87.248780 Y84.696354
G1 X86.970139 Y85.132142
G1 X86.632765 Y85.600559
G1 X86.236659 Y86.101606
G1 X85.781822 Y86.635281
G1 X85.268252 Y87.201585
G1 X84.695949 Y87.800518
G1 X84.064915 Y88.432081
G1 X83.375149 Y89.096272
G1 X82.626650 Y89.793092
G1 X81.819420 Y90.522541
G1 X80.953457 Y91.284619
G1 X80.028762 Y92.079326
G1 X79.045335 Y92.906662
G1 X78.003176 Y93.766626
G1 X76.902285 Y94.659220
G1 X75.742662 Y95.584443
G1 X74.524306 Y96.542295
G1 X73.247219 Y97.532775
G1 X71.911399 Y98.555885
G1 X70.516847 Y99.611623
G1 X70 Y100
G1 X68.438050 Y101.164553
G1 X66.931373 Y102.273833
G1 X65.479970 Y103.327840
G1 X64.083840 Y104.326573
G1 X62.742984 Y105.270032
G1 X61.457401 Y106.158219
G1 X60.227092 Y106.991131
G1 X59.052056 Y107.768771
G1 X57.932293 Y108.491136
G1 X56.867804 Y109.158229
G1 X55.858589 Y109.770048
G1 X54.904647 Y110.326593
G1 X54.005978 Y110.827865
G1 X53.162583 Y111.273864
G1 X52.374461 Y111.664589
G1 X51.641612 Y112.000040
G1 X50.964038 Y112.280219
G1 X50.341736 Y112.505123
G1 X49.774708 Y112.674755
G1 X49.262954 Y112.789112
G1 X48.806472 Y112.848197
G1 X48.405265 Y112.852008
G1 X48.059331 Y112.800545
G1 X47.768670 Y112.693809
G1 X47.533282 Y112.531800
G1 X47.353169 Y112.314517
G1 X47.228328 Y112.041961
G1 X47.158761 Y111.714131
G1 X47.144468 Y111.331028
G1 X47.185448 Y110.892651
G1 X47.281701 Y110.399001
G1 X47.433228 Y109.850078
G1 X47.640028 Y109.245881
G1 X47.902102 Y108.586410
G1 X48.219449 Y107.871666
G1 X48.592070 Y107.101649
G1 X49.019964 Y106.276358
G1 X49.503131 Y105.395794
G1 X50.041572 Y104.459956
G1 X50.635287 Y103.468845
G1 X51.284275 Y102.422461
G1 X51.988536 Y101.320803
G1 X52.748071 Y100.163871
G1 X53.562879 Y98.951666
G1 X54.432961 Y97.684188
G1 X55.358316 Y96.361436
G1 X56.338944 Y94.983411
G1 X57.374846 Y93.550112
G1 X58.466022 Y92.061540
G1 X59.612471 Y90.517694
G1 X60 Y90
G1 X61.168501 Y88.441998
G1 X62.289626 Y86.947166
G1 X63.363373 Y85.515503
G1 X64.389743 Y84.147010
G1 X65.368735 Y82.841687
G1 X66.300350 Y81.599533
G1 X67.184588 Y80.420549
G1 X68.021449 Y79.304734
G1 X68.810933 Y78.252090
G1 X69.553039 Y77.262615
G1 X70.247768 Y76.336309
G1 X70.895120 Y75.473173
G1 X71.495094 Y74.673207
G1 X72.047692 Y73.936411
G1 X72.552912 Y73.262784
G1 X73.010755 Y72.652327
G1 X73.421220 Y72.105039
G1 X73.784309 Y71.620922
G1 X74.100020 Y71.199973
G1 X74.368354 Y70.842195
G1 X74.589310 Y70.547586
G1 X74.762890 Y70.316147
G1 X74.889092 Y70.147877
G1 X74.967917 Y70.042777
G1 X74.999365 Y70.000847
G1 X74.983435 Y70.022087
G1 X74.920128 Y70.106496
G1 X74.809444 Y70.254074
G1 X74.651383 Y70.464823
G1 X74.445944 Y70.738741
G1 X74.193129 Y71.075828
G1 X73.892936 Y71.476086
G1 X73.545365 Y71.939513
G1 X73.150418 Y72.466110
G1 X72.708093 Y73.055876
G1 X72.218391 Y73.708812
G1 X71.681312 Y74.424917
G1 X71.096855 Y75.204193
G1 X70.465022 Y76.046638
G1 X69.785811 Y76.952252
G1 X69.059223 Y77.921037
G1 X68.285257 Y78.952990
G1 X67.463914 Y80.048114
G1 X66.595195 Y81.206407
G1 X65.679097 Y82.427870
G1 X64.715623 Y83.712503
G1 X63.704771 Y85.060305
G1 X62.646542 Y86.471277
G1 X61.540936 Y87.945418
G1 X60.387953 Y89.482729
G1 X60 Y90
G1 X59.047078 Y91.292135
G1 X58.158875 Y92.541125
G1 X57.335390 Y93.746969
G1 X56.576624 Y94.909667
G1 X55.882577 Y96.029219
G1 X55.253248 Y97.105626
G1 X54.688638 Y98.138887
G1 X54.188746 Y99.129002
G1 X53.753573 Y100.075971
G1 X53.383119 Y100.979795
G1 X53.077383 Y101.840473
G1 X52.836365 Y102.658005
G1 X52.660067 Y103.432392
G1 X52.548486 Y104.163633
G1 X52.501625 Y104.851728
G1 X52.519482 Y105.496677
G1 X52.602057 Y106.098481
G1 X52.749352 Y106.657139
G1 X52.961364 Y107.172651
G1 X53.238096 Y107.645017
G1 X53.579546 Y108.074238
G1 X53.985714 Y108.460313
G1 X54.456602 Y108.803242
G1 X54.992207 Y109.103026
G1 X55.592532 Y109.359664
G1 X56.257574 Y109.573156
G1 X56.987336 Y109.743502
G1 X57.781816 Y109.870703
G1 X58.641015 Y109.954758
G1 X59.564932 Y109.995667
G1 X60.553568 Y109.993431
G1 X61.606922 Y109.948048
G1 X62.724995 Y109.859520
G1 X63.907787 Y109.727847
G1 X65.155297 Y109.553027
G1 X66.467526 Y109.335062
G1 X67.844473 Y109.073951
G1 X69.286139 Y108.769695
G1 X70.792524 Y108.422292
G1 X72.363627 Y108.031744
G1 X73.999448 Y107.598051
G1 X75.699989 Y107.121211
G1 X77.465248 Y106.601226
G1 X79.295225 Y106.038095
G1 X81.189921 Y105.431818
G1 X83.149336 Y104.782396
G1 X85.173469 Y104.089828
G1 X87.262321 Y103.354114
G1 X89.415891 Y102.575255
G1 X91.634180 Y101.753249
G1 X93.917188 Y100.888098
G1 X96.264914 Y99.979801
G1 X98.677359 Y99.028359
G1 X101.154522 Y98.033771
G1 X103.696404 Y96.996037
G1 X106.303005 Y95.915157
G1 X108.974324 Y94.791132
G1 X111.710362 Y93.623961
G1 X114.511118 Y92.413644
G1 X117.376593 Y91.160182
G1 X120 Y90
M5
G0 X100 Y40
; Cut at 300 mm/min, 100% power
G1 X100.033440
G1 X100.133762
G1 X100.300964
G1 X100.535047
G1 X100.836011
G1 X101.203856
G1 X101.638581
G1 X102.140188
G1 X102.708675
G1 X103.344044
G1 X104.046293
G1 X104.815423
G1 X105.651434
G1 X106.554326
G1 X107.524098
G1 X108.560752
G1 X109.664286
G1 X110.834702
G1 X112.071998
G1 X113.376175
G1 X114.747233
G1 X116.185171
G1 X117.689991
G1 X119.261692
G1 X120.900273
G1 X122.605735
G1 X124.378078
G1 X126.217302
G1 X128.123407
G1 X130.096393
G1 X132.136260
G1 X134.243007
G1 X136.416636
G1 X138.657145
G1 X140.964535
G1 X143.338806
G1 X145.779958
G1 X148.287991
G1 X150.862904
G1 X153.504699
G1 X156.213374
G1 X158.988930
G1 X161.831368
G1 X164.740686
G1 X167.716884
G1 X170
G1 X171.866838 Y40.001842
G1 X173.667371 Y40.007367
G1 X175.401598 Y40.016576
G1 X177.069520 Y40.029469
G1 X178.671137 Y40.046045
G1 X180.206447 Y40.066305
G1 X181.675453 Y40.090249
G1 X183.078153 Y40.117876
G1 X184.414547 Y40.149187
G1 X185.684636 Y40.184182
G1 X186.888419 Y40.222860
G1 X188.025897 Y40.265222
G1 X189.097069 Y40.311267
G1 X190.101936 Y40.360997
G1 X191.040497 Y40.414409
G1 X191.912753 Y40.471506
G1 X192.718704 Y40.532286
G1 X193.458348 Y40.596749
G1 X194.131688 Y40.664897
G1 X194.738722 Y40.736728
G1 X195.279450 Y40.812242
G1 X195.753873 Y40.891441
G1 X196.161990 Y40.974322
G1 X196.503802 Y41.060888
G1 X196.779308 Y41.151137
G1 X196.988509 Y41.245070
G1 X197.131404 Y41.342686
G1 X197.207994 Y41.443986
G1 X197.218279 Y41.548970
G1 X197.162257 Y41.657637
G1 X197.039931 Y41.769988
G1 X196.851299 Y41.886023
G1 X196.596361 Y42.005741
G1 X196.275118 Y42.129143
G1 X195.887569 Y42.256229
G1 X195.433715 Y42.386998
G1 X194.913555 Y42.521451
G1 X194.327090 Y42.659587
G1 X193.674320 Y42.801407
G1 X192.955243 Y42.946911
G1 X192.169862 Y43.096098
G1 X191.318175 Y43.248969
G1 X190.400182 Y43.405524
G1 X189.415884 Y43.565762
G1 X188.365280 Y43.729684
G1 X187.248371 Y43.897290
G1 X186.065156 Y44.068579
G1 X184.815636 Y44.243552
G1 X183.499811 Y44.422208
G1 X182.117679 Y44.604549
G1 X180.669243 Y44.790572
G1 X179.154501 Y44.980280
G1 X177.573453 Y45.173671
G1 X175.926100 Y45.370745
G1 X174.212441 Y45.571504
G1 X172.432477 Y45.775946
G1 X170.586207 Y45.984071
G1 X168.673632 Y46.195881
G1 X166.694752 Y46.411373
G1 X164.649566 Y46.630550
G1 X162.538074 Y46.853410
G1 X160.360277 Y47.079954
G1 X158.116174 Y47.310181
G1 X155.805766 Y47.544092
G1 X153.429052 Y47.781687
G1 X150.986033 Y48.022965
G1 X148.476709 Y48.267927
G1 X145.901078 Y48.516573
G1 X143.259143 Y48.768902
G1 X140.550902 Y49.024915
G1 X137.776355 Y49.284612
G1 X134.935503 Y49.547992
G1 X132.028345 Y49.815056
G1 X130 Y50
G1 X127.047452 Y50.264060
G1 X124.161210 Y50.513385
G1 X121.341274 Y50.747976
G1 X118.587643 Y50.967833
G1 X115.900317 Y51.172955
G1 X113.279297 Y51.363342
G1 X110.724583 Y51.538994
G1 X108.236174 Y51.699913
G1 X105.814070 Y51.846096
G1 X103.458272 Y51.977545
G1 X101.168780 Y52.094260
G1 X98.945593 Y52.196240
G1 X96.788711 Y52.283485
G1 X94.698135 Y52.355996
G1 X92.673865 Y52.413772
G1 X90.715900 Y52.456814
G1 X88.824240 Y52.485121
G1 X86.998886 Y52.498693
G1 X85.239838 Y52.497531
G1 X83.547095 Y52.481635
G1 X81.920657 Y52.451004
G1 X80.360525 Y52.405638
G1 X78.866699 Y52.345538
G1 X77.439178 Y52.270703
G1 X76.077962 Y52.181134
G1 X74.783052 Y52.076830
G1 X73.554448 Y51.957792
G1 X72.392149 Y51.824019
G1 X71.296155 Y51.675511
G1 X70.266467 Y51.512269
G1 X69.303084 Y51.334292
G1 X68.406007 Y51.141581
G1 X67.575236 Y50.934135
G1 X66.810770 Y50.711955
G1 X66.112609 Y50.475040
G1 X65.480754 Y50.223391
G1 X64.915205 Y49.957007
G1 X64.415961 Y49.675888
G1 X63.983022 Y49.380035
G1 X63.616389 Y49.069448
G1 X63.316062 Y48.744125
G1 X63.082040 Y48.404069
G1 X62.914323 Y48.049277
G1 X62.812912 Y47.679751
G1 X62.777807 Y47.295491
G1 X62.809006 Y46.896496
G1 X62.906512 Y46.482766
G1 X63.070323 Y46.054302
G1 X63.300439 Y45.611104
G1 X63.596861 Y45.153171
G1 X63.959589 Y44.680503
G1 X64.388622 Y44.193100
G1 X64.883960 Y43.690964
G1 X65.445604 Y43.174092
G1 X66.073554 Y42.642486
G1 X66.767809 Y42.096146
G1 X67.528369 Y41.535071
G1 X68.355235 Y40.959261
G1 X69.248406 Y40.368717
G1 X70.207883 Y39.763438
G1 X71.233666 Y39.143425
G1 X72.325754 Y38.508677
G1 X73.484147 Y37.859194
G1 X74.708846 Y37.194977
G1 X75.999851 Y36.516026
G1 X77.357161 Y35.822340
G1 X78.780776 Y35.113919
G1 X80.270697 Y34.390764
G1 X81.826923 Y33.652874
G1 X83.449455 Y32.900250
G1 X85.138293 Y32.132891
G1 X86.893436 Y31.350798
G1 X88.714884 Y30.553970
G1 X90 Y30
G1 X92.263933 Y29.033595
G1 X94.457755 Y28.104943
G1 X96.581464 Y27.214043
G1 X98.635062 Y26.360896
G1 X100.618548 Y25.545501
G1 X102.531923 Y24.767859
G1 X104.375185 Y24.027969
G1 X106.148336 Y23.325832
G1 X107.851375 Y22.661447
G1 X109.484302 Y22.034815
G1 X111.047117 Y21.445935
G1 X112.539821 Y20.894808
G1 X113.962412 Y20.381433
G1 X115.314892 Y19.905811
G1 X116.597260 Y19.467941
G1 X117.809516 Y19.067824
G1 X118.951661 Y18.705459
G1 X120.023693 Y18.380847
G1 X121.025614 Y18.093987
G1 X121.957423 Y17.844880
G1 X122.819121 Y17.633526
G1 X123.610706 Y17.459923
G1 X124.332180 Y17.324074
G1 X124.983541 Y17.225977
G1 X125.564791 Y17.165632
G1 X126.075930 Y17.143040
G1 X126.516956 Y17.158200
G1 X126.887871 Y17.211113
G1 X127.188673 Y17.301779
G1 X127.419364 Y17.430197
G1 X127.579944 Y17.596367
G1 X127.670411 Y17.800290
G1 X127.690767 Y18.041966
G1 X127.641010 Y18.321394
G1 X127.521142 Y18.638574
G1 X127.331163 Y18.993507
G1 X127.071071 Y19.386193
G1 X126.740867 Y19.816631
G1 X126.340552 Y20.284821
G1 X125.870125 Y20.790764
G1 X125.329586 Y21.334460
G1 X124.718936 Y21.915908
G1 X124.038173 Y22.535108
G1 X123.287299 Y23.192061
G1 X122.466313 Y23.886767
G1 X121.575215 Y24.619225
G1 X120.614005 Y25.389436
G1 X119.582684 Y26.197399
G1 X118.481251 Y27.043115
G1 X117.309706 Y27.926583
G1 X116.068049 Y28.847803
G1 X114.756280 Y29.806776
G1 X113.374400 Y30.803502
G1 X111.922407 Y31.837980
G1 X110.400303 Y32.910211
G1 X108.808087 Y34.020194
G1 X107.145760 Y35.167930
G1 X105.413320 Y36.353418
G1 X103.610769 Y37.576659
G1 X101.738106 Y38.837652
G1 X100 Y40
M5
G91
G1 Z-2
G90
; pass #4
M5
G0 X50 Y160
; Cut at 300 mm/min, 100% power
M4
G1 X50.993492 Y161.947502 S255 F300
G1 X51.986984 Y163.816043
G1 X52.980475 Y165.605621
G1 X53.973967 Y167.316238
G1 X54.967459 Y168.947892
G1 X55.960951 Y170.500584
G1 X56.954442 Y171.974314
G1 X57.947934 Y173.369082
G1 X58.941426 Y174.684888
G1 X59.934918 Y175.921732
G1 X60.928409 Y177.079613
G1 X61.921901 Y178.158533
G1 X62.915393 Y179.158491
G1 X63.908885 Y180.079486
G1 X64.902376 Y180.921520
G1 X65.895868 Y181.684591
G1 X66.889360 Y182.368701
G1 X67.882852 Y182.973848
G1 X68.876343 Y183.500033
G1 X69.869835 Y183.947256
G1 X70.863327 Y184.315517
G1 X71.856819 Y184.604816
G1 X72.850310 Y184.815153
G1 X73.843802 Y184.946528
G1 X74.837294 Y184.998941
G1 X75.830786 Y184.972392
G1 X76.824278 Y184.866880
G1 X77.817769 Y184.682407
G1 X78.811261 Y184.418972
G1 X79.804753 Y184.076574
G1 X80.798245 Y183.655214
G1 X81.791736 Y183.154893
G1 X82.785228 Y182.575609
G1 X83.778720 Y181.917363
G1 X84.772212 Y181.180155
G1 X85.765703 Y180.363985
G1 X86.759195 Y179.468853
G1 X87.752687 Y178.494759
G1 X88.746179 Y177.441703
G1 X89.739670 Y176.309685
G1 X90.733162 Y175.098704
G1 X91.726654 Y173.808762
G1 X92.720146 Y172.439857
G1 X93.713637 Y170.991991
G1 X94.707129 Y169.465162
G1 X95.700621 Y167.859372
G1 X96.694113 Y166.174619
G1 X97.687604 Y164.410904
G1 X98.681096 Y162.568227
G1 X99.674588 Y160.646588
G1 X100 Y160
G1 X100.993492 Y161.947502
G1 X101.986984 Y163.816043
G1 X102.980475 Y165.605621
G1 X103.973967 Y167.316238
G1 X104.967459 Y168.947892
G1 X105.960951 Y170.500584
G1 X106.954442 Y171.974314
G1 X107.947934 Y173.369082
G1 X108.941426 Y174.684888
G1 X109.934918 Y175.921732
G1 X110.928409 Y177.079613
G1 X111.921901 Y178.158533
G1 X112.915393 Y179.158491
G1 X113.908885 Y180.079486
G1 X114.902376 Y180.921520
G1 X115.895868 Y181.684591
G1 X116.889360 Y182.368701
G1 X117.882852 Y182.973848
G1 X118.876343 Y183.500033
G1 X119.869835 Y183.947256
G1 X120.863327 Y184.315517
G1 X121.856819 Y184.604816
G1 X122.850310 Y184.815153
G1 X123.843802 Y184.946528
G1 X124.837294 Y184.998941
G1 X125.830786 Y184.972392
G1 X126.824278 Y184.866880
G1 X127.817769 Y184.682407
G1 X128.811261 Y184.418972
G1 X129.804753 Y184.076574
G1 X130.798245 Y183.655214
G1 X131.791736 Y183.154893
G1 X132.785228 Y182.575609
G1 X133.778720 Y181.917363
G1 X134.772212 Y181.180155
G1 X135.765703 Y180.363985
G1 X136.759195 Y179.468853
G1 X137.752687 Y178.494759
G1 X138.746179 Y177.441703
G1 X139.739670 Y176.309685
G1 X140.733162 Y175.098704
G1 X141.726654 Y173.808762
G1 X142.720146 Y172.439857
G1 X143.713637 Y170.991991
G1 X144.707129 Y169.465162
G1 X145.700621 Y167.859372
G1 X146.694113 Y166.174619
G1 X147.687604 Y164.410904
G1 X148.681096 Y162.568227
G1 X149.674588 Y160.646588
G1 X150 Y160
G1 X149.965028 Y158.677662
G1 X149.860114 Y157.355325
G1 X149.685256 Y156.032987
G1 X149.440456 Y154.710650
G1 X149.125712 Y153.388312
G1 X148.741025 Y152.065975
G1 X148.286395 Y150.743637
G1 X147.761822 Y149.421300
G1 X147.167306 Y148.098962
G1 X146.502847 Y146.776625
G1 X145.768445 Y145.454287
G1 X144.964100 Y144.131950
G1 X144.089811 Y142.809612
G1 X143.145580 Y141.487275
G1 X142.131406 Y140.164937
G1 X141.047288 Y138.842599
G1 X139.893228 Y137.520262
G1 X138.669224 Y136.197924
G1 X137.375277 Y134.875587
G1 X136.011388 Y133.553249
G1 X134.577555 Y132.230912
G1 X133.073779 Y130.908574
G1 X131.500060 Y129.586237
G1 X129.856398 Y128.263899
G1 X128.142793 Y126.941562
G1 X126.359245 Y125.619224
G1 X124.505754 Y124.296887
G1 X122.582320 Y122.974549
G1 X120.588942 Y121.652212
G1 X118.525622 Y120.329874
G1 X116.392359 Y119.007536
G1 X114.189152 Y117.685199
G1 X111.916003 Y116.362861
G1 X109.572910 Y115.040524
G1 X107.159875 Y113.718186
G1 X104.676896 Y112.395849
G1 X102.123974 Y111.073511
G1 X100 Y110
G1 X97.390296 Y111.322338
G1 X94.850536 Y112.644675
G1 X92.380719 Y113.967013
G1 X89.980844 Y115.289350
G1 X87.650913 Y116.611688
G1 X85.390925 Y117.934025
G1 X83.200880 Y119.256363
G1 X81.080777 Y120.578700
G1 X79.030618 Y121.901038
G1 X77.050402 Y123.223375
G1 X75.140130 Y124.545713
G1 X73.299800 Y125.868050
G1 X71.529413 Y127.190388
G1 X69.828969 Y128.512725
G1 X68.198468 Y129.835063
G1 X66.637911 Y131.157401
G1 X65.147296 Y132.479738
G1 X63.726625 Y133.802076
G1 X62.375896 Y135.124413
G1 X61.095111 Y136.446751
G1 X59.884269 Y137.769088
G1 X58.743370 Y139.091426
G1 X57.672413 Y140.413763
G1 X56.671400 Y141.736101
G1 X55.740330 Y143.058438
G1 X54.879203 Y144.380776
G1 X54.088019 Y145.703113
G1 X53.366778 Y147.025451
G1 X52.715481 Y148.347788
G1 X52.134126 Y149.670126
G1 X51.622714 Y150.992464
G1 X51.181246 Y152.314801
G1 X50.809720 Y153.637139
G1 X50.508138 Y154.959476
G1 X50.276498 Y156.281814
G1 X50.114802 Y157.604151
G1 X50.023049 Y158.926489
G1 X50 Y160
M5
G0 X10 Y60
; Cut at 300 mm/min, 100% power
G1 X10.864280 Y61.129805
G1 X11.711633 Y62.191904
G1 X12.542060 Y63.186299
G1 X13.355561 Y64.112989
G1 X14.152136 Y64.971974
G1 X14.931785 Y65.763254
G1 X15.694507 Y66.486830
G1 X16.440303 Y67.142700
G1 X17.169173 Y67.730865
G1 X17.881117 Y68.251326
G1 X18.576134 Y68.704082
G1 X19.254225 Y69.089133
G1 X19.915390 Y69.406479
G1 X20.559629 Y69.656120
G1 X21.186942 Y69.838056
G1 X21.797328 Y69.952287
G1 X22.390788 Y69.998814
G1 X22.967322 Y69.977635
G1 X23.526930 Y69.888752
G1 X24.069611 Y69.732164
G1 X24.595366 Y69.507871
G1 X25.104195 Y69.215873
G1 X25.596098 Y68.856170
G1 X26.071075 Y68.428762
G1 X26.529125 Y67.933649
G1 X26.970249 Y67.370832
G1 X27.394447 Y66.740310
G1 X27.801719 Y66.042082
G1 X28.192064 Y65.276150
G1 X28.565484 Y64.442513
G1 X28.921977 Y63.541171
G1 X29.261544 Y62.572124
G1 X29.584184 Y61.535373
G1 X29.889898 Y60.430916
G1 X30 Y60
G1 X30.581829 Y61.129805
G1 X31.163657 Y62.191904
G1 X31.745486 Y63.186299
G1 X32.327314 Y64.112989
G1 X32.909143 Y64.971974
G1 X33.490971 Y65.763254
G1 X34.072800 Y66.486830
G1 X34.654628 Y67.142700
G1 X35.236457 Y67.730865
G1 X35.818285 Y68.251326
G1 X36.400114 Y68.704082
G1 X36.981942 Y69.089133
G1 X37.563771 Y69.406479
G1 X38.145599 Y69.656120
G1 X38.727428 Y69.838056
G1 X39.309256 Y69.952287
G1 X39.891085 Y69.998814
G1 X40.472913 Y69.977635
G1 X41.054742 Y69.888752
G1 X41.636570 Y69.732164
G1 X42.218399 Y69.507871
G1 X42.800227 Y69.215873
G1 X43.382056 Y68.856170
G1 X43.963884 Y68.428762
G1 X44.545713 Y67.933649
G1 X45.127541 Y67.370832
G1 X45.709370 Y66.740310
G1 X46.291198 Y66.042082
G1 X46.873027 Y65.276150
G1 X47.454855 Y64.442513
G1 X48.036684 Y63.541171
G1 X48.618512 Y62.572124
G1 X49.200341 Y61.535373
G1 X49.782169 Y60.430916
G1 X50 Y60
G1 X49.963717 Y59.139074
G1 X49.854869 Y58.260007
G1 X49.673454 Y57.362798
G1 X49.419474 Y56.447448
G1 X49.092929 Y55.513956
G1 X48.693817 Y54.562324
G1 X48.222140 Y53.592549
G1 X47.677897 Y52.604633
G1 X47.061089 Y51.598576
G1 X46.371714 Y50.574377
G1 X45.609774 Y49.532037
G1 X44.775268 Y48.471556
G1 X43.868197 Y47.392933
G1 X42.888560 Y46.296168
G1 X41.836357 Y45.181262
G1 X40.711588 Y44.048215
G1 X39.514254 Y42.897026
G1 X38.244354 Y41.727696
G1 X36.901888 Y40.540225
G1 X35.486857 Y39.334612
G1 X33.999260 Y38.110857
G1 X32.439097 Y36.868961
G1 X30.806368 Y35.608924
G1 X30 Y35
G1 X29.225586 Y35.037482
G1 X28.451172 Y35.149929
G1 X27.676759 Y35.337341
G1 X26.902345 Y35.599717
G1 X26.127931 Y35.937057
G1 X25.353517 Y36.349362
G1 X24.579104 Y36.836632
G1 X23.804690 Y37.398867
G1 X23.030276 Y38.036066
G1 X22.255862 Y38.748229
G1 X21.481449 Y39.535357
G1 X20.707035 Y40.397450
G1 X19.932621 Y41.334507
G1 X19.158207 Y42.346529
G1 X18.383794 Y43.433516
G1 X17.609380 Y44.595467
G1 X16.834966 Y45.832382
G1 X16.060552 Y47.144262
G1 X15.286139 Y48.531107
G1 X14.511725 Y49.992917
G1 X13.737311 Y51.529690
G1 X12.962897 Y53.141429
G1 X12.188484 Y54.828132
G1 X11.414070 Y56.589800
G1 X10.639656 Y58.426432
G1 X10 Y60
M5
G0 Y110
; Cut at 300 mm/min, 100% power
G1 X10.034972 Y109.986011
G1 X10.139886 Y109.944046
G1 X10.314744 Y109.874102
G1 X10.559544 Y109.776182
G1 X10.874288 Y109.650285
G1 X11.258975 Y109.496410
G1 X11.713605 Y109.314558
G1 X12.238178 Y109.104729
G1 X12.832694 Y108.866922
G1 X13.497153 Y108.601139
G1 X14.231555 Y108.307378
G1 X15.035900 Y107.985640
G1 X15.910189 Y107.635925
G1 X16.854420 Y107.258232
G1 X17.868594 Y106.852562
G1 X18.952712 Y106.418915
G1 X20.106772 Y105.957291
G1 X21.330776 Y105.467690
G1 X22.624723 Y104.950111
G1 X23.988612 Y104.404555
G1 X25.422445 Y103.831022
G1 X26.926221 Y103.229512
G1 X28.499940 Y102.600024
G1 X30.143602 Y101.942559
G1 X31.857207 Y101.257117
G1 X33.640755 Y100.543698
G1 X35.494246 Y99.802302
G1 X37.417680 Y99.032928
G1 X39.411058 Y98.235577
G1 X41.474378 Y97.410249
G1 X43.607641 Y96.556943
G1 X45.810848 Y95.675661
G1 X48.083997 Y94.766401
G1 X50.427090 Y93.829164
G1 X52.840125 Y92.863950
G1 X55.323104 Y91.870758
G1 X57.876026 Y90.849590
G1 X60 Y90
G1 X61.776983 Y89.293775
G1 X63.495233 Y88.620179
G1 X65.154751 Y87.979212
G1 X66.755538 Y87.370874
G1 X68.297592 Y86.795165
G1 X69.780914 Y86.252084
G1 X71.205504 Y85.741633
G1 X72.571361 Y85.263811
G1 X73.878487 Y84.818618
G1 X75.126881 Y84.406053
G1 X76.316542 Y84.026118
G1 X77.447471 Y83.678811
G1 X78.519669 Y83.364134
G1 X79.533134 Y83.082085
G1 X80.487867 Y82.832665
G1 X81.383867 Y82.615875
G1 X82.221136 Y82.431713
G1 X82.999673 Y82.280180
G1 X83.719477 Y82.161277
G1 X84.380549 Y82.075002
G1 X84.982890 Y82.021356
G1 X85.526498 Y82.000339
G1 X86.011374 Y82.011951
G1 X86.437518 Y82.056192
G1 X86.804929 Y82.133062
G1 X87.113609 Y82.242561
G1 X87.363557 Y82.384688
G1 X87.554772 Y82.559445
G1 X87.687255 Y82.766831
G1 X87.761006 Y83.006846
G1 X87.776025 Y83.279489
G1 X87.732312 Y83.584762
G1 X87.629867 Y83.922664
G1 X87.468690 Y84.293194
G1 X87.248780 Y84.696354
G1 X86.970139 Y85.132142
G1 X86.632765 Y85.600559
G1 X86.236659 Y86.101606
G1 X85.781822 Y86.635281
G1 X85.268252 Y87.201585
G1 X84.695949 Y87.800518
G1 X84.064915 Y88.432081
G1 X83.375149 Y89.096272
G1 X82.626650 Y89.793092
G1 X81.819420 Y90.522541
G1 X80.953457 Y91.284619
G1 X80.028762 Y92.079326
G1 X79.045335 Y92.906662
G1 X78.003176 Y93.766626
G1 X76.902285 Y94.659220
G1 X75.742662 Y95.584443
G1 X74.524306 Y96.542295
G1 X73.247219 Y97.532775
G1 X71.911399 Y98.555885
G1 X70.516847 Y99.611623
G1 X70 Y100
G1 X68.438050 Y101.164553
G1 X66.931373 Y102.273833
G1 X65.479970 Y103.327840
G1 X64.083840 Y104.326573
G1 X62.742984 Y105.270032
G1 X61.457401 Y106.158219
G1 X60.227092 Y106.991131
G1 X59.052056 Y107.768771
G1 X57.932293 Y108.491136
G1 X56.867804 Y109.158229
G1 X55.858589 Y109.770048
G1 X54.904647 Y110.326593
G1 X54.005978 Y110.827865
G1 X53.162583 Y111.273864
G1 X52.374461 Y111.664589
G1 X51.641612 Y112.000040
G1 X50.964038 Y112.280219
G1 X50.341736 Y112.505123
G1 X49.774708 Y112.674755
G1 X49.262954 Y112.789112
G1 X48.806472 Y112.848197
G1 X48.405265 Y112.852008
G1 X48.059331 Y112.800545
G1 X47.768670 Y112.693809
G1 X47.533282 Y112.531800
G1 X47.353169 Y112.314517
G1 X47.228328 Y112.041961
G1 X47.158761 Y111.714131
G1 X47.144468 Y111.331028
G1 X47.185448 Y110.892651
G1 X47.281701 Y110.399001
G1 X47.433228 Y109.850078
G1 X47.640028 Y109.245881
G1 X47.902102 Y108.586410
G1 X48.219449 Y107.871666
G1 X48.592070 Y107.101649
G1 X49.019964 Y106.276358
G1 X49.503131 Y105.395794
G1 X50.041572 Y104.459956
G1 X50.635287 Y103.468845
G1 X51.284275 Y102.422461
G1 X51.988536 Y101.320803
G1 X52.748071 Y100.163871
G1 X53.562879 Y98.951666
G1 X54.432961 Y97.684188
G1 X55.358316 Y96.361436
G1 X56.338944 Y94.983411
G1 X57.374846 Y93.550112
G1 X58.466022 Y92.061540
G1 X59.612471 Y90.517694
G1 X60 Y90
G1 X61.168501 Y88.441998
G1 X62.289626 Y86.947166
G1 X63.363373 Y85.515503
G1 X64.389743 Y84.147010
G1 X65.368735 Y82.841687
G1 X66.300350 Y81.599533
G1 X67.184588 Y80.420549
G1 X68.021449 Y79.304734
G1 X68.810933 Y78.252090
G1 X69.553039 Y77.262615
G1 X70.247768 Y76.336309
G1 X70.895120 Y75.473173
G1 X71.495094 Y74.673207
G1 X72.047692 Y73.936411
G1 X72.552912 Y73.262784
G1 X73.010755 Y72.652327
G1 X73.421220 Y72.105039
G1 X73.784309 Y71.620922
G1 X74.100020 Y71.199973
G1 X74.368354 Y70.842195
G1 X74.589310 Y70.547586
G1 X74.762890 Y70.316147
G1 X74.889092 Y70.147877
G1 X74.967917 Y70.042777
G1 X74.999365 Y70.000847
G1 X74.983435 Y70.022087
G1 X74.920128 Y70.106496
G1 X74.809444 Y70.254074
G1 X74.651383 Y70.464823
G1 X74.445944 Y70.738741
G1 X74.193129 Y71.075828
G1 X73.892936 Y71.476086
G1 X73.545365 Y71.939513
G1 X73.150418 Y72.466110
G1 X72.708093 Y73.055876
G1 X72.218391 Y73.708812
G1 X71.681312 Y74.424917
G1 X71.096855 Y75.204193
G1 X70.465022 Y76.046638
G1 X69.785811 Y76.952252
G1 X69.059223 Y77.921037
G1 X68.285257 Y78.952990
G1 X67.463914 Y80.048114
G1 X66.595195 Y81.206407
G1 X65.679097 Y82.427870
G1 X64.715623 Y83.712503
G1 X63.704771 Y85.060305
G1 X62.646542 Y86.471277
G1 X61.540936 Y87.945418
G1 X60.387953 Y89.482729
G1 X60 Y90
G1 X59.047078 Y91.292135
G1 X58.158875 Y92.541125
G1 X57.335390 Y93.746969
G1 X56.576624 Y94.909667
G1 X55.882577 Y96.029219
G1 X55.253248 Y97.105626
G1 X54.688638 Y98.138887
G1 X54.188746 Y99.129002
G1 X53.753573 Y100.075971
G1 X53.383119 Y100.979795
G1 X53.077383 Y101.840473
G1 X52.836365 Y102.658005
G1 X52.660067 Y103.432392
G1 X52.548486 Y104.163633
G1 X52.501625 Y104.851728
G1 X52.519482 Y105.496677
G1 X52.602057 Y106.098481
G1 X52.749352 Y106.657139
G1 X52.961364 Y107.172651
G1 X53.238096 Y107.645017
G1 X53.579546 Y108.074238
G1 X53.985714 Y108.460313
G1 X54.456602 Y108.803242
G1 X54.992207 Y109.103026
G1 X55.592532 Y109.359664
G1 X56.257574 Y109.573156
G1 X56.987336 Y109.743502
G1 X57.781816 Y109.870703
G1 X58.641015 Y109.954758
G1 X59.564932 Y109.995667
G1 X60.553568 Y109.993431
G1 X61.606922 Y109.948048
G1 X62.724995 Y109.859520
G1 X63.907787 Y109.727847
G1 X65.155297 Y109.553027
G1 X66.467526 Y109.335062
G1 X67.844473 Y109.073951
G1 X69.286139 Y108.769695
G1 X70.792524 Y108.422292
G1 X72.363627 Y108.031744
G1 X73.999448 Y107.598051
G1 X75.699989 Y107.121211
G1 X77.465248 Y106.601226
G1 X79.295225 Y106.038095
G1 X81.189921 Y105.431818
G1 X83.149336 Y104.782396
G1 X85.173469 Y104.089828
G1 X87.262321 Y103.354114
G1 X89.415891 Y102.575255
G1 X91.634180 Y101.753249
G1 X93.917188 Y100.888098
G1 X96.264914 Y99.979801
G1 X98.677359 Y99.028359
G1 X101.154522 Y98.033771
G1 X103.696404 Y96.996037
G1 X106.303005 Y95.915157
G1 X108.974324 Y94.791132
G1 X111.710362 Y93.623961
G1 X114.511118 Y92.413644
G1 X117.376593 Y91.160182
G1 X120 Y90
M5
G0 X100 Y40
; Cut at 300 mm/min, 100% power
G1 X100.033440
G1 X100.133762
G1 X100.300964
G1 X100.535047
G1 X100.836011
G1 X101.203856
G1 X101.638581
G1 X102.140188
G1 X102.708675
G1 X103.344044
G1 X104.046293
G1 X104.815423
G1 X105.651434
G1 X106.554326
G1 X107.524098
G1 X108.560752
G1 X109.664286
G1 X110.834702
G1 X112.071998
G1 X113.376175
G1 X114.747233
G1 X116.185171
G1 X117.689991
G1 X119.261692
G1 X120.900273
G1 X122.605735
G1 X124.378078
G1 X126.217302
G1 X128.123407
G1 X130.096393
G1 X132.136260
G1 X134.243007
G1 X136.416636
G1 X138.657145
G1 X140.964535
G1 X143.338806
G1 X145.779958
G1 X148.287991
G1 X150.862904
G1 X153.504699
G1 X156.213374
G1 X158.988930
G1 X161.831368
G1 X164.740686
G1 X167.716884
G1 X170
G1 X171.866838 Y40.001842
G1 X173.667371 Y40.007367
G1 X175.401598 Y40.016576
G1 X177.069520 Y40.029469
G1 X178.671137 Y40.046045
G1 X180.206447 Y40.066305
G1 X181.675453 Y40.090249
G1 X183.078153 Y40.117876
G1 X184.414547 Y40.149187
G1 X185.684636 Y40.184182
G1 X186.888419 Y40.222860
G1 X188.025897 Y40.265222
G1 X189.097069 Y40.311267
G1 X190.101936 Y40.360997
G1 X191.040497 Y40.414409
G1 X191.912753 Y40.471506
G1 X192.718704 Y40.532286
G1 X193.458348 Y40.596749
G1 X194.131688 Y40.664897
G1 X194.738722 Y40.736728
G1 X195.279450 Y40.812242
G1 X195.753873 Y40.891441
G1 X196.161990 Y40.974322
G1 X196.503802 Y41.060888
G1 X196.779308 Y41.151137
G1 X196.988509 Y41.245070
G1 X197.131404 Y41.342686
G1 X197.207994 Y41.443986
G1 X197.218279 Y41.548970
G1 X197.162257 Y41.657637
G1 X197.039931 Y41.769988
G1 X196.851299 Y41.886023
G1 X196.596361 Y42.005741
G1 X196.275118 Y42.129143
G1 X195.887569 Y42.256229
G1 X195.433715 Y42.386998
G1 X194.913555 Y42.521451
G1 X194.327090 Y42.659587
G1 X193.674320 Y42.801407
G1 X192.955243 Y42.946911
G1 X192.169862 Y43.096098
G1 X191.318175 Y43.248969
G1 X190.400182 Y43.405524
G1 X189.415884 Y43.565762
G1 X188.365280 Y43.729684
G1 X187.248371 Y43.897290
G1 X186.065156 Y44.068579
G1 X184.815636 Y44.243552
G1 X183.499811 Y44.422208
G1 X182.117679 Y44.604549
G1 X180.669243 Y44.790572
G1 X179.154501 Y44.980280
G1 X177.573453 Y45.173671
G1 X175.926100 Y45.370745
G1 X174.212441 Y45.571504
G1 X172.432477 Y45.775946
G1 X170.586207 Y45.984071
G1 X168.673632 Y46.195881
G1 X166.694752 Y46.411373
G1 X164.649566 Y46.630550
G1 X162.538074 Y46.853410
G1 X160.360277 Y47.079954
G1 X158.116174 Y47.310181
G1 X155.805766 Y47.544092
G1 X153.429052 Y47.781687
G1 X150.986033 Y48.022965
G1 X148.476709 Y48.267927
G1 X145.901078 Y48.516573
G1 X143.259143 Y48.768902
G1 X140.550902 Y49.024915
G1 X137.776355 Y49.284612
G1 X134.935503 Y49.547992
G1 X132.028345 Y49.815056
G1 X130 Y50
G1 X127.047452 Y50.264060
G1 X124.161210 Y50.513385
G1 X121.341274 Y50.747976
G1 X118.587643 Y50.967833
G1 X115.900317 Y51.172955
G1 X113.279297 Y51.363342
G1 X110.724583 Y51.538994
G1 X108.236174 Y51.699913
G1 X105.814070 Y51.846096
G1 X103.458272 Y51.977545
G1 X101.168780 Y52.094260
G1 X98.945593 Y52.196240
G1 X96.788711 Y52.283485
G1 X94.698135 Y52.355996
G1 X92.673865 Y52.413772
G1 X90.715900 Y52.456814
G1 X88.824240 Y52.485121
G1 X86.998886 Y52.498693
G1 X85.239838 Y52.497531
G1 X83.547095 Y52.481635
G1 X81.920657 Y52.451004
G1 X80.360525 Y52.405638
G1 X78.866699 Y52.345538
G1 X77.439178 Y52.270703
G1 X76.077962 Y52.181134
G1 X74.783052 Y52.076830
G1 X73.554448 Y51.957792
G1 X72.392149 Y51.824019
G1 X71.296155 Y51.675511
G1 X70.266467 Y51.512269
G1 X69.303084 Y51.334292
G1 X68.406007 Y51.141581
G1 X67.575236 Y50.934135
G1 X66.810770 Y50.711955
G1 X66.112609 Y50.475040
G1 X65.480754 Y50.223391
G1 X64.915205 Y49.957007
G1 X64.415961 Y49.675888
G1 X63.983022 Y49.380035
G1 X63.616389 Y49.069448
G1 X63.316062 Y48.744125
G1 X63.082040 Y48.404069
G1 X62.914323 Y48.049277
G1 X62.812912 Y47.679751
G1 X62.777807 Y47.295491
G1 X62.809006 Y46.896496
G1 X62.906512 Y46.482766
G1 X63.070323 Y46.054302
G1 X63.300439 Y45.611104
G1 X63.596861 Y45.153171
G1 X63.959589 Y44.680503
G1 X64.388622 Y44.193100
G1 X64.883960 Y43.690964
G1 X65.445604 Y43.174092
G1 X66.073554 Y42.642486
G1 X66.767809 Y42.096146
G1 X67.528369 Y41.535071
G1 X68.355235 Y40.959261
G1 X69.248406 Y40.368717
G1 X70.207883 Y39.763438
G1 X71.233666 Y39.143425
G1 X72.325754 Y38.508677
G1 X73.484147 Y37.859194
G1 X74.708846 Y37.194977
G1 X75.999851 Y36.516026
G1 X77.357161 Y35.822340
G1 X78.780776 Y35.113919
G1 X80.270697 Y34.390764
G1 X81.826923 Y33.652874
G1 X83.449455 Y32.900250
G1 X85.138293 Y32.132891
G1 X86.893436 Y31.350798
G1 X88.714884 Y30.553970
G1 X90 Y30
G1 X92.263933 Y29.033595
G1 X94.457755 Y28.104943
G1 X96.581464 Y27.214043
G1 X98.635062 Y26.360896
G1 X100.618548 Y25.545501
G1 X102.531923 Y24.767859
G1 X104.375185 Y24.027969
G1 X106.148336 Y23.325832
G1 X107.851375 Y22.661447
G1 X109.484302 Y22.034815
G1 X111.047117 Y21.445935
G1 X112.539821 Y20.894808
G1 X113.962412 Y20.381433
G1 X115.314892 Y19.905811
G1 X116.597260 Y19.467941
G1 X117.809516 Y19.067824
G1 X118.951661 Y18.705459
G1 X120.023693 Y18.380847
G1 X121.025614 Y18.093987
G1 X121.957423 Y17.844880
G1 X122.819121 Y17.633526
G1 X123.610706 Y17.459923
G1 X124.332180 Y17.324074
G1 X124.983541 Y17.225977
G1 X125.564791 Y17.165632
G1 X126.075930 Y17.143040
G1 X126.516956 Y17.158200
G1 X126.887871 Y17.211113
G1 X127.188673 Y17.301779
G1 X127.419364 Y17.430197
G1 X127.579944 Y17.596367
G1 X127.670411 Y17.800290
G1 X127.690767 Y18.041966
G1 X127.641010 Y18.321394
G1 X127.521142 Y18.638574
G1 X127.331163 Y18.993507
G1 X127.071071 Y19.386193
G1 X126.740867 Y19.816631
G1 X126.340552 Y20.284821
G1 X125.870125 Y20.790764
G1 X125.329586 Y21.334460
G1 X124.718936 Y21.915908
G1 X124.038173 Y22.535108
G1 X123.287299 Y23.192061
G1 X122.466313 Y23.886767
G1 X121.575215 Y24.619225
G1 X120.614005 Y25.389436
G1 X119.582684 Y26.197399
G1 X118.481251 Y27.043115
G1 X117.309706 Y27.926583
G1 X116.068049 Y28.847803
G1 X114.756280 Y29.806776
G1 X113.374400 Y30.803502
G1 X111.922407 Y31.837980
G1 X110.400303 Y32.910211
G1 X108.808087 Y34.020194
G1 X107.145760 Y35.167930
G1 X105.413320 Y36.353418
G1 X103.610769 Y37.576659
G1 X101.738106 Y38.837652
G1 X100 Y40
M5
G91
G1 Z-2
G90
; pass #5
M5
G0 X50 Y160
; Cut at 300 mm/min, 100% power
M4
G1 X50.993492 Y161.947502 S255 F300
G1 X51.986984 Y163.816043
G1 X52.980475 Y165.605621
G1 X53.973967 Y167.316238
G1 X54.967459 Y168.947892
G1 X55.960951 Y170.500584
G1 X56.954442 Y171.974314
G1 X57.947934 Y173.369082
G1 X58.941426 Y174.684888
G1 X59.934918 Y175.921732
G1 X60.928409 Y177.079613
G1 X61.921901 Y178.158533
G1 X62.915393 Y179.158491
G1 X63.908885 Y180.079486
G1 X64.902376 Y180.921520
G1 X65.895868 Y181.684591
G1 X66.889360 Y182.368701
G1 X67.882852 Y182.973848
G1 X68.876343 Y183.500033
G1 X69.869835 Y183.947256
G1 X70.863327 Y184.315517
G1 X71.856819 Y184.604816
G1 X72.850310 Y184.815153
G1 X73.843802 Y184.946528
G1 X74.837294 Y184.998941
G1 X75.830786 Y184.972392
G1 X76.824278 Y184.866880
G1 X77.817769 Y184.682407
G1 X78.811261 Y184.418972
G1 X79.804753 Y184.076574
G1 X80.798245 Y183.655214
G1 X81.791736 Y183.154893
G1 X82.785228 Y182.575609
G1 X83.778720 Y181.917363
G1 X84.772212 Y181.180155
G1 X85.765703 Y180.363985
G1 X86.759195 Y179.468853
G1 X87.752687 Y178.494759
G1 X88.746179 Y177.441703
G1 X89.739670 Y176.309685
G1 X90.733162 Y175.098704
G1 X91.726654 Y173.808762
G1 X92.720146 Y172.439857
G1 X93.713637 Y170.991991
G1 X94.707129 Y169.465162
G1 X95.700621 Y167.859372
G1 X96.694113 Y166.174619
G1 X97.687604 Y164.410904
G1 X98.681096 Y162.568227
G1 X99.674588 Y160.646588
G1 X100 Y160
G1 X100.993492 Y161.947502
G1 X101.986984 Y163.816043
G1 X102.980475 Y165.605621
G1 X103.973967 Y167.316238
G1 X104.967459 Y168.947892
G1 X105.960951 Y170.500584
G1 X106.954442 Y171.974314
G1 X107.947934 Y173.369082
G1 X108.941426 Y174.684888
G1 X109.934918 Y175.921732
G1 X110.928409 Y177.079613
G1 X111.921901 Y178.158533
G1 X112.915393 Y179.158491
G1 X113.908885 Y180.079486
G1 X114.902376 Y180.921520
G1 X115.895868 Y181.684591
G1 X116.889360 Y182.368701
G1 X117.882852 Y182.973848
G1 X118.876343 Y183.500033
G1 X119.869835 Y183.947256
G1 X120.863327 Y184.315517
G1 X121.856819 Y184.604816
G1 X122.850310 Y184.815153
G1 X123.843802 Y184.946528
G1 X124.837294 Y184.998941
G1 X125.830786 Y184.972392
G1 X126.824278 Y184.866880
G1 X127.817769 Y184.682407
G1 X128.811261 Y184.418972
G1 X129.804753 Y184.076574
G1 X130.798245 Y183.655214
G1 X131.791736 Y183.154893
G1 X132.785228 Y182.575609
G1 X133.778720 Y181.917363
G1 X134.772212 Y181.180155
G1 X135.765703 Y180.363985
G1 X136.759195 Y179.468853
G1 X137.752687 Y178.494759
G1 X138.746179 Y177.441703
G1 X139.739670 Y176.309685
G1 X140.733162 Y175.098704
G1 X141.726654 Y173.808762
G1 X142.720146 Y172.439857
G1 X143.713637 Y170.991991
G1 X144.707129 Y169.465162
G1 X145.700621 Y167.859372
G1 X146.694113 Y166.174619
G1 X147.687604 Y164.410904
G1 X148.681096 Y162.568227
G1 X149.674588 Y160.646588
G1 X150 Y160
G1 X149.965028 Y158.677662
G1 X149.860114 Y157.355325
G1 X149.685256 Y156.032987
G1 X149.440456 Y154.710650
G1 X149.125712 Y153.388312
G1 X148.741025 Y152.065975
G1 X148.286395 Y150.743637
G1 X147.761822 Y149.421300
G1 X147.167306 Y148.098962
G1 X146.502847 Y146.776625
G1 X145.768445 Y145.454287
G1 X144.964100 Y144.131950
G1 X144.089811 Y142.809612
G1 X143.145580 Y141.487275
G1 X142.131406 Y140.164937
G1 X141.047288 Y138.842599
G1 X139.893228 Y137.520262
G1 X138.669224 Y136.197924
G1 X137.375277 Y134.875587
G1 X136.011388 Y133.553249
G1 X134.577555 Y132.230912
G1 X133.073779 Y130.908574
G1 X131.500060 Y129.586237
G1 X129.856398 Y128.263899
G1 X128.142793 Y126.941562
G1 X126.359245 Y125.619224
G1 X124.505754 Y124.296887
G1 X122.582320 Y122.974549
G1 X120.588942 Y121.652212
G1 X118.525622 Y120.329874
G1 X116.392359 Y119.007536
G1 X114.189152 Y117.685199
G1 X111.916003 Y116.362861
G1 X109.572910 Y115.040524
G1 X107.159875 Y113.718186
G1 X104.676896 Y112.395849
G1 X102.123974 Y111.073511
G1 X100 Y110
G1 X97.390296 Y111.322338
G1 X94.850536 Y112.644675
G1 X92.380719 Y113.967013
G1 X89.980844 Y115.289350
G1 X87.650913 Y116.611688
G1 X85.390925 Y117.934025
G1 X83.200880 Y119.256363
G1 X81.080777 Y120.578700
G1 X79.030618 Y121.901038
G1 X77.050402 Y123.223375
G1 X75.140130 Y124.545713
G1 X73.299800 Y125.868050
G1 X71.529413 Y127.190388
G1 X69.828969 Y128.512725
G1 X68.198468 Y129.835063
G1 X66.637911 Y131.157401
G1 X65.147296 Y132.479738
G1 X63.726625 Y133.802076
G1 X62.375896 Y135.124413
G1 X61.095111 Y136.446751
G1 X59.884269 Y137.769088
G1 X58.743370 Y139.091426
G1 X57.672413 Y140.413763
G1 X56.671400 Y141.736101
G1 X55.740330 Y143.058438
G1 X54.879203 Y144.380776
G1 X54.088019 Y145.703113
G1 X53.366778 Y147.025451
G1 X52.715481 Y148.347788
G1 X52.134126 Y149.670126
G1 X51.622714 Y150.992464
G1 X51.181246 Y152.314801
G1 X50.809720 Y153.637139
G1 X50.508138 Y154.959476
G1 X50.276498 Y156.281814
G1 X50.114802 Y157.604151
G1 X50.023049 Y158.926489
G1 X50 Y160
M5
G0 X10 Y60
; Cut at 300 mm/min, 100% power
G1 X10.864280 Y61.129805
G1 X11.711633 Y62.191904
G1 X12.542060 Y63.186299
G1 X13.355561 Y64.112989
G1 X14.152136 Y64.971974
G1 X14.931785 Y65.763254
G1 X15.694507 Y66.486830
G1 X16.440303 Y67.142700
G1 X17.169173 Y67.730865
G1 X17.881117 Y68.251326
G1 X18.576134 Y68.704082
G1 X19.254225 Y69.089133
G1 X19.915390 Y69.406479
G1 X20.559629 Y69.656120
G1 X21.186942 Y69.838056
G1 X21.797328 Y69.952287
G1 X22.390788 Y69.998814
G1 X22.967322 Y69.977635
G1 X23.526930 Y69.888752
G1 X24.069611 Y69.732164
G1 X24.595366 Y69.507871
G1 X25.104195 Y69.215873
G1 X25.596098 Y68.856170
G1 X26.071075 Y68.428762
G1 X26.529125 Y67.933649
G1 X26.970249 Y67.370832
G1 X27.394447 Y66.740310
G1 X27.801719 Y66.042082
G1 X28.192064 Y65.276150
G1 X28.565484 Y64.442513
G1 X28.921977 Y63.541171
G1 X29.261544 Y62.572124
G1 X29.584184 Y61.535373
G1 X29.889898 Y60.430916
G1 X30 Y60
G1 X30.581829 Y61.129805
G1 X31.163657 Y62.191904
G1 X31.745486 Y63.186299
G1 X32.327314 Y64.112989
G1 X32.909143 Y64.971974
G1 X33.490971 Y65.763254
G1 X34.072800 Y66.486830
G1 X34.654628 Y67.142700
G1 X35.236457 Y67.730865
G1 X35.818285 Y68.251326
G1 X36.400114 Y68.704082
G1 X36.981942 Y69.089133
G1 X37.563771 Y69.406479
G1 X38.145599 Y69.656120
G1 X38.727428 Y69.838056
G1 X39.309256 Y69.952287
G1 X39.891085 Y69.998814
G1 X40.472913 Y69.977635
G1 X41.054742 Y69.888752
G1 X41.636570 Y69.732164
G1 X42.218399 Y69.507871
G1 X42.800227 Y69.215873
G1 X43.382056 Y68.856170
G1 X43.963884 Y68.428762
G1 X44.545713 Y67.933649
G1 X45.127541 Y67.370832
G1 X45.709370 Y66.740310
G1 X46.291198 Y66.042082
G1 X46.873027 Y65.276150
G1 X47.454855 Y64.442513
G1 X48.036684 Y63.541171
G1 X48.618512 Y62.572124
G1 X49.200341 Y61.535373
G1 X49.782169 Y60.430916
G1 X50 Y60
G1 X49.963717 Y59.139074
G1 X49.854869 Y58.260007
G1 X49.673454 Y57.362798
G1 X49.419474 Y56.447448
G1 X49.092929 Y55.513956
G1 X48.693817 Y54.562324
G1 X48.222140 Y53.592549
G1 X47.677897 Y52.604633
G1 X47.061089 Y51.598576
G1 X46.371714 Y50.574377
G1 X45.609774 Y49.532037
G1 X44.775268 Y48.471556
G1 X43.868197 Y47.392933
G1 X42.888560 Y46.296168
G1 X41.836357 Y45.181262
G1 X40.711588 Y44.048215
G1 X39.514254 Y42.897026
G1 X38.244354 Y41.727696
G1 X36.901888 Y40.540225
G1 X35.486857 Y39.334612
G1 X33.999260 Y38.110857
G1 X32.439097 Y36.868961
G1 X30.806368 Y35.608924
G1 X30 Y35
G1 X29.225586 Y35.037482
G1 X28.451172 Y35.149929
G1 X27.676759 Y35.337341
G1 X26.902345 Y35.599717
G1 X26.127931 Y35.937057
G1 X25.353517 Y36.349362
G1 X24.579104 Y36.836632
G1 X23.804690 Y37.398867
G1 X23.030276 Y38.036066
G1 X22.255862 Y38.748229
G1 X21.481449 Y39.535357
G1 X20.707035 Y40.397450
G1 X19.932621 Y41.334507
G1 X19.158207 Y42.346529
G1 X18.383794 Y43.433516
G1 X17.609380 Y44.595467
G1 X16.834966 Y45.832382
G1 X16.060552 Y47.144262
G1 X15.286139 Y48.531107
G1 X14.511725 Y49.992917
G1 X13.737311 Y51.529690
G1 X12.962897 Y53.141429
G1 X12.188484 Y54.828132
G1 X11.414070 Y56.589800
G1 X10.639656 Y58.426432
G1 X10 Y60
M5
G0 Y110
; Cut at 300 mm/min, 100% power
G1 X10.034972 Y109.986011
G1 X10.139886 Y109.944046
G1 X10.314744 Y109.874102
G1 X10.559544 Y109.776182
G1 X10.874288 Y109.650285
G1 X11.258975 Y109.496410
G1 X11.713605 Y109.314558
G1 X12.238178 Y109.104729
G1 X12.832694 Y108.866922
G1 X13.497153 Y108.601139
G1 X14.231555 Y108.307378
G1 X15.035900 Y107.985640
G1 X15.910189 Y107.635925
G1 X16.854420 Y107.258232
G1 X17.868594 Y106.852562
G1 X18.952712 Y106.418915
G1 X20.106772 Y105.957291
G1 X21.330776 Y105.467690
G1 X22.624723 Y104.950111
G1 X23.988612 Y104.404555
G1 X25.422445 Y103.831022
G1 X26.926221 Y103.229512
G1 X28.499940 Y102.600024
G1 X30.143602 Y101.942559
G1 X31.857207 Y101.257117
G1 X33.640755 Y100.543698
G1 X35.494246 Y99.802302
G1 X37.417680 Y99.032928
G1 X39.411058 Y98.235577
G1 X41.474378 Y97.410249
G1 X43.607641 Y96.556943
G1 X45.810848 Y95.675661
G1 X48.083997 Y94.766401
G1 X50.427090 Y93.829164
G1 X52.840125 Y92.863950
G1 X55.323104 Y91.870758
G1 X57.876026 Y90.849590
G1 X60 Y90
G1 X61.776983 Y89.293775
G1 X63.495233 Y88.620179
G1 X65.154751 Y87.979212
G1 X66.755538 Y87.370874
G1 X68.297592 Y86.795165
G1 X69.780914 Y86.252084
G1 X71.205504 Y85.741633
G1 X72.571361 Y85.263811
G1 X73.878487 Y84.818618
G1 X75.126881 Y84.406053
G1 X76.316542 Y84.026118
G1 X77.447471 Y83.678811
G1 X78.519669 Y83.364134
G1 X79.533134 Y83.082085
G1 X80.487867 Y82.832665
G1 X81.383867 Y82.615875
G1 X82.221136 Y82.431713
G1 X82.999673 Y82.280180
G1 X83.719477 Y82.161277
G1 X84.380549 Y82.075002
G1 X84.982890 Y82.021356
G1 X85.526498 Y82.000339
G1 X86.011374 Y82.011951
G1 X86.437518 Y82.056192
G1 X86.804929 Y82.133062
G1 X87.113609 Y82.242561
G1 X87.363557 Y82.384688
G1 X87.554772 Y82.559445
G1 X87.687255 Y82.766831
G1 X87.761006 Y83.006846
G1 X87.776025 Y83.279489
G1 X87.732312 Y83.584762
G1 X87.629867 Y83.922664
G1 X87.468690 Y84.293194
G1 X87.248780 Y84.696354
G1 X86.970139 Y85.132142
G1 X86.632765 Y85.600559
G1 X86.236659 Y86.101606
G1 X85.781822 Y86.635281
G1 X85.268252 Y87.201585
G1 X84.695949 Y87.800518
G1 X84.064915 Y88.432081
G1 X83.375149 Y89.096272
G1 X82.626650 Y89.793092
G1 X81.819420 Y90.522541
G1 X80.953457 Y91.284619
G1 X80.028762 Y92.079326
G1 X79.045335 Y92.906662
G1 X78.003176 Y93.766626
G1 X76.902285 Y94.659220
G1 X75.742662 Y95.584443
G1 X74.524306 Y96.542295
G1 X73.247219 Y97.532775
G1 X71.911399 Y98.555885
G1 X70.516847 Y99.611623
G1 X70 Y100
G1 X68.438050 Y101.164553
G1 X66.931373 Y102.273833
G1 X65.479970 Y103.327840
G1 X64.083840 Y104.326573
G1 X62.742984 Y105.270032
G1 X61.457401 Y106.158219
G1 X60.227092 Y106.991131
G1 X59.052056 Y107.768771
G1 X57.932293 Y108.491136
G1 X56.867804 Y109.158229
G1 X55.858589 Y109.770048
G1 X54.904647 Y110.326593
G1 X54.005978 Y110.827865
G1 X53.162583 Y111.273864
G1 X52.374461 Y111.664589
G1 X51.641612 Y112.000040
G1 X50.964038 Y112.280219
G1 X50.341736 Y112.505123
G1 X49.774708 Y112.674755
G1 X49.262954 Y112.789112
G1 X48.806472 Y112.848197
G1 X48.405265 Y112.852008
G1 X48.059331 Y112.800545
G1 X47.768670 Y112.693809
G1 X47.533282 Y112.531800
G1 X47.353169 Y112.314517
G1 X47.228328 Y112.041961
G1 X47.158761 Y111.714131
G1 X47.144468 Y111.331028
G1 X47.185448 Y110.892651
G1 X47.281701 Y110.399001
G1 X47.433228 Y109.850078
G1 X47.640028 Y109.245881
G1 X47.902102 Y108.586410
G1 X48.219449 Y107.871666
G1 X48.592070 Y107.101649
G1 X49.019964 Y106.276358
G1 X49.503131 Y105.395794
G1 X50.041572 Y104.459956
G1 X50.635287 Y103.468845
G1 X51.284275 Y102.422461
G1 X51.988536 Y101.320803
G1 X52.748071 Y100.163871
G1 X53.562879 Y98.951666
G1 X54.432961 Y97.684188
G1 X55.358316 Y96.361436
G1 X56.338944 Y94.983411
G1 X57.374846 Y93.550112
G1 X58.466022 Y92.061540
G1 X59.612471 Y90.517694
G1 X60 Y90
G1 X61.168501 Y88.441998
G1 X62.289626 Y86.947166
G1 X63.363373 Y85.515503
G1 X64.389743 Y84.147010
G1 X65.368735 Y82.841687
G1 X66.300350 Y81.599533
G1 X67.184588 Y80.420549
G1 X68.021449 Y79.304734
G1 X68.810933 Y78.252090
G1 X69.553039 Y77.262615
G1 X70.247768 Y76.336309
G1 X70.895120 Y75.473173
G1 X71.495094 Y74.673207
G1 X72.047692 Y73.936411
G1 X72.552912 Y73.262784
G1 X73.010755 Y72.652327
G1 X73.421220 Y72.105039
G1 X73.784309 Y71.620922
G1 X74.100020 Y71.199973
G1 X74.368354 Y70.842195
G1 X74.589310 Y70.547586
G1 X74.762890 Y70.316147
G1 X74.889092 Y70.147877
G1 X74.967917 Y70.042777
G1 X74.999365 Y70.000847
G1 X74.983435 Y70.022087
G1 X74.920128 Y70.106496
G1 X74.809444 Y70.254074
G1 X74.651383 Y70.464823
G1 X74.445944 Y70.738741
G1 X74.193129 Y71.075828
G1 X73.892936 Y71.476086
G1 X73.545365 Y71.939513
G1 X73.150418 Y72.466110
G1 X72.708093 Y73.055876
G1 X72.218391 Y73.708812
G1 X71.681312 Y74.424917
G1 X71.096855 Y75.204193
G1 X70.465022 Y76.046638
G1 X69.785811 Y76.952252
G1 X69.059223 Y77.921037
G1 X68.285257 Y78.952990
G1 X67.463914 Y80.048114
G1 X66.595195 Y81.206407
G1 X65.679097 Y82.427870
G1 X64.715623 Y83.712503
G1 X63.704771 Y85.060305
G1 X62.646542 Y86.471277
G1 X61.540936 Y87.945418
G1 X60.387953 Y89.482729
G1 X60 Y90
G1 X59.047078 Y91.292135
G1 X58.158875 Y92.541125
G1 X57.335390 Y93.746969
G1 X56.576624 Y94.909667
G1 X55.882577 Y96.029219
G1 X55.253248 Y97.105626
G1 X54.688638 Y98.138887
G1 X54.188746 Y99.129002
G1 X53.753573 Y100.075971
G1 X53.383119 Y100.979795
G1 X53.077383 Y101.840473
G1 X52.836365 Y102.658005
G1 X52.660067 Y103.432392
G1 X52.548486 Y104.163633
G1 X52.501625 Y104.851728
G1 X52.519482 Y105.496677
G1 X52.602057 Y106.098481
G1 X52.749352 Y106.657139
G1 X52.961364 Y107.172651
G1 X53.238096 Y107.645017
G1 X53.579546 Y108.074238
G1 X53.985714 Y108.460313
G1 X54.456602 Y108.803242
G1 X54.992207 Y109.103026
G1 X55.592532 Y109.359664
G1 X56.257574 Y109.573156
G1 X56.987336 Y109.743502
G1 X57.781816 Y109.870703
G1 X58.641015 Y109.954758
G1 X59.564932 Y109.995667
G1 X60.553568 Y109.993431
G1 X61.606922 Y109.948048
G1 X62.724995 Y109.859520
G1 X63.907787 Y109.727847
G1 X65.155297 Y109.553027
G1 X66.467526 Y109.335062
G1 X67.844473 Y109.073951
G1 X69.286139 Y108.769695
G1 X70.792524 Y108.422292
G1 X72.363627 Y108.031744
G1 X73.999448 Y107.598051
G1 X75.699989 Y107.121211
G1 X77.465248 Y106.601226
G1 X79.295225 Y106.038095
G1 X81.189921 Y105.431818
G1 X83.149336 Y104.782396
G1 X85.173469 Y104.089828
G1 X87.262321 Y103.354114
G1 X89.415891 Y102.575255
G1 X91.634180 Y101.753249
G1 X93.917188 Y100.888098
G1 X96.264914 Y99.979801
G1 X98.677359 Y99.028359
G1 X101.154522 Y98.033771
G1 X103.696404 Y96.996037
G1 X106.303005 Y95.915157
G1 X108.974324 Y94.791132
G1 X111.710362 Y93.623961
G1 X114.511118 Y92.413644
G1 X117.376593 Y91.160182
G1 X120 Y90
M5
G0 X100 Y40
; Cut at 300 mm/min, 100% power
G1 X100.033440
G1 X100.133762
G1 X100.300964
G1 X100.535047
G1 X100.836011
G1 X101.203856
G1 X101.638581
G1 X102.140188
G1 X102.708675
G1 X103.344044
G1 X104.046293
G1 X104.815423
G1 X105.651434
G1 X106.554326
G1 X107.524098
G1 X108.560752
G1 X109.664286
G1 X110.834702
G1 X112.071998
G1 X113.376175
G1 X114.747233
G1 X116.185171
G1 X117.689991
G1 X119.261692
G1 X120.900273
G1 X122.605735
G1 X124.378078
G1 X126.217302
G1 X128.123407
G1 X130.096393
G1 X132.136260
G1 X134.243007
G1 X136.416636
G1 X138.657145
G1 X140.964535
G1 X143.338806
G1 X145.779958
G1 X148.287991
G1 X150.862904
G1 X153.504699
G1 X156.213374
G1 X158.988930
G1 X161.831368
G1 X164.740686
G1 X167.716884
G1 X170
G1 X171.866838 Y40.001842
G1 X173.667371 Y40.007367
G1 X175.401598 Y40.016576
G1 X177.069520 Y40.029469
G1 X178.671137 Y40.046045
G1 X180.206447 Y40.066305
G1 X181.675453 Y40.090249
G1 X183.078153 Y40.117876
G1 X184.414547 Y40.149187
G1 X185.684636 Y40.184182
G1 X186.888419 Y40.222860
G1 X188.025897 Y40.265222
G1 X189.097069 Y40.311267
G1 X190.101936 Y40.360997
G1 X191.040497 Y40.414409
G1 X191.912753 Y40.471506
G1 X192.718704 Y40.532286
G1 X193.458348 Y40.596749
G1 X194.131688 Y40.664897
G1 X194.738722 Y40.736728
G1 X195.279450 Y40.812242
G1 X195.753873 Y40.891441
G1 X196.161990 Y40.974322
G1 X196.503802 Y41.060888
G1 X196.779308 Y41.151137
G1 X196.988509 Y41.245070
G1 X197.131404 Y41.342686
G1 X197.207994 Y41.443986
G1 X197.218279 Y41.548970
G1 X197.162257 Y41.657637
G1 X197.039931 Y41.769988
G1 X196.851299 Y41.886023
G1 X196.596361 Y42.005741
G1 X196.275118 Y42.129143
G1 X195.887569 Y42.256229
G1 X195.433715 Y42.386998
G1 X194.913555 Y42.521451
G1 X194.327090 Y42.659587
G1 X193.674320 Y42.801407
G1 X192.955243 Y42.946911
G1 X192.169862 Y43.096098
G1 X191.318175 Y43.248969
G1 X190.400182 Y43.405524
G1 X189.415884 Y43.565762
G1 X188.365280 Y43.729684
G1 X187.248371 Y43.897290
G1 X186.065156 Y44.068579
G1 X184.815636 Y44.243552
G1 X183.499811 Y44.422208
G1 X182.117679 Y44.604549
G1 X180.669243 Y44.790572
G1 X179.154501 Y44.980280
G1 X177.573453 Y45.173671
G1 X175.926100 Y45.370745
G1 X174.212441 Y45.571504
G1 X172.432477 Y45.775946
G1 X170.586207 Y45.984071
G1 X168.673632 Y46.195881
G1 X166.694752 Y46.411373
G1 X164.649566 Y46.630550
G1 X162.538074 Y46.853410
G1 X160.360277 Y47.079954
G1 X158.116174 Y47.310181
G1 X155.805766 Y47.544092
G1 X153.429052 Y47.781687
G1 X150.986033 Y48.022965
G1 X148.476709 Y48.267927
G1 X145.901078 Y48.516573
G1 X143.259143 Y48.768902
G1 X140.550902 Y49.024915
G1 X137.776355 Y49.284612
G1 X134.935503 Y49.547992
G1 X132.028345 Y49.815056
G1 X130 Y50
G1 X127.047452 Y50.264060
G1 X124.161210 Y50.513385
G1 X121.341274 Y50.747976
G1 X118.587643 Y50.967833
G1 X115.900317 Y51.172955
G1 X113.279297 Y51.363342
G1 X110.724583 Y51.538994
G1 X108.236174 Y51.699913
G1 X105.814070 Y51.846096
G1 X103.458272 Y51.977545
G1 X101.168780 Y52.094260
G1 X98.945593 Y52.196240
G1 X96.788711 Y52.283485
G1 X94.698135 Y52.355996
G1 X92.673865 Y52.413772
G1 X90.715900 Y52.456814
G1 X88.824240 Y52.485121
G1 X86.998886 Y52.498693
G1 X85.239838 Y52.497531
G1 X83.547095 Y52.481635
G1 X81.920657 Y52.451004
G1 X80.360525 Y52.405638
G1 X78.866699 Y52.345538
G1 X77.439178 Y52.270703
G1 X76.077962 Y52.181134
G1 X74.783052 Y52.076830
G1 X73.554448 Y51.957792
G1 X72.392149 Y51.824019
G1 X71.296155 Y51.675511
G1 X70.266467 Y51.512269
G1 X69.303084 Y51.334292
G1 X68.406007 Y51.141581
G1 X67.575236 Y50.934135
G1 X66.810770 Y50.711955
G1 X66.112609 Y50.475040
G1 X65.480754 Y50.223391
G1 X64.915205 Y49.957007
G1 X64.415961 Y49.675888
G1 X63.983022 Y49.380035
G1 X63.616389 Y49.069448
G1 X63.316062 Y48.744125
G1 X63.082040 Y48.404069
G1 X62.914323 Y48.049277
G1 X62.812912 Y47.679751
G1 X62.777807 Y47.295491
G1 X62.809006 Y46.896496
G1 X62.906512 Y46.482766
G1 X63.070323 Y46.054302
G1 X63.300439 Y45.611104
G1 X63.596861 Y45.153171
G1 X63.959589 Y44.680503
G1 X64.388622 Y44.193100
G1 X64.883960 Y43.690964
G1 X65.445604 Y43.174092
G1 X66.073554 Y42.642486
G1 X66.767809 Y42.096146
G1 X67.528369 Y41.535071
G1 X68.355235 Y40.959261
G1 X69.248406 Y40.368717
G1 X70.207883 Y39.763438
G1 X71.233666 Y39.143425
G1 X72.325754 Y38.508677
G1 X73.484147 Y37.859194
G1 X74.708846 Y37.194977
