; SvgToGcode v1.5.4
; GRBL 1.1, unit=mm, absolute coordinates
; Boundingbox: (X45.703259,Y228.728470) to (X99.653865,Y250.900660)
; rapid movement,XY plane,cutter compensation off,coordinate system 1,move 'unit'/min
G0 G17 G40 G54 G94
G21
G90
; pass #1
G4 P0.4
M5
M9
G0 X60.696480 Y250.115180
; Cut at 300 mm/min, 100% power
M7
M4
G1 Y248.079134 S255 F300
G1 X59.888448 Y248.438521
G1 X59.112720 Y248.728332
G1 X58.453730 Y248.926626
G1 X57.731412 Y249.086584
G1 X57.026488 Y249.179452
G1 X56.417684 Y249.205678
G1 X55.779871 Y249.180342
G1 X55.201439 Y249.104334
G1 X54.682389 Y248.977654
G1 X54.222719 Y248.800302
G1 X53.822431 Y248.572278
G1 X53.782194 Y248.544222
G1 X53.483997 Y248.291181
G1 X53.244035 Y248.002806
G1 X53.062310 Y247.679097
G1 X52.938821 Y247.320054
G1 X52.873569 Y246.925676
G1 X52.862358 Y246.663206
G1 X52.890620 Y246.245645
G1 X52.975404 Y245.874070
G1 X53.116712 Y245.548480
G1 X53.314543 Y245.268874
G1 X53.472138 Y245.112918
G1 X53.727480 Y244.935248
G1 X54.052182 Y244.770012
G1 X54.446244 Y244.617207
G1 X54.909667 Y244.476835
G1 X55.442449 Y244.348896
G1 X55.807904 Y244.275762
G1 X57.068806 Y244.017380
G1 X57.792231 Y243.855769
G1 X58.451304 Y243.658468
G1 X59.046024 Y243.425475
G1 X59.576392 Y243.156791
G1 X60.042408 Y242.852415
G1 X60.444071 Y242.512349
G1 X60.510444 Y242.446422
G1 X60.842326 Y242.065329
G1 X61.115805 Y241.644219
G1 X61.330879 Y241.183091
G1 X61.487550 Y240.681946
G1 X61.585816 Y240.140783
G1 X61.625679 Y239.559603
G1 X61.626652 Y239.449198
G1 X61.599689 Y238.868993
G1 X61.518800 Y238.327571
G1 X61.383984 Y237.824931
G1 X61.195243 Y237.361074
G1 X60.952575 Y236.935999
G1 X60.655981 Y236.549707
G1 X60.305461 Y236.202198
G1 X60.117706 Y236.048900
G1 X59.646598 Y235.733512
G1 X59.114709 Y235.468179
G1 X58.522038 Y235.252902
G1 X57.868586 Y235.087680
G1 X57.154352 Y234.972513
G1 X56.379337 Y234.907401
G1 X55.714888 Y234.891352
G1 X54.937811 Y234.921170
G1 X54.125947 Y235.010625
G1 X53.379120 Y235.139398
G1 X52.427454 Y235.363178
G1 X51.448728 Y235.656112
G1 X50.826312 Y235.873200
G1 Y238.022934
G1 X51.622558 Y237.608290
G1 X52.408535 Y237.263468
G1 X53.184245 Y236.988469
G1 X53.317108 Y236.948066
G1 X54.081804 Y236.755969
G1 X54.838286 Y236.635748
G1 X55.586554 Y236.587403
G1 X55.714888 Y236.586332
G1 X56.325285 Y236.608580
G1 X56.883989 Y236.675322
G1 X57.391000 Y236.786560
G1 X57.846318 Y236.942293
G1 X58.249944 Y237.142521
G1 X58.474400 Y237.289130
G1 X58.789351 Y237.558190
G1 X59.042793 Y237.865202
G1 X59.234728 Y238.210166
G1 X59.365155 Y238.593081
G1 X59.434074 Y239.013947
G1 X59.445914 Y239.294170
G1 X59.413341 Y239.760680
G1 X59.315623 Y240.181206
G1 X59.152760 Y240.555746
G1 X58.924751 Y240.884301
G1 X58.743116 Y241.071832
G1 X58.437628 Y241.310380
G1 X58.063257 Y241.524383
G1 X57.620005 Y241.713842
G1 X57.107870 Y241.878757
G1 X56.526853 Y242.019128
G1 X56.459026 Y242.033012
G1 X55.187790 Y242.281058
G1 X54.465987 Y242.445299
G1 X53.811780 Y242.637120
G1 X53.225171 Y242.856521
G1 X52.706159 Y243.103501
G1 X52.254745 Y243.378061
G1 X51.870927 Y243.680200
G1 X51.808162 Y243.738328
G1 X51.497790 Y244.079571
G1 X51.242037 Y244.461371
G1 X51.040903 Y244.883730
G1 X50.894387 Y245.346648
G1 X50.802489 Y245.850123
G1 X50.765210 Y246.394157
G1 X50.764300 Y246.497840
G1 X50.795361 Y247.080876
G1 X50.888544 Y247.626371
G1 X51.043850 Y248.134324
G1 X51.261278 Y248.604736
G1 X51.540828 Y249.037606
G1 X51.882500 Y249.432934
G1 X52.200900 Y249.722440
G1 X52.649883 Y250.043460
G1 X53.145794 Y250.313532
G1 X53.688631 Y250.532654
G1 X54.278395 Y250.700826
G1 X54.915086 Y250.818050
G1 X55.598704 Y250.884324
G1 X56.179974 Y250.900660
G1 X57.097794 Y250.866097
G1 X58.030165 Y250.762406
G1 X58.391718 Y250.704280
G1 X59.346044 Y250.504948
G1 X60.318560 Y250.236500
G1 X60.696480 Y250.115170
G1 Y250.115180
G4 P0.4
M5
M9
G0 X62.801602 Y237.279628
; Cut at 300 mm/min, 100% power
M7
G1 Y240.783279
G1 X63.752446
G1 Y237.315801
G1 X63.774187 Y236.915433
G1 X63.839409 Y236.570469
G1 X63.948114 Y236.280909
G1 X64.072839 Y236.080738
G1 X64.261500 Y235.895751
G1 X64.493643 Y235.766169
G1 X64.769267 Y235.691990
G1 X65.034017 Y235.672496
G1 X65.413073 Y235.705809
G1 X65.747946 Y235.805746
G1 X66.038636 Y235.972309
G1 X66.248409 Y236.163420
G1 X66.452129 Y236.443381
G1 X66.594834 Y236.771733
G1 X66.676525 Y237.148475
G1 X66.697993 Y237.501836
G1 Y240.783279
G1 X67.648836
G1 Y234.995537
G1 X66.697993
G1 Y235.884369
G1 X66.444238 Y235.551165
G1 X66.163150 Y235.282566
G1 X65.891843 Y235.098889
G1 X65.558488 Y234.953742
G1 X65.189103 Y234.869474
G1 X64.832480 Y234.845676
G1 X64.425326 Y234.874417
G1 X64.062721 Y234.960638
G1 X63.744663 Y235.104341
G1 X63.471153 Y235.305525
G1 X63.318365 Y235.465791
G1 X63.119814 Y235.759377
G1 X62.969164 Y236.106134
G1 X62.866415 Y236.506061
G1 X62.811567 Y236.959157
G1 X62.801602 Y237.279628
G4 P0.4
M5
M9
G0 X65.194214 Y240.922805
; Cut at 300 mm/min, 100% power
M7
G4 P0.4
M5
M9
G0 X73.772474 Y240.561071
; Cut at 300 mm/min, 100% power
M7
G1 Y239.672239
G1 X73.320716 Y239.884949
G1 X72.961157 Y240.002967
G1 X72.507788 Y240.094484
G1 X72.144672 Y240.116655
G1 X71.765555 Y240.089351
G1 X71.424758 Y240.007441
G1 X71.122283 Y239.870923
G1 X70.858128 Y239.679798
G1 X70.708071 Y239.527545
G1 X70.494457 Y239.224315
G1 X70.338224 Y238.867761
G1 X70.239372 Y238.457883
G1 X70.197900 Y237.994682
G1 X70.196476 Y237.884240
G1 X70.225166 Y237.408872
G1 X70.311237 Y236.986247
G1 X70.454688 Y236.616366
G1 X70.655520 Y236.299228
G1 X70.708071 Y236.235767
G1 X70.947508 Y236.011405
G1 X71.225265 Y235.841170
G1 X71.541343 Y235.725064
G1 X71.895743 Y235.663085
G1 X72.144672 Y235.651825
G1 X72.603138 Y235.685662
G1 X72.961157 Y235.760346
G1 X73.415463 Y235.921146
G1 X73.772474 Y236.096241
G1 Y235.217745
G1 X73.271963 Y235.024302
G1 X72.945654 Y234.938693
G1 X72.454699 Y234.863814
G1 X72.041319 Y234.845673
G1 X71.550152 Y234.877145
G1 X71.100155 Y234.971561
G1 X70.691330 Y235.128922
G1 X70.323676 Y235.349226
G1 X69.997192 Y235.632475
G1 X69.963933 Y235.667325
G1 X69.692038 Y236.010912
G1 X69.479128 Y236.398441
G1 X69.325203 Y236.829911
G1 X69.230264 Y237.305325
G1 X69.194311 Y237.824680
G1 X69.193957 Y237.884237
G1 X69.223648 Y238.415309
G1 X69.312720 Y238.900063
G1 X69.461173 Y239.338500
G1 X69.669008 Y239.730620
G1 X69.936223 Y240.076421
G1 X69.969101 Y240.111484
G1 X70.296505 Y240.397978
G1 X70.667852 Y240.622320
G1 X71.083141 Y240.784509
G1 X71.542373 Y240.884545
G1 X72.045546 Y240.922429
G1 X72.103331 Y240.922802
G1 X72.635131 Y240.887708
G1 X72.961157 Y240.829782
G1 X73.465614 Y240.686769
G1 X73.772474 Y240.561066
G1 Y240.561071
G4 P0.4
M5
M9
G0 X45.703259 Y232.703401
; Cut at 300 mm/min, 100% power
M7
G1 X48.871745 Y232.380458
G1 X52.033159 Y231.994116
G1 X55.188870 Y231.560461
G1 X58.340248 Y231.095581
G1 X60.371326 Y230.786678
G1 X62.489534 Y230.469642
G1 X64.598652 Y230.095064
G1 X66.703885 Y229.696466
G1 X68.810438 Y229.307366
G1 X70.923516 Y228.961286
G1 X71.155589 Y228.927425
G1 X72.613693 Y228.802894
G1 X74.075728 Y228.741332
G1 X75.539676 Y228.728470
G1 X77.003516 Y228.750034
G1 X77.329376 Y228.758086
G1 X78.946104 Y228.829688
G1 X80.559959 Y228.955450
G1 X82.173007 Y229.094387
G1 X82.451519 Y229.116699
G1 X84.557895 Y229.261716
G1 X86.659353 Y229.467970
G1 X87.464566 Y229.560023
G1 X89.490649 Y229.886684
G1 X91.443380 Y230.277647
G1 X92.433411 Y230.467059
G1 X93.432685 Y230.587547
G1 X93.600310 Y230.600412
G1 X94.455977 Y230.713064
G1 X95.304094 Y230.881274
G1 X95.627712 Y230.953339
G1 X96.312046 Y231.131393
G1 X96.983997 Y231.354275
G1 X97.241350 Y231.441519
G1 X97.461891 Y231.518397
G1 X97.491418 Y231.541943
G1 X97.574340 Y231.608067
G1 X97.702167 Y231.710000
G1 X97.866409 Y231.840970
G1 X98.058575 Y231.994207
G1 X98.270175 Y232.162942
G1 X98.492720 Y232.340405
G1 X98.717718 Y232.519824
G1 X98.957918 Y232.711365
G1 X99.179514 Y232.888071
G1 X99.371205 Y233.040930
G1 X99.521692 Y233.160932
G1 X99.619674 Y233.239065
G1 X99.653677 Y233.266179
G1 X99.653865 Y233.266329
G1 X99.430300 Y233.191563
G1 X98.353742 Y232.818914
G1 X97.828088 Y232.670150
G1 X96.483123 Y232.383348
G1 X95.831069 Y232.285813
G1 X94.899757 Y232.202527
G1 X93.976186 Y232.053089
G1 X93.624137 Y231.978565
G1 X91.402729 Y231.515474
G1 X89.633740 Y231.217247
G1 X86.838729 Y230.917701
G1 X84.924576 Y230.776160
G1 X84.621714 Y230.761242
G1 X80.817130 Y230.452002
G1 X79.500195 Y230.388397
G1 X77.364166 Y230.340799
G1 X75.599231 Y230.366540
G1 X73.997356 Y230.458020
G1 X73.345179 Y230.517340
G1 X70.735914 Y230.884499
G1 X68.133989 Y231.304994
G1 X65.533502 Y231.736272
G1 X62.928551 Y232.135780
G1 X62.347081 Y232.216152
G1 X51.643328 Y233.807429
G1 X47.942938 Y234.339921
G1 X47.912768 Y234.317876
G1 X47.828041 Y234.255966
G1 X47.697432 Y234.160531
G1 X47.529616 Y234.037910
G1 X47.333268 Y233.894440
G1 X47.117063 Y233.736460
G1 X46.889675 Y233.570310
G1 X46.659779 Y233.402327
G1 X46.414352 Y233.222995
G1 X46.187933 Y233.057553
G1 X45.992070 Y232.914437
G1 X45.838308 Y232.802085
G1 X45.738194 Y232.728932
G1 X45.703451 Y232.703546
G1 X45.703259 Y232.703405
G1 Y232.703401
G4 P0.4
M5
M9
G0 X79.812758 Y240.561071
; Cut at 300 mm/min, 100% power
M7
G1 Y239.672239
G1 X79.361000 Y239.884949
G1 X79.001441 Y240.002967
G1 X78.548072 Y240.094484
G1 X78.184956 Y240.116655
G1 X77.805839 Y240.089351
G1 X77.465043 Y240.007441
G1 X77.162568 Y239.870923
G1 X76.898413 Y239.679798
G1 X76.748356 Y239.527545
G1 X76.534742 Y239.224315
G1 X76.378509 Y238.867761
G1 X76.279656 Y238.457883
G1 X76.238184 Y237.994682
G1 X76.236760 Y237.884240
G1 X76.265450 Y237.408872
G1 X76.351521 Y236.986247
G1 X76.494973 Y236.616366
G1 X76.695805 Y236.299228
G1 X76.748356 Y236.235767
G1 X76.987793 Y236.011405
G1 X77.265550 Y235.841170
G1 X77.581628 Y235.725064
G1 X77.936027 Y235.663085
G1 X78.184956 Y235.651825
G1 X78.643422 Y235.685662
G1 X79.001441 Y235.760346
G1 X79.455747 Y235.921146
G1 X79.812758 Y236.096241
G1 Y235.217745
G1 X79.312247 Y235.024302
G1 X78.985938 Y234.938693
G1 X78.494983 Y234.863814
G1 X78.081603 Y234.845673
G1 X77.590436 Y234.877145
G1 X77.140439 Y234.971561
G1 X76.731614 Y235.128922
G1 X76.363960 Y235.349226
G1 X76.037476 Y235.632475
G1 X76.004217 Y235.667325
G1 X75.732322 Y236.010912
G1 X75.519412 Y236.398441
G1 X75.365487 Y236.829911
G1 X75.270548 Y237.305325
G1 X75.234595 Y237.824680
G1 X75.234241 Y237.884237
G1 X75.263932 Y238.415309
G1 X75.353004 Y238.900063
G1 X75.501457 Y239.338500
G1 X75.709292 Y239.730620
G1 X75.976507 Y240.076421
G1 X76.009385 Y240.111484
G1 X76.336790 Y240.397978
G1 X76.708137 Y240.622320
G1 X77.123426 Y240.784509
G1 X77.582657 Y240.884545
G1 X78.085830 Y240.922429
G1 X78.143615 Y240.922802
G1 X78.675415 Y240.887708
G1 X79.001441 Y240.829782
G1 X79.505899 Y240.686769
G1 X79.812758 Y240.561066
G1 Y240.561071
G4 P0.4
M5
M9
G0 X86.416985 Y238.127119
; Cut at 300 mm/min, 100% power
M7
G1 Y237.662032
G1 X82.045173
G1 X82.100625 Y237.223086
G1 X82.208241 Y236.836305
G1 X82.368021 Y236.501687
G1 X82.579966 Y236.219234
G1 X82.634282 Y236.163420
G1 X82.909560 Y235.949806
G1 X83.231206 Y235.793573
G1 X83.599220 Y235.694721
G1 X84.013602 Y235.653249
G1 X84.112223 Y235.651825
G1 X84.659027 Y235.686447
G1 X85.171587 Y235.786184
G1 X85.693570 Y235.957214
G1 X86.194777 Y236.189259
G1 Y235.290092
G1 X85.615381 Y235.079930
G1 X85.145749 Y234.959363
G1 X84.540720 Y234.867847
G1 X84.055380 Y234.845676
G1 X83.535257 Y234.876554
G1 X83.059076 Y234.969189
G1 X82.626837 Y235.123580
G1 X82.238541 Y235.339728
G1 X81.894186 Y235.617632
G1 X81.859138 Y235.651825
G1 X81.574469 Y235.989146
G1 X81.351556 Y236.370012
G1 X81.190401 Y236.794425
G1 X81.091001 Y237.262385
G1 X81.053358 Y237.773891
G1 X81.052988 Y237.832564
G1 X81.082283 Y238.366252
G1 X81.170167 Y238.854811
G1 X81.316641 Y239.298239
G1 X81.521705 Y239.696538
G1 X81.785358 Y240.049707
G1 X81.817797 Y240.085649
G1 X82.139573 Y240.381267
G1 X82.502124 Y240.612753
G1 X82.905450 Y240.780107
G1 X83.349551 Y240.883330
G1 X83.834428 Y240.922420
G1 X83.890016 Y240.922805
G1 X84.328351 Y240.893906
G1 X84.729077 Y240.807209
G1 X85.092196 Y240.662715
G1 X85.417706 Y240.460422
G1 X85.705608 Y240.200332
G1 X85.734858 Y240.168331
G1 X85.975732 Y239.854250
G1 X86.164350 Y239.498603
G1 X86.300713 Y239.101389
G1 X86.384820 Y238.662607
G1 X86.416672 Y238.182259
G1 X86.416985 Y238.127119
G4 P0.4
M5
M9
G0 X85.466142 Y238.406170
; Cut at 300 mm/min, 100% power
M7
G1 X85.432352 Y238.791312
G1 X85.341757 Y239.133674
G1 X85.194356 Y239.433255
G1 X85.026893 Y239.651569
G1 X84.787192 Y239.862313
G1 X84.509620 Y240.009939
G1 X84.194176 Y240.094447
G1 X83.900351 Y240.116655
G1 X83.507132 Y240.086148
G1 X83.156694 Y239.994626
G1 X82.849036 Y239.842089
G1 X82.623947 Y239.667071
G1 X82.403610 Y239.407947
G1 X82.237976 Y239.099030
G1 X82.127044 Y238.740319
G1 X82.076179 Y238.401003
G1 X85.466142 Y238.406170
G4 P0.4
M5
M9
G0 X91.667295 Y240.612747
; Cut at 300 mm/min, 100% power
M7
G1 Y239.713580
G1 X91.207481 Y239.912199
G1 X90.830139 Y240.023638
G1 X90.335698 Y240.106834
G1 X89.930972 Y240.126990
G1 X89.554100 Y240.109170
G1 X89.234932 Y240.055708
G1 X88.973469 Y239.966606
G1 X88.866441 Y239.909950
G1 X88.693912 Y239.767747
G1 X88.579087 Y239.589903
G1 X88.521966 Y239.376418
G1 X88.515042 Y239.258829
G1 X88.545481 Y239.046264
G1 X88.636800 Y238.867244
G1 X88.768256 Y238.736899
G1 X88.934892 Y238.641029
G1 X89.170959 Y238.547263
G1 X89.476456 Y238.455601
G1 X89.786278 Y238.380332
G1 X90.111839 Y238.307982
G1 X90.558515 Y238.195043
G1 X90.939115 Y238.061818
G1 X91.253642 Y237.908308
G1 X91.502094 Y237.734511
G1 X91.548439 Y237.693034
G1 X91.742792 Y237.467031
G1 X91.878936 Y237.198249
G1 X91.956871 Y236.886685
G1 X91.977352 Y236.592329
G1 X91.947653 Y236.260795
G1 X91.858558 Y235.960397
G1 X91.710065 Y235.691134
G1 X91.502175 Y235.453007
G1 X91.336566 Y235.315926
G1 X91.008570 Y235.119574
G1 X90.626672 Y234.975966
G1 X90.190870 Y234.885101
G1 X89.701166 Y234.846981
G1 X89.584741 Y234.845672
G1 X88.997804 Y234.880766
G1 X88.613227 Y234.938692
G1 X88.035705 Y235.065804
G1 X87.553864 Y235.207409
G1 Y236.189258
G1 X88.085008 Y235.945817
G1 X88.592557 Y235.775847
G1 X89.109293 Y235.674061
G1 X89.605411 Y235.641489
G1 X89.998101 Y235.664079
G1 X90.329182 Y235.731847
G1 X90.598656 Y235.844796
G1 X90.638937 Y235.868865
G1 X90.816541 Y236.017407
G1 X90.934743 Y236.196498
G1 X90.993543 Y236.406139
G1 X91.000671 Y236.519986
G1 X90.968989 Y236.766999
G1 X90.873943 Y236.970527
G1 X90.737122 Y237.114263
G1 X90.579680 Y237.211294
G1 X90.352107 Y237.306586
G1 X90.054401 Y237.400140
G1 X89.686565 Y237.491955
G1 X89.595076 Y237.512170
G1 X89.264348 Y237.589680
G1 X88.837283 Y237.699927
G1 X88.476844 Y237.836823
G1 X88.183029 Y238.000370
G1 X87.987944 Y238.158119
G1 X87.795117 Y238.403567
G1 X87.666784 Y238.695688
G1 X87.602944 Y239.034482
G1 X87.595205 Y239.217483
G1 X87.627663 Y239.583325
G1 X87.725036 Y239.907435
G1 X87.887324 Y240.189814
G1 X88.114528 Y240.430462
G1 X88.173979 Y240.478384
G1 X88.475342 Y240.663947
G1 X88.831187 Y240.799665
G1 X89.241515 Y240.885537
G1 X89.706325 Y240.921563
G1 X89.817284 Y240.922800
G1 X90.441407 Y240.893557
G1 X90.809468 Y240.845290
G1 X91.306311 Y240.734557
G1 X91.667295 Y240.612747
G4 P0.4
M5
M9
G0 X97.181151
; Cut at 300 mm/min, 100% power
M7
G1 Y239.713580
G1 X96.721337 Y239.912199
G1 X96.343996 Y240.023638
G1 X95.849555 Y240.106834
G1 X95.444829 Y240.126990
G1 X95.067957 Y240.109170
G1 X94.748789 Y240.055708
G1 X94.487326 Y239.966606
G1 X94.380298 Y239.909950
G1 X94.207769 Y239.767747
G1 X94.092944 Y239.589903
G1 X94.035823 Y239.376418
G1 X94.028899 Y239.258829
G1 X94.059338 Y239.046264
G1 X94.150657 Y238.867244
G1 X94.282113 Y238.736899
G1 X94.448749 Y238.641029
G1 X94.684815 Y238.547263
G1 X94.990312 Y238.455601
G1 X95.300135 Y238.380332
G1 X95.625696 Y238.307982
G1 X96.072372 Y238.195043
G1 X96.452972 Y238.061818
G1 X96.767499 Y237.908308
G1 X97.015951 Y237.734511
G1 X97.062296 Y237.693034
G1 X97.256649 Y237.467031
G1 X97.392793 Y237.198249
G1 X97.470728 Y236.886685
G1 X97.491209 Y236.592329
G1 X97.461510 Y236.260795
G1 X97.372415 Y235.960397
G1 X97.223922 Y235.691134
G1 X97.016032 Y235.453007
G1 X96.850423 Y235.315926
G1 X96.522427 Y235.119574
G1 X96.140529 Y234.975966
G1 X95.704727 Y234.885101
G1 X95.215023 Y234.846981
G1 X95.098598 Y234.845672
G1 X94.511661 Y234.880766
G1 X94.127084 Y234.938692
G1 X93.549562 Y235.065804
G1 X93.067720 Y235.207409
G1 Y236.189258
G1 X93.598864 Y235.945817
G1 X94.106413 Y235.775847
G1 X94.623150 Y235.674061
G1 X95.119268 Y235.641489
G1 X95.511958 Y235.664079
G1 X95.843039 Y235.731847
G1 X96.112513 Y235.844796
G1 X96.152794 Y235.868865
G1 X96.330398 Y236.017407
G1 X96.448600 Y236.196498
G1 X96.507400 Y236.406139
G1 X96.514528 Y236.519986
G1 X96.482846 Y236.766999
G1 X96.387800 Y236.970527
G1 X96.250979 Y237.114263
G1 X96.093537 Y237.211294
G1 X95.865964 Y237.306586
G1 X95.568258 Y237.400140
G1 X95.200422 Y237.491955
G1 X95.108933 Y237.512170
G1 X94.778205 Y237.589680
G1 X94.351140 Y237.699927
G1 X93.990701 Y237.836823
G1 X93.696886 Y238.000370
G1 X93.501801 Y238.158119
G1 X93.308974 Y238.403567
G1 X93.180641 Y238.695688
G1 X93.116801 Y239.034482
G1 X93.109062 Y239.217483
G1 X93.141520 Y239.583325
G1 X93.238893 Y239.907435
G1 X93.401181 Y240.189814
G1 X93.628385 Y240.430462
G1 X93.687836 Y240.478384
G1 X93.989199 Y240.663947
G1 X94.345044 Y240.799665
G1 X94.755372 Y240.885537
G1 X95.220182 Y240.921563
G1 X95.331141 Y240.922800
G1 X95.955264 Y240.893557
G1 X96.323325 Y240.845290
G1 X96.820167 Y240.734557
G1 X97.181151 Y240.612747
M5
M9
M2
